; generated by PrusaSlicer 2.2.0+win64 on 2020-05-15 at 01:01:45 UTC


;
;

;
;
; 

; external perimeters extrusion width = 0.45mm
; perimeters extrusion width = 0.45mm
; infill extrusion width = 0.45mm
; solid infill extrusion width = 0.45mm
; top infill extrusion width = 0.40mm
; first layer extrusion width = 0.42mm

M73 P0 R2
M201 X1250 Y1250 Z400 E5000 ; sets maximum accelerations, mm/sec^2
M203 X180 Y180 Z12 E80 ; sets maximum feedrates, mm/sec
M204 P1250 R1250 T1250 ; sets acceleration (P, T) and retract acceleration (R), mm/sec^2
M205 X8.00 Y8.00 Z2.00 E10.00 ; sets the jerk limits, mm/sec
M205 S0 T0 ; sets the minimum extruding and travel feed rate, mm/sec
M107
G90 ; use absolute coordinates
M83 ; extruder relative mode
M104 S170 ; set extruder temp for bed leveling
M140 S85 ; set bed temp
M109 R170 ; wait for bed leveling temp
M190 S85 ; wait for bed temp
G28 ; home all without mesh bed level
G29 ; mesh bed leveling 
M104 S240 ; set extruder temp
G92 E0.0
G1 Y-2.0 X179 F2400
G1 Z3 F720
M109 S240 ; wait for extruder temp

; intro line
G1 X170 F1000
G1 Z0.2 F720
G1 X110.0 E8.0 F900
M73 P6 R2
G1 X40.0 E10.0 F700
G92 E0.0

M221 S95 ; set flow
G21 ; set units to millimeters
G90 ; use absolute coordinates
M83 ; use relative distances for extrusion
M900 K0.2 ; Filament gcode
;BEFORE_LAYER_CHANGE
G92 E0.0
;0.2


G1 Z0.200 F9000.000
;AFTER_LAYER_CHANGE
;0.2
G1 E-3.20000 F2400.00000
G1 Z0.400 F9000.000
G1 X84.642 Y84.643
G1 Z0.200
G1 E3.20000 F1500.00000
M204 S800
G1 F900
G1 X85.837 Y83.670 E0.04831
G1 X87.171 Y82.972 E0.04722
G1 X88.500 Y82.574 E0.04351
G1 X90.003 Y82.424 E0.04736
G1 X91.532 Y82.580 E0.04818
G1 X92.969 Y83.030 E0.04722
G1 X94.191 Y83.689 E0.04351
G1 X95.357 Y84.642 E0.04722
G1 X96.313 Y85.811 E0.04736
G1 X96.970 Y87.031 E0.04344
G1 X97.420 Y88.470 E0.04729
G1 X97.576 Y89.999 E0.04818
G1 X97.426 Y91.502 E0.04736
G1 X97.028 Y92.829 E0.04344
G1 X96.328 Y94.165 E0.04729
G1 X95.358 Y95.356 E0.04818
G1 X94.192 Y96.310 E0.04722
G1 X92.969 Y96.970 E0.04358
G1 X91.530 Y97.420 E0.04729
G1 X90.001 Y97.576 E0.04818
G1 X88.498 Y97.426 E0.04736
G1 X87.171 Y97.028 E0.04344
G1 X85.835 Y96.328 E0.04729
G1 X84.643 Y95.358 E0.04818
G1 X83.690 Y94.192 E0.04722
G1 X83.030 Y92.969 E0.04357
G1 X82.580 Y91.530 E0.04730
G1 X82.424 Y90.001 E0.04818
G1 X82.574 Y88.498 E0.04736
G1 X82.972 Y87.171 E0.04343
G1 X83.672 Y85.835 E0.04730
G1 X84.604 Y84.690 E0.04630
M204 S1250
G1 X84.895 Y84.928 F9000.000
M204 S800
G1 F900
G1 X86.043 Y83.986 E0.04657
G1 X87.315 Y83.320 E0.04502
G1 X88.574 Y82.944 E0.04118
G1 X90.002 Y82.801 E0.04502
G1 X91.455 Y82.949 E0.04578
G1 X92.825 Y83.378 E0.04502
G1 X93.981 Y84.002 E0.04118
G1 X95.092 Y84.911 E0.04502
G1 X96.014 Y86.043 E0.04578
G1 X96.680 Y87.315 E0.04502
G1 X97.056 Y88.574 E0.04118
G1 X97.199 Y90.002 E0.04502
G1 X97.051 Y91.455 E0.04578
G1 X96.622 Y92.825 E0.04501
G1 X95.998 Y93.981 E0.04118
G1 X95.089 Y95.092 E0.04502
G1 X93.957 Y96.014 E0.04578
G1 X92.685 Y96.680 E0.04502
G1 X91.426 Y97.056 E0.04118
G1 X89.998 Y97.199 E0.04502
G1 X88.545 Y97.051 E0.04578
G1 X87.175 Y96.622 E0.04501
G1 X86.019 Y95.998 E0.04118
G1 X84.908 Y95.089 E0.04502
G1 X83.986 Y93.957 E0.04578
G1 X83.320 Y92.685 E0.04502
G1 X82.944 Y91.426 E0.04118
G1 X82.801 Y89.998 E0.04502
G1 X82.949 Y88.545 E0.04578
G1 X83.378 Y87.175 E0.04502
G1 X84.002 Y86.019 E0.04118
G1 X84.857 Y84.974 E0.04233
M204 S1250
G1 X85.147 Y85.212 F9000.000
M204 S800
G1 F900
G1 X86.253 Y84.299 E0.04496
G1 X87.460 Y83.669 E0.04268
G1 X88.647 Y83.314 E0.03885
G1 X90.005 Y83.178 E0.04280
G1 X91.382 Y83.319 E0.04339
G1 X92.681 Y83.727 E0.04268
G1 X93.768 Y84.313 E0.03874
G1 X94.825 Y85.177 E0.04280
G1 X95.701 Y86.253 E0.04351
G1 X96.331 Y87.460 E0.04268
G1 X96.686 Y88.643 E0.03874
G1 X96.822 Y90.001 E0.04280
G1 X96.681 Y91.382 E0.04351
G1 X96.273 Y92.681 E0.04268
G1 X95.687 Y93.768 E0.03874
G1 X94.823 Y94.825 E0.04280
G1 X93.747 Y95.701 E0.04351
G1 X92.540 Y96.331 E0.04268
G1 X91.357 Y96.686 E0.03874
G1 X89.999 Y96.822 E0.04280
G1 X88.618 Y96.681 E0.04351
G1 X87.319 Y96.273 E0.04268
G1 X86.232 Y95.687 E0.03874
G1 X85.175 Y94.823 E0.04280
G1 X84.299 Y93.747 E0.04351
G1 X83.669 Y92.540 E0.04268
G1 X83.314 Y91.357 E0.03874
G1 X83.178 Y89.999 E0.04280
G1 X83.319 Y88.618 E0.04351
G1 X83.727 Y87.319 E0.04268
G1 X84.313 Y86.232 E0.03874
G1 X85.109 Y85.258 E0.03944
M204 S1250
G1 E-2.24000 F2400.00000
G1 F7200.000
G1 X86.253 Y84.299 E-0.47271
G1 X87.460 Y83.669 E-0.43104
G1 X87.485 Y83.661 E-0.00825
G1 E-0.04800 F2400.00000
G1 Z0.400 F9000.000
G1 X91.771 Y93.025
G1 Z0.200
G1 E3.20000 F1500.00000
M204 S800
G1 F900
G1 X88.229 Y93.025 E0.11104
G1 X87.900 Y92.800 E0.01251
G1 X87.674 Y92.616 E0.00914
G1 X87.377 Y92.318 E0.01319
G1 X87.192 Y92.090 E0.00919
G1 X86.891 Y91.608 E0.01783
G1 X86.717 Y91.215 E0.01348
G1 X86.628 Y90.940 E0.00905
G1 X86.562 Y90.659 E0.00905
G1 X86.507 Y90.235 E0.01341
G1 X86.505 Y89.805 E0.01347
G1 X86.555 Y89.381 E0.01341
G1 X86.656 Y88.965 E0.01341
G1 X86.756 Y88.684 E0.00935
G1 X86.937 Y88.305 E0.01318
G1 X87.168 Y87.942 E0.01347
G1 X87.440 Y87.612 E0.01341
G1 X87.653 Y87.403 E0.00935
G1 X87.981 Y87.141 E0.01318
G1 X88.347 Y86.915 E0.01347
G1 X88.737 Y86.735 E0.01348
G1 X89.147 Y86.605 E0.01348
G1 X89.567 Y86.527 E0.01341
G1 X89.867 Y86.502 E0.00943
G1 X90.427 Y86.525 E0.01759
G1 X90.988 Y86.642 E0.01796
G1 X91.523 Y86.848 E0.01796
G1 X92.016 Y87.138 E0.01796
G1 X92.456 Y87.506 E0.01796
G1 X92.830 Y87.939 E0.01796
G1 X93.128 Y88.429 E0.01796
G1 X93.343 Y88.960 E0.01796
G1 X93.468 Y89.519 E0.01796
G1 X93.500 Y90.091 E0.01796
G1 X93.438 Y90.660 E0.01796
G1 X93.284 Y91.212 E0.01796
G1 X93.043 Y91.732 E0.01796
G1 X92.719 Y92.205 E0.01796
G1 X92.326 Y92.615 E0.01783
G1 X92.101 Y92.800 E0.00913
G1 X91.820 Y92.991 E0.01065
M204 S1250
G1 X91.648 Y93.406 F9000.000
G1 X91.329 Y93.402
M204 S800
G1 F900
G1 X91.106 Y93.486 E0.00746
G1 X90.744 Y93.581 E0.01174
G1 X90.374 Y93.638 E0.01174
G1 X90.000 Y93.657 E0.01174
G1 X89.626 Y93.638 E0.01174
G1 X89.256 Y93.581 E0.01174
G1 X88.894 Y93.486 E0.01174
G1 X88.671 Y93.402 E0.00746
G1 X91.269 Y93.402 E0.08147
M204 S1250
G1 X91.221 Y93.846 F9000.000
M204 S800
G1 F900
G1 X90.821 Y93.950 E0.01295
G1 X90.413 Y94.014 E0.01295
G1 X90.000 Y94.035 E0.01295
G1 X89.587 Y94.014 E0.01295
G1 X89.179 Y93.950 E0.01295
G1 X88.779 Y93.846 E0.01295
G1 X88.393 Y93.701 E0.01295
G1 X88.021 Y93.516 E0.01301
G1 X87.789 Y93.375 E0.00853
G1 X87.454 Y93.130 E0.01301
G1 X87.147 Y92.853 E0.01295
G1 X86.870 Y92.546 E0.01295
G1 X86.626 Y92.213 E0.01295
G1 X86.417 Y91.855 E0.01301
G1 X86.300 Y91.609 E0.00853
G1 X86.154 Y91.221 E0.01301
G1 X86.050 Y90.821 E0.01295
G1 X85.986 Y90.413 E0.01295
G1 X85.965 Y90.000 E0.01295
G1 X85.986 Y89.587 E0.01295
G1 X86.050 Y89.177 E0.01301
G1 X86.114 Y88.913 E0.00853
G1 X86.247 Y88.520 E0.01301
G1 X86.418 Y88.144 E0.01295
G1 X86.626 Y87.787 E0.01295
G1 X86.870 Y87.454 E0.01295
G1 X87.147 Y87.147 E0.01295
G1 X87.454 Y86.870 E0.01295
G1 X87.787 Y86.626 E0.01295
G1 X88.144 Y86.418 E0.01295
G1 X88.520 Y86.247 E0.01295
G1 X88.911 Y86.115 E0.01295
G1 X89.314 Y86.024 E0.01295
G1 X89.726 Y85.975 E0.01301
G1 X90.000 Y85.965 E0.00859
G1 X90.413 Y85.986 E0.01295
G1 X90.821 Y86.050 E0.01295
G1 X91.221 Y86.154 E0.01295
G1 X91.607 Y86.299 E0.01295
G1 X91.979 Y86.484 E0.01301
G1 X92.211 Y86.625 E0.00853
G1 X92.546 Y86.870 E0.01301
G1 X92.853 Y87.147 E0.01295
G1 X93.130 Y87.454 E0.01295
G1 X93.375 Y87.789 E0.01301
G1 X93.516 Y88.021 E0.00853
G1 X93.701 Y88.393 E0.01301
G1 X93.846 Y88.779 E0.01295
G1 X93.950 Y89.179 E0.01295
G1 X94.014 Y89.587 E0.01295
G1 X94.035 Y90.000 E0.01295
G1 X94.014 Y90.413 E0.01295
G1 X93.950 Y90.821 E0.01295
G1 X93.846 Y91.221 E0.01295
G1 X93.701 Y91.607 E0.01295
G1 X93.516 Y91.979 E0.01301
G1 X93.375 Y92.211 E0.00853
G1 X93.130 Y92.546 E0.01301
G1 X92.853 Y92.853 E0.01295
G1 X92.546 Y93.130 E0.01295
G1 X92.211 Y93.375 E0.01301
G1 X91.979 Y93.516 E0.00853
G1 X91.607 Y93.701 E0.01301
G1 X91.277 Y93.825 E0.01107
M204 S1250
G1 X90.925 Y93.576 F9000.000
G1 X91.519 Y93.391
M204 S800
G1 F900
G1 X91.852 Y93.285 E0.00457
M204 S1250
M204 S800
G1
G1 X92.377 Y92.921 E0.00796
G1 X92.660 Y92.660 E0.00480
G1 X92.923 Y92.378 E0.00481
G1 X93.278 Y91.858 E0.00784
G1 X93.530 Y91.310 E0.00753
G1 X93.698 Y90.717 E0.00768
G1 X93.765 Y90.091 E0.00784
G1 X93.731 Y89.489 E0.00753
G1 X93.599 Y88.887 E0.00768
G1 X93.362 Y88.304 E0.00784
G1 X93.048 Y87.789 E0.00753
G1 X92.648 Y87.320 E0.00768
G1 X92.164 Y86.918 E0.00784
G1 X91.632 Y86.607 E0.00768
G1 X91.069 Y86.389 E0.00753
G1 X90.454 Y86.261 E0.00783
G1 X89.857 Y86.236 E0.00744
G1 X89.528 Y86.265 E0.00411
G1 X89.087 Y86.347 E0.00560
G1 X88.618 Y86.496 E0.00613
G1 X88.225 Y86.678 E0.00540
G1 X87.935 Y86.852 E0.00421
G1 X87.480 Y87.203 E0.00716
G1 X87.080 Y87.625 E0.00725
G1 X86.852 Y87.935 E0.00480
G1 X86.703 Y88.180 E0.00357
G1 X86.496 Y88.618 E0.00604
G1 X86.373 Y88.988 E0.00486
G1 X86.295 Y89.329 E0.00436
G1 X86.255 Y89.615 E0.00360
G1 X86.236 Y90.000 E0.00480
G1 X86.255 Y90.385 E0.00480
G1 X86.300 Y90.703 E0.00400
G1 X86.411 Y91.139 E0.00561
G1 X86.653 Y91.730 E0.00796
G1 X86.854 Y92.063 E0.00486
G1 X87.079 Y92.377 E0.00480
G1 X87.493 Y92.809 E0.00747
G1 X87.744 Y93.014 E0.00403
G1 X88.129 Y93.275 E0.00580
G1 X88.481 Y93.391 E0.00462
M204 S1250
;BEFORE_LAYER_CHANGE
G92 E0.0
;0.45


G1 Z0.450 F9000.000
;AFTER_LAYER_CHANGE
;0.45
M104 S250 ; set temperature
M140 S90 ; set bed temperature
G1 E-3.20000 F2400.00000
G1 Z0.650 F9000.000
G1 X85.835 Y96.328
G1 Z0.450
G1 E3.20000 F1500.00000
G1 F900
G1 X84.643 Y95.358 E0.05851
G1 X83.690 Y94.192 E0.05735
G1 X83.030 Y92.969 E0.05292
G1 X82.580 Y91.530 E0.05744
G1 X82.424 Y90.001 E0.05851
G1 X82.574 Y88.498 E0.05751
G1 X82.972 Y87.171 E0.05275
G1 X83.672 Y85.835 E0.05744
G1 X84.642 Y84.643 E0.05851
G1 X85.837 Y83.670 E0.05867
G1 X87.171 Y82.972 E0.05735
G1 X88.500 Y82.574 E0.05284
G1 X90.003 Y82.424 E0.05751
G1 X91.532 Y82.580 E0.05851
G1 X92.969 Y83.030 E0.05735
G1 X94.191 Y83.689 E0.05284
G1 X95.357 Y84.642 E0.05735
G1 X96.313 Y85.811 E0.05751
G1 X96.970 Y87.031 E0.05275
G1 X97.420 Y88.470 E0.05744
G1 X97.576 Y89.999 E0.05851
G1 X97.426 Y91.502 E0.05751
G1 X97.028 Y92.829 E0.05275
G1 X96.328 Y94.165 E0.05744
G1 X95.358 Y95.356 E0.05851
G1 X94.192 Y96.310 E0.05735
G1 X92.969 Y96.970 E0.05292
G1 X91.530 Y97.420 E0.05744
G1 X90.001 Y97.576 E0.05851
G1 X88.498 Y97.426 E0.05751
G1 X87.171 Y97.028 E0.05275
G1 X85.888 Y96.356 E0.05515
G1 X86.067 Y96.024 F9000.000
G1 F900
G1 X84.908 Y95.089 E0.05671
G1 X83.986 Y93.957 E0.05560
G1 X83.320 Y92.685 E0.05467
G1 X82.944 Y91.426 E0.05001
G1 X82.801 Y89.998 E0.05467
G1 X82.949 Y88.545 E0.05560
G1 X83.378 Y87.175 E0.05467
G1 X84.002 Y86.019 E0.05001
G1 X84.911 Y84.908 E0.05467
G1 X86.043 Y83.986 E0.05560
G1 X87.315 Y83.320 E0.05467
G1 X88.574 Y82.944 E0.05001
G1 X90.002 Y82.801 E0.05467
G1 X91.455 Y82.949 E0.05560
G1 X92.825 Y83.378 E0.05467
G1 X93.981 Y84.002 E0.05001
G1 X95.092 Y84.911 E0.05467
G1 X96.014 Y86.043 E0.05560
G1 X96.680 Y87.315 E0.05467
G1 X97.056 Y88.574 E0.05001
G1 X97.199 Y90.002 E0.05467
G1 X97.051 Y91.455 E0.05560
G1 X96.622 Y92.825 E0.05467
G1 X95.998 Y93.981 E0.05001
G1 X95.089 Y95.092 E0.05467
G1 X93.957 Y96.014 E0.05560
G1 X92.685 Y96.680 E0.05467
G1 X91.426 Y97.056 E0.05001
G1 X89.998 Y97.199 E0.05467
G1 X88.545 Y97.051 E0.05560
G1 X87.175 Y96.622 E0.05467
G1 X86.120 Y96.052 E0.04565
G1 X86.298 Y95.722 F9000.000
G1 F900
G1 X86.232 Y95.687 E0.00285
G1 X85.175 Y94.823 E0.05198
G1 X84.299 Y93.747 E0.05284
G1 X83.669 Y92.540 E0.05183
G1 X83.314 Y91.357 E0.04704
G1 X83.178 Y89.999 E0.05198
G1 X83.319 Y88.618 E0.05284
G1 X83.727 Y87.319 E0.05183
G1 X84.313 Y86.232 E0.04704
G1 X85.177 Y85.175 E0.05198
G1 X86.253 Y84.299 E0.05284
G1 X87.460 Y83.669 E0.05183
G1 X88.647 Y83.314 E0.04719
G1 X90.005 Y83.178 E0.05198
G1 X91.382 Y83.319 E0.05270
G1 X92.681 Y83.727 E0.05183
G1 X93.768 Y84.313 E0.04704
G1 X94.825 Y85.177 E0.05198
G1 X95.701 Y86.253 E0.05284
G1 X96.331 Y87.460 E0.05183
G1 X96.686 Y88.643 E0.04704
G1 X96.822 Y90.001 E0.05198
G1 X96.681 Y91.382 E0.05284
G1 X96.273 Y92.681 E0.05183
G1 X95.687 Y93.768 E0.04704
G1 X94.823 Y94.825 E0.05198
G1 X93.747 Y95.701 E0.05284
G1 X92.540 Y96.331 E0.05183
G1 X91.357 Y96.686 E0.04704
G1 X89.999 Y96.822 E0.05198
G1 X88.618 Y96.681 E0.05284
G1 X87.319 Y96.273 E0.05183
G1 X86.351 Y95.751 E0.04191
G1 E-2.24000 F2400.00000
G1 F7200.000
G1 X86.232 Y95.687 E-0.04268
G1 X85.175 Y94.823 E-0.43225
G1 X84.304 Y93.753 E-0.43708
G1 E-0.04800 F2400.00000
G1 Z0.650 F9000.000
G1 X88.146 Y93.237
G1 Z0.450
G1 E3.20000 F1500.00000
M204 S800
G1 F900
G1 X87.535 Y92.777 E0.03151
G1 X87.225 Y92.465 E0.01811
G1 X87.021 Y92.215 E0.01329
G1 X86.701 Y91.704 E0.02485
G1 X86.467 Y91.140 E0.02514
G1 X86.354 Y90.701 E0.01868
G1 X86.296 Y90.249 E0.01876
G1 X86.293 Y89.794 E0.01877
G1 X86.345 Y89.348 E0.01849
G1 X86.451 Y88.911 E0.01854
G1 X86.563 Y88.597 E0.01370
G1 X86.750 Y88.206 E0.01787
G1 X86.994 Y87.822 E0.01875
G1 X87.280 Y87.474 E0.01855
G1 X87.517 Y87.241 E0.01370
G1 X87.856 Y86.970 E0.01787
G1 X88.243 Y86.730 E0.01875
G1 X88.657 Y86.539 E0.01878
G1 X89.091 Y86.401 E0.01878
G1 X89.534 Y86.317 E0.01856
G1 X89.872 Y86.290 E0.01396
G1 X90.450 Y86.314 E0.02386
G1 X91.045 Y86.437 E0.02501
G1 X91.612 Y86.655 E0.02504
G1 X92.136 Y86.962 E0.02504
G1 X92.603 Y87.352 E0.02504
G1 X93.000 Y87.812 E0.02504
G1 X93.317 Y88.330 E0.02504
G1 X93.545 Y88.894 E0.02504
G1 X93.678 Y89.487 E0.02504
G1 X93.712 Y90.094 E0.02504
G1 X93.647 Y90.698 E0.02504
G1 X93.485 Y91.284 E0.02504
G1 X93.228 Y91.835 E0.02504
G1 X92.886 Y92.337 E0.02504
G1 X92.466 Y92.776 E0.02504
G1 X91.853 Y93.237 E0.03157
G1 X88.206 Y93.237 E0.15024
M204 S1250
G1 X88.279 Y92.840 F9000.000
M204 S800
G1 F900
G1 X87.796 Y92.477 E0.02490
G1 X87.519 Y92.199 E0.01614
G1 X87.344 Y91.984 E0.01146
G1 X87.054 Y91.521 E0.02247
G1 X86.844 Y91.015 E0.02260
G1 X86.744 Y90.626 E0.01652
G1 X86.692 Y90.223 E0.01676
G1 X86.690 Y89.816 E0.01676
G1 X86.736 Y89.418 E0.01650
G1 X86.832 Y89.024 E0.01669
G1 X86.930 Y88.750 E0.01201
G1 X87.097 Y88.398 E0.01605
G1 X87.315 Y88.055 E0.01676
G1 X87.573 Y87.742 E0.01669
G1 X87.781 Y87.537 E0.01201
G1 X88.085 Y87.294 E0.01605
G1 X88.431 Y87.080 E0.01676
G1 X88.800 Y86.909 E0.01677
G1 X89.188 Y86.786 E0.01677
G1 X89.586 Y86.711 E0.01669
G1 X89.879 Y86.687 E0.01210
G1 X90.402 Y86.709 E0.02153
G1 X90.933 Y86.818 E0.02235
G1 X91.439 Y87.013 E0.02236
G1 X91.907 Y87.288 E0.02236
G1 X92.324 Y87.635 E0.02236
G1 X92.679 Y88.046 E0.02236
G1 X92.962 Y88.509 E0.02236
G1 X93.165 Y89.012 E0.02236
G1 X93.284 Y89.542 E0.02236
G1 X93.315 Y90.084 E0.02236
G1 X93.257 Y90.623 E0.02236
G1 X93.111 Y91.146 E0.02236
G1 X92.883 Y91.638 E0.02236
G1 X92.577 Y92.087 E0.02236
G1 X92.202 Y92.479 E0.02236
G1 X91.721 Y92.840 E0.02478
G1 X88.339 Y92.840 E0.13933
M204 S1250
G1 X87.960 Y93.082 F9000.000
G1 X88.063 Y93.294
M204 S800
G1 F900
G1 X87.587 Y92.965 E0.02381
G1 X87.297 Y92.703 E0.01613
G1 X87.035 Y92.413 E0.01613
G1 X86.803 Y92.097 E0.01613
G1 X86.604 Y91.755 E0.01631
G1 X86.489 Y91.513 E0.01104
G1 X86.356 Y91.157 E0.01564
G1 X86.257 Y90.778 E0.01614
G1 X86.197 Y90.391 E0.01613
G1 X86.177 Y90.000 E0.01613
G1 X86.197 Y89.609 E0.01613
G1 X86.257 Y89.222 E0.01613
G1 X86.357 Y88.839 E0.01631
G1 X86.448 Y88.587 E0.01104
G1 X86.606 Y88.242 E0.01564
G1 X86.803 Y87.903 E0.01614
G1 X87.035 Y87.587 E0.01613
G1 X87.297 Y87.297 E0.01613
G1 X87.587 Y87.035 E0.01613
G1 X87.903 Y86.803 E0.01613
G1 X88.241 Y86.606 E0.01613
G1 X88.598 Y86.444 E0.01613
G1 X88.969 Y86.319 E0.01613
G1 X89.350 Y86.233 E0.01613
G1 X89.744 Y86.186 E0.01631
G1 X90.011 Y86.177 E0.01104
G1 X90.391 Y86.197 E0.01564
G1 X90.778 Y86.257 E0.01614
G1 X91.156 Y86.356 E0.01613
G1 X91.523 Y86.494 E0.01613
G1 X91.878 Y86.670 E0.01631
G1 X92.106 Y86.810 E0.01104
G1 X92.412 Y87.034 E0.01564
G1 X92.703 Y87.297 E0.01614
G1 X92.965 Y87.587 E0.01613
G1 X93.200 Y87.908 E0.01635
G1 X93.330 Y88.122 E0.01032
G1 X93.506 Y88.477 E0.01635
G1 X93.644 Y88.844 E0.01613
G1 X93.743 Y89.222 E0.01613
G1 X93.803 Y89.609 E0.01613
G1 X93.823 Y90.000 E0.01613
G1 X93.803 Y90.391 E0.01613
G1 X93.743 Y90.778 E0.01613
G1 X93.644 Y91.156 E0.01613
G1 X93.506 Y91.523 E0.01613
