; generated by PrusaSlicer 2.2.0+win64 on 2020-05-15 at 00:53:38 UTC


;
;

;
;
; 

; external perimeters extrusion width = 0.45mm
; perimeters extrusion width = 0.45mm
; infill extrusion width = 0.45mm
; solid infill extrusion width = 0.45mm
; top infill extrusion width = 0.40mm
; first layer extrusion width = 0.42mm

M73 P0 R3
M201 X1250 Y1250 Z400 E5000 ; sets maximum accelerations, mm/sec^2
M203 X180 Y180 Z12 E80 ; sets maximum feedrates, mm/sec
M204 P1250 R1250 T1250 ; sets acceleration (P, T) and retract acceleration (R), mm/sec^2
M205 X8.00 Y8.00 Z2.00 E10.00 ; sets the jerk limits, mm/sec
M205 S0 T0 ; sets the minimum extruding and travel feed rate, mm/sec
M107
G90 ; use absolute coordinates
M83 ; extruder relative mode
M104 S170 ; set extruder temp for bed leveling
M140 S85 ; set bed temp
M109 R170 ; wait for bed leveling temp
M190 S85 ; wait for bed temp
G28 ; home all without mesh bed level
G29 ; mesh bed leveling 
M104 S240 ; set extruder temp
G92 E0.0
G1 Y-2.0 X179 F2400
G1 Z3 F720
M109 S240 ; wait for extruder temp

; intro line
G1 X170 F1000
G1 Z0.2 F720
G1 X110.0 E8.0 F900
M73 P5 R3
G1 X40.0 E10.0 F700
G92 E0.0

M221 S95 ; set flow
G21 ; set units to millimeters
G90 ; use absolute coordinates
M83 ; use relative distances for extrusion
M900 K0.2 ; Filament gcode
;BEFORE_LAYER_CHANGE
G92 E0.0
;0.2


G1 Z0.200 F9000.000
;AFTER_LAYER_CHANGE
;0.2
G1 E-3.20000 F2400.00000
G1 Z0.400 F9000.000
G1 X84.642 Y84.643
G1 Z0.200
G1 E3.20000 F1500.00000
M204 S800
G1 F1200.000
G1 X85.837 Y83.670 E0.04831
G1 X87.171 Y82.972 E0.04722
G1 X88.500 Y82.574 E0.04351
G1 X90.003 Y82.424 E0.04736
G1 X91.532 Y82.580 E0.04818
G1 X92.969 Y83.030 E0.04722
G1 X94.191 Y83.689 E0.04351
G1 X95.357 Y84.642 E0.04722
G1 X96.313 Y85.811 E0.04736
G1 X96.970 Y87.031 E0.04344
G1 X97.420 Y88.470 E0.04729
G1 X97.576 Y89.999 E0.04818
G1 X97.426 Y91.502 E0.04736
G1 X97.028 Y92.829 E0.04344
G1 X96.328 Y94.165 E0.04729
G1 X95.358 Y95.356 E0.04818
G1 X94.192 Y96.310 E0.04722
G1 X92.969 Y96.970 E0.04358
G1 X91.530 Y97.420 E0.04729
G1 X90.001 Y97.576 E0.04818
G1 X88.498 Y97.426 E0.04736
G1 X87.171 Y97.028 E0.04344
G1 X85.835 Y96.328 E0.04729
G1 X84.643 Y95.358 E0.04818
G1 X83.690 Y94.192 E0.04722
G1 X83.030 Y92.969 E0.04357
G1 X82.580 Y91.530 E0.04730
G1 X82.424 Y90.001 E0.04818
G1 X82.574 Y88.498 E0.04736
G1 X82.972 Y87.171 E0.04343
G1 X83.672 Y85.835 E0.04730
G1 X84.604 Y84.690 E0.04630
M204 S1250
G1 X84.895 Y84.928 F9000.000
M204 S800
G1 F1200.000
G1 X86.043 Y83.986 E0.04657
G1 X87.315 Y83.320 E0.04502
G1 X88.574 Y82.944 E0.04118
G1 X90.002 Y82.801 E0.04502
G1 X91.455 Y82.949 E0.04578
G1 X92.825 Y83.378 E0.04502
G1 X93.981 Y84.002 E0.04118
G1 X95.092 Y84.911 E0.04502
G1 X96.014 Y86.043 E0.04578
G1 X96.680 Y87.315 E0.04502
G1 X97.056 Y88.574 E0.04118
G1 X97.199 Y90.002 E0.04502
G1 X97.051 Y91.455 E0.04578
G1 X96.622 Y92.825 E0.04501
G1 X95.998 Y93.981 E0.04118
G1 X95.089 Y95.092 E0.04502
G1 X93.957 Y96.014 E0.04578
G1 X92.685 Y96.680 E0.04502
G1 X91.426 Y97.056 E0.04118
G1 X89.998 Y97.199 E0.04502
G1 X88.545 Y97.051 E0.04578
G1 X87.175 Y96.622 E0.04501
G1 X86.019 Y95.998 E0.04118
G1 X84.908 Y95.089 E0.04502
G1 X83.986 Y93.957 E0.04578
G1 X83.320 Y92.685 E0.04502
G1 X82.944 Y91.426 E0.04118
G1 X82.801 Y89.998 E0.04502
G1 X82.949 Y88.545 E0.04578
G1 X83.378 Y87.175 E0.04502
G1 X84.002 Y86.019 E0.04118
G1 X84.857 Y84.974 E0.04233
M204 S1250
G1 X85.147 Y85.212 F9000.000
M204 S800
G1 F1200.000
G1 X86.253 Y84.299 E0.04496
G1 X87.460 Y83.669 E0.04268
G1 X88.647 Y83.314 E0.03885
G1 X90.005 Y83.178 E0.04280
G1 X91.382 Y83.319 E0.04339
G1 X92.681 Y83.727 E0.04268
G1 X93.768 Y84.313 E0.03874
G1 X94.825 Y85.177 E0.04280
G1 X95.701 Y86.253 E0.04351
G1 X96.331 Y87.460 E0.04268
G1 X96.686 Y88.643 E0.03874
G1 X96.822 Y90.001 E0.04280
G1 X96.681 Y91.382 E0.04351
G1 X96.273 Y92.681 E0.04268
G1 X95.687 Y93.768 E0.03874
G1 X94.823 Y94.825 E0.04280
G1 X93.747 Y95.701 E0.04351
G1 X92.540 Y96.331 E0.04268
G1 X91.357 Y96.686 E0.03874
G1 X89.999 Y96.822 E0.04280
G1 X88.618 Y96.681 E0.04351
G1 X87.319 Y96.273 E0.04268
G1 X86.232 Y95.687 E0.03874
G1 X85.175 Y94.823 E0.04280
G1 X84.299 Y93.747 E0.04351
G1 X83.669 Y92.540 E0.04268
G1 X83.314 Y91.357 E0.03874
G1 X83.178 Y89.999 E0.04280
G1 X83.319 Y88.618 E0.04351
G1 X83.727 Y87.319 E0.04268
G1 X84.313 Y86.232 E0.03874
G1 X85.109 Y85.258 E0.03944
M204 S1250
G1 E-2.24000 F2400.00000
G1 F7200.000
G1 X86.253 Y84.299 E-0.47271
G1 X87.460 Y83.669 E-0.43104
G1 X87.485 Y83.661 E-0.00825
G1 E-0.04800 F2400.00000
G1 Z0.400 F9000.000
G1 X83.355 Y83.706
G1 Z0.200
G1 E3.20000 F1500.00000
M204 S800
G1 F1200.000
G1 X84.104 Y82.992 E0.03247
G1 X84.847 Y82.429 E0.02922
G1 X85.640 Y81.947 E0.02910
G1 X86.406 Y81.577 E0.02668
G1 X87.235 Y81.269 E0.02772
G1 X88.110 Y81.039 E0.02837
G1 X88.983 Y80.898 E0.02774
G1 X89.879 Y80.842 E0.02814
G1 X90.786 Y80.875 E0.02844
G1 X91.710 Y81.003 E0.02925
G1 X92.620 Y81.225 E0.02939
G1 X93.504 Y81.539 E0.02940
G1 X94.342 Y81.937 E0.02910
G1 X95.095 Y82.390 E0.02754
G1 X95.800 Y82.912 E0.02752
G1 X96.440 Y83.488 E0.02697
G1 X97.020 Y84.118 E0.02685
G1 X97.567 Y84.842 E0.02847
G1 X98.035 Y85.606 E0.02810
G1 X98.430 Y86.420 E0.02837
G1 X98.738 Y87.257 E0.02795
G1 X98.962 Y88.114 E0.02777
G1 X99.104 Y89.006 E0.02833
G1 X99.158 Y89.903 E0.02816
G1 X99.124 Y90.788 E0.02777
G1 X98.997 Y91.710 E0.02919
G1 X98.775 Y92.620 E0.02939
G1 X98.461 Y93.504 E0.02940
G1 X98.063 Y94.342 E0.02910
G1 X97.621 Y95.078 E0.02691
G1 X97.095 Y95.791 E0.02779
G1 X96.521 Y96.430 E0.02693
G1 X95.891 Y97.012 E0.02688
G1 X95.160 Y97.566 E0.02876
G1 X94.411 Y98.026 E0.02757
G1 X93.599 Y98.422 E0.02834
G1 X92.744 Y98.738 E0.02857
G1 X91.886 Y98.962 E0.02779
G1 X90.994 Y99.104 E0.02833
G1 X90.097 Y99.158 E0.02816
G1 X89.212 Y99.124 E0.02777
G1 X88.299 Y98.999 E0.02889
G1 X87.444 Y98.794 E0.02758
G1 X86.590 Y98.500 E0.02834
G1 X85.762 Y98.119 E0.02858
G1 X84.996 Y97.670 E0.02782
G1 X84.263 Y97.139 E0.02838
G1 X83.600 Y96.551 E0.02780
G1 X82.984 Y95.887 E0.02838
G1 X82.428 Y95.151 E0.02894
G1 X81.946 Y94.360 E0.02903
G1 X81.577 Y93.594 E0.02667
G1 X81.269 Y92.765 E0.02772
G1 X81.039 Y91.890 E0.02837
G1 X80.898 Y91.017 E0.02775
G1 X80.842 Y90.121 E0.02814
G1 X80.875 Y89.214 E0.02844
G1 X81.003 Y88.290 E0.02925
G1 X81.222 Y87.388 E0.02910
G1 X81.503 Y86.585 E0.02668
G1 X81.871 Y85.781 E0.02774
G1 X82.328 Y84.998 E0.02840
G1 X82.855 Y84.270 E0.02819
G1 X83.315 Y83.751 E0.02174
M204 S1250
G1 X83.597 Y84.001 F9000.000
M204 S800
G1 F1200.000
G1 X83.717 Y83.865 E0.00570
G1 X84.354 Y83.275 E0.02721
G1 X85.067 Y82.736 E0.02803
G1 X85.828 Y82.274 E0.02791
G1 X86.562 Y81.920 E0.02554
G1 X87.357 Y81.626 E0.02659
G1 X88.196 Y81.406 E0.02721
G1 X89.034 Y81.272 E0.02659
G1 X89.893 Y81.219 E0.02699
G1 X90.762 Y81.252 E0.02727
G1 X91.648 Y81.375 E0.02806
G1 X92.521 Y81.588 E0.02818
G1 X93.368 Y81.890 E0.02819
G1 X94.172 Y82.273 E0.02791
G1 X94.892 Y82.708 E0.02639
G1 X95.568 Y83.210 E0.02639
G1 X96.180 Y83.762 E0.02585
G1 X96.736 Y84.366 E0.02574
G1 X97.261 Y85.062 E0.02732
G1 X97.709 Y85.795 E0.02694
G1 X98.086 Y86.576 E0.02721
G1 X98.381 Y87.378 E0.02679
G1 X98.595 Y88.200 E0.02662
G1 X98.730 Y89.056 E0.02717
G1 X98.781 Y89.915 E0.02700
G1 X98.748 Y90.764 E0.02662
G1 X98.625 Y91.648 E0.02800
G1 X98.411 Y92.521 E0.02818
G1 X98.110 Y93.368 E0.02819
G1 X97.727 Y94.172 E0.02790
G1 X97.303 Y94.876 E0.02577
G1 X96.797 Y95.559 E0.02666
G1 X96.247 Y96.171 E0.02581
G1 X95.643 Y96.728 E0.02577
G1 X94.940 Y97.259 E0.02761
G1 X94.222 Y97.699 E0.02641
G1 X93.442 Y98.078 E0.02718
G1 X92.622 Y98.381 E0.02740
G1 X91.800 Y98.595 E0.02664
G1 X90.944 Y98.730 E0.02717
G1 X90.085 Y98.781 E0.02700
G1 X89.236 Y98.748 E0.02661
G1 X88.361 Y98.626 E0.02772
G1 X87.541 Y98.430 E0.02643
G1 X86.722 Y98.146 E0.02718
G1 X85.928 Y97.780 E0.02741
G1 X85.195 Y97.350 E0.02666
G1 X84.493 Y96.839 E0.02722
G1 X83.857 Y96.275 E0.02664
G1 X83.268 Y95.638 E0.02722
G1 X82.734 Y94.932 E0.02775
G1 X82.274 Y94.172 E0.02785
G1 X81.920 Y93.438 E0.02553
G1 X81.626 Y92.643 E0.02659
G1 X81.406 Y91.804 E0.02721
G1 X81.272 Y90.966 E0.02659
G1 X81.219 Y90.107 E0.02699
G1 X81.252 Y89.238 E0.02727
G1 X81.375 Y88.352 E0.02805
G1 X81.586 Y87.487 E0.02791
G1 X81.855 Y86.718 E0.02554
G1 X82.210 Y85.947 E0.02661
G1 X82.649 Y85.197 E0.02724
G1 X83.155 Y84.499 E0.02703
G1 X83.557 Y84.046 E0.01900
M204 S1250
G1 X83.993 Y84.122 F9000.000
M204 S800
G1 F1200.000
G1 X84.603 Y83.558 E0.02604
G1 X85.286 Y83.042 E0.02684
G1 X86.015 Y82.601 E0.02672
G1 X86.717 Y82.264 E0.02441
G1 X87.479 Y81.983 E0.02547
G1 X88.282 Y81.773 E0.02605
G1 X89.084 Y81.646 E0.02544
G1 X89.906 Y81.596 E0.02583
G1 X90.738 Y81.628 E0.02610
G1 X91.586 Y81.747 E0.02686
G1 X92.422 Y81.952 E0.02697
G1 X93.232 Y82.242 E0.02698
G1 X94.000 Y82.609 E0.02671
G1 X94.689 Y83.026 E0.02524
G1 X95.336 Y83.507 E0.02526
G1 X95.921 Y84.036 E0.02473
G1 X96.452 Y84.614 E0.02462
G1 X96.954 Y85.281 E0.02617
G1 X97.382 Y85.983 E0.02578
G1 X97.742 Y86.731 E0.02605
G1 X98.023 Y87.499 E0.02563
G1 X98.227 Y88.285 E0.02547
G1 X98.356 Y89.105 E0.02601
G1 X98.404 Y89.928 E0.02584
G1 X98.372 Y90.739 E0.02546
G1 X98.253 Y91.586 E0.02682
G1 X98.048 Y92.422 E0.02697
G1 X97.758 Y93.232 E0.02698
G1 X97.391 Y94.001 E0.02671
G1 X96.985 Y94.673 E0.02463
G1 X96.500 Y95.328 E0.02554
G1 X95.973 Y95.912 E0.02468
G1 X95.394 Y96.445 E0.02465
G1 X94.721 Y96.953 E0.02645
G1 X94.033 Y97.373 E0.02526
G1 X93.286 Y97.735 E0.02603
G1 X92.501 Y98.023 E0.02623
G1 X91.715 Y98.227 E0.02548
G1 X90.895 Y98.356 E0.02601
G1 X90.072 Y98.404 E0.02584
G1 X89.261 Y98.372 E0.02546
G1 X88.422 Y98.254 E0.02655
G1 X87.639 Y98.065 E0.02527
G1 X86.854 Y97.793 E0.02603
G1 X86.095 Y97.442 E0.02623
G1 X85.394 Y97.030 E0.02550
G1 X84.722 Y96.540 E0.02606
G1 X84.115 Y96.000 E0.02549
G1 X83.551 Y95.389 E0.02606
G1 X83.041 Y94.712 E0.02657
G1 X82.601 Y93.985 E0.02667
G1 X82.264 Y93.283 E0.02440
G1 X81.983 Y92.521 E0.02547
G1 X81.773 Y91.718 E0.02605
G1 X81.646 Y90.916 E0.02544
G1 X81.596 Y90.094 E0.02583
G1 X81.628 Y89.262 E0.02610
G1 X81.747 Y88.414 E0.02686
G1 X81.950 Y87.586 E0.02672
G1 X82.208 Y86.852 E0.02441
G1 X82.549 Y86.113 E0.02549
G1 X82.969 Y85.396 E0.02607
G1 X83.455 Y84.729 E0.02587
G1 X83.953 Y84.167 E0.02355
M204 S1250
G1 X84.235 Y84.418 F9000.000
M204 S800
G1 F1200.000
G1 X84.851 Y83.842 E0.02646
G1 X85.505 Y83.350 E0.02565
G1 X86.202 Y82.929 E0.02553
G1 X86.871 Y82.608 E0.02327
G1 X87.600 Y82.340 E0.02434
G1 X88.368 Y82.141 E0.02489
G1 X89.133 Y82.020 E0.02429
G1 X89.919 Y81.973 E0.02468
G1 X90.713 Y82.005 E0.02493
G1 X91.524 Y82.119 E0.02567
G1 X92.322 Y82.316 E0.02576
G1 X93.095 Y82.594 E0.02577
G1 X93.829 Y82.945 E0.02552
G1 X94.471 Y83.334 E0.02353
G1 X95.103 Y83.804 E0.02469
G1 X95.661 Y84.309 E0.02360
G1 X96.167 Y84.862 E0.02350
G1 X96.647 Y85.500 E0.02502
G1 X97.055 Y86.171 E0.02462
G1 X97.399 Y86.886 E0.02489
G1 X97.666 Y87.619 E0.02447
G1 X97.860 Y88.371 E0.02432
G1 X97.982 Y89.154 E0.02485
G1 X98.027 Y89.940 E0.02468
G1 X97.995 Y90.714 E0.02430
G1 X97.881 Y91.524 E0.02564
G1 X97.684 Y92.322 E0.02576
G1 X97.406 Y93.095 E0.02577
G1 X97.055 Y93.829 E0.02552
G1 X96.667 Y94.470 E0.02349
G1 X96.203 Y95.095 E0.02442
G1 X95.699 Y95.653 E0.02356
G1 X95.146 Y96.160 E0.02353
G1 X94.502 Y96.646 E0.02530
G1 X93.845 Y97.046 E0.02411
G1 X93.131 Y97.391 E0.02487
G1 X92.380 Y97.666 E0.02505
G1 X91.629 Y97.860 E0.02432
G1 X90.846 Y97.982 E0.02485
G1 X90.060 Y98.027 E0.02468
G1 X89.286 Y97.995 E0.02430
G1 X88.484 Y97.882 E0.02538
G1 X87.737 Y97.701 E0.02412
G1 X86.987 Y97.440 E0.02487
G1 X86.262 Y97.104 E0.02506
G1 X85.594 Y96.710 E0.02434
G1 X84.952 Y96.241 E0.02490
G1 X84.373 Y95.725 E0.02433
G1 X83.835 Y95.141 E0.02489
G1 X83.349 Y94.494 E0.02538
G1 X82.929 Y93.798 E0.02548
G1 X82.608 Y93.129 E0.02327
G1 X82.340 Y92.400 E0.02434
G1 X82.141 Y91.632 E0.02489
G1 X82.020 Y90.867 E0.02429
G1 X81.973 Y90.081 E0.02468
G1 X82.005 Y89.287 E0.02493
G1 X82.119 Y88.476 E0.02567
G1 X82.314 Y87.686 E0.02553
G1 X82.561 Y86.985 E0.02327
G1 X82.887 Y86.280 E0.02436
G1 X83.289 Y85.595 E0.02491
G1 X83.754 Y84.958 E0.02471
G1 X84.195 Y84.463 E0.02081
M204 S1250
G1 E-2.24000 F2400.00000
G1 F7200.000
G1 X84.851 Y83.842 E-0.28614
G1 X85.505 Y83.350 E-0.25901
G1 X86.202 Y82.929 E-0.25784
G1 X86.512 Y82.780 E-0.10901
G1 E-0.04800 F2400.00000
G1 Z0.400 F9000.000
G1 X85.316 Y85.471
G1 Z0.200
G1 E3.20000 F1500.00000
M204 S800
G1 F1200.000
G1 X85.843 Y84.979 E0.02259
G1 X86.377 Y84.581 E0.02087
G1 X86.946 Y84.241 E0.02077
G1 X87.470 Y83.993 E0.01820
G1 X88.081 Y83.770 E0.02039
G1 X88.706 Y83.611 E0.02022
G1 X89.327 Y83.516 E0.01968
G1 X89.966 Y83.481 E0.02006
G1 X90.611 Y83.510 E0.02024
G1 X91.270 Y83.606 E0.02089
G1 X91.917 Y83.770 E0.02093
G1 X92.544 Y83.998 E0.02093
G1 X93.140 Y84.287 E0.02076
G1 X93.628 Y84.584 E0.01790
G1 X94.157 Y84.979 E0.02070
G1 X94.619 Y85.400 E0.01961
G1 X95.027 Y85.850 E0.01904
G1 X95.416 Y86.373 E0.02046
G1 X95.713 Y86.860 E0.01787
G1 X96.002 Y87.456 E0.02076
G1 X96.230 Y88.082 E0.02091
G1 X96.386 Y88.690 E0.01967
G1 X96.484 Y89.328 E0.02022
G1 X96.519 Y89.966 E0.02004
G1 X96.490 Y90.611 E0.02024
G1 X96.394 Y91.270 E0.02089
G1 X96.230 Y91.917 E0.02093
G1 X96.002 Y92.544 E0.02093
G1 X95.713 Y93.140 E0.02076
G1 X95.416 Y93.627 E0.01788
G1 X95.027 Y94.150 E0.02046
G1 X94.619 Y94.600 E0.01904
G1 X94.157 Y95.022 E0.01960
G1 X93.628 Y95.416 E0.02069
G1 X93.140 Y95.713 E0.01790
G1 X92.544 Y96.002 E0.02076
G1 X91.918 Y96.230 E0.02091
G1 X91.310 Y96.386 E0.01967
G1 X90.672 Y96.484 E0.02022
G1 X90.034 Y96.519 E0.02004
G1 X89.389 Y96.490 E0.02024
G1 X88.735 Y96.395 E0.02072
G1 X88.181 Y96.259 E0.01790
G1 X87.555 Y96.043 E0.02076
G1 X86.950 Y95.761 E0.02091
G1 X86.410 Y95.441 E0.01969
G1 X85.889 Y95.059 E0.02026
G1 X85.408 Y94.627 E0.02027
G1 X84.973 Y94.150 E0.02023
G1 X84.580 Y93.622 E0.02063
G1 X84.241 Y93.054 E0.02075
G1 X83.993 Y92.530 E0.01820
G1 X83.770 Y91.919 E0.02039
G1 X83.611 Y91.294 E0.02022
G1 X83.516 Y90.673 E0.01968
G1 X83.481 Y90.034 E0.02006
G1 X83.510 Y89.389 E0.02024
G1 X83.606 Y88.730 E0.02089
G1 X83.768 Y88.088 E0.02078
G1 X83.963 Y87.541 E0.01820
G1 X84.238 Y86.951 E0.02041
G1 X84.568 Y86.396 E0.02023
G1 X84.948 Y85.881 E0.02006
G1 X85.276 Y85.515 E0.01542
M204 S1250
G1 X85.557 Y85.767 F9000.000
M204 S800
G1 F1200.000
G1 X86.090 Y85.264 E0.02299
G1 X86.594 Y84.890 E0.01968
G1 X87.131 Y84.570 E0.01959
G1 X87.608 Y84.344 E0.01656
G1 X88.184 Y84.133 E0.01924
G1 X88.773 Y83.982 E0.01904
G1 X89.374 Y83.890 E0.01908
G1 X89.976 Y83.858 E0.01889
G1 X90.584 Y83.886 E0.01907
G1 X91.205 Y83.978 E0.01969
G1 X91.815 Y84.133 E0.01972
G1 X92.405 Y84.349 E0.01972
G1 X92.967 Y84.623 E0.01958
G1 X93.410 Y84.892 E0.01627
G1 X93.910 Y85.264 E0.01955
G1 X94.346 Y85.660 E0.01846
G1 X94.741 Y86.096 E0.01845
G1 X95.108 Y86.591 E0.01932
G1 X95.377 Y87.034 E0.01624
G1 X95.651 Y87.595 E0.01958
G1 X95.867 Y88.185 E0.01971
G1 X96.018 Y88.774 E0.01907
G1 X96.110 Y89.375 E0.01905
G1 X96.142 Y89.976 E0.01887
G1 X96.114 Y90.584 E0.01907
G1 X96.022 Y91.205 E0.01969
G1 X95.867 Y91.815 E0.01972
G1 X95.651 Y92.405 E0.01972
G1 X95.377 Y92.967 E0.01958
G1 X95.108 Y93.409 E0.01625
G1 X94.741 Y93.904 E0.01932
G1 X94.346 Y94.340 E0.01846
G1 X93.910 Y94.736 E0.01846
G1 X93.410 Y95.108 E0.01955
G1 X92.966 Y95.377 E0.01627
G1 X92.405 Y95.651 E0.01958
G1 X91.815 Y95.867 E0.01971
G1 X91.226 Y96.018 E0.01907
G1 X90.625 Y96.110 E0.01905
G1 X90.024 Y96.142 E0.01887
G1 X89.416 Y96.114 E0.01907
G1 X88.799 Y96.023 E0.01956
G1 X88.295 Y95.900 E0.01627
G1 X87.705 Y95.697 E0.01958
G1 X87.134 Y95.432 E0.01971
G1 X86.611 Y95.122 E0.01909
G1 X86.120 Y94.761 E0.01909
G1 X85.668 Y94.353 E0.01910
G1 X85.259 Y93.904 E0.01906
G1 X84.889 Y93.406 E0.01945
G1 X84.570 Y92.869 E0.01957
G1 X84.344 Y92.392 E0.01656
G1 X84.133 Y91.816 E0.01924
G1 X83.982 Y91.227 E0.01904
G1 X83.890 Y90.626 E0.01908
G1 X83.858 Y90.024 E0.01889
G1 X83.886 Y89.416 E0.01907
G1 X83.978 Y88.795 E0.01969
G1 X84.132 Y88.189 E0.01959
G1 X84.309 Y87.692 E0.01656
G1 X84.568 Y87.135 E0.01926
G1 X84.878 Y86.612 E0.01906
G1 X85.234 Y86.126 E0.01889
G1 X85.517 Y85.812 E0.01324
M204 S1250
G1 X85.797 Y86.064 F9000.000
M204 S800
G1 F1200.000
G1 X85.915 Y85.933 E0.00554
