; generated by PrusaSlicer 2.2.0+win64 on 2020-12-24 at 16:32:07 UTC


;
;

;
;
; 

; external perimeters extrusion width = 0.45mm
; perimeters extrusion width = 0.45mm
; infill extrusion width = 0.45mm
; solid infill extrusion width = 0.45mm
; top infill extrusion width = 0.40mm
; first layer extrusion width = 0.42mm

M73 P0 R19
M201 X1250 Y1250 Z400 E5000 ; sets maximum accelerations, mm/sec^2
M203 X180 Y180 Z12 E80 ; sets maximum feedrates, mm/sec
M204 P1250 R1250 T1250 ; sets acceleration (P, T) and retract acceleration (R), mm/sec^2
M205 X8.00 Y8.00 Z2.00 E10.00 ; sets the jerk limits, mm/sec
M205 S0 T0 ; sets the minimum extruding and travel feed rate, mm/sec
M107
G90 ; use absolute coordinates
M83 ; extruder relative mode
M104 S170 ; set extruder temp for bed leveling
M140 S85 ; set bed temp
M109 R170 ; wait for bed leveling temp
M190 S85 ; wait for bed temp
G28 ; home all without mesh bed level
G29 ; mesh bed leveling 
M104 S240 ; set extruder temp
G92 E0.0
G1 Y-2.0 X179 F2400
G1 Z3 F720
M109 S240 ; wait for extruder temp

; intro line
G1 X170 F1000
G1 Z0.2 F720
G1 X110.0 E8.0 F900
M73 P0 R19
G1 X40.0 E10.0 F700
G92 E0.0

M221 S95 ; set flow
G21 ; set units to millimeters
G90 ; use absolute coordinates
M83 ; use relative distances for extrusion
M900 K0.2 ; Filament gcode
;BEFORE_LAYER_CHANGE
G92 E0.0
;0.2


G1 Z0.200 F9000.000
;AFTER_LAYER_CHANGE
;0.2
G1 E-3.20000 F2400.00000
G1 Z0.400 F9000.000
G1 X77.912 Y79.466
G1 Z0.200
G1 E3.20000 F1500.00000
M204 S800
G1 F1200.000
G1 X78.400 Y78.664 E0.02942
G1 X78.806 Y78.284 E0.01745
G1 X79.277 Y77.995 E0.01733
G1 X79.801 Y77.805 E0.01745
G1 X80.351 Y77.724 E0.01745
G1 X99.529 Y77.721 E0.60131
G1 X100.523 Y77.908 E0.03170
G1 X101.385 Y78.444 E0.03183
G1 X101.994 Y79.255 E0.03183
G1 X102.268 Y80.233 E0.03183
G1 X102.278 Y99.611 E0.60760
G1 X102.089 Y100.530 E0.02942
G1 X101.600 Y101.336 E0.02955
G1 X101.174 Y101.731 E0.01822
G1 X100.678 Y102.026 E0.01809
G1 X100.132 Y102.212 E0.01809
G1 X99.559 Y102.279 E0.01809
G1 X80.385 Y102.278 E0.60118
G1 X79.466 Y102.088 E0.02942
G1 X78.664 Y101.600 E0.02942
G1 X78.269 Y101.174 E0.01822
G1 X77.974 Y100.678 E0.01809
G1 X77.788 Y100.132 E0.01809
G1 X77.721 Y99.559 E0.01809
G1 X77.722 Y80.385 E0.60118
G1 X77.900 Y79.525 E0.02754
M204 S1250
G1 E-2.24000 F2400.00000
G1 F7200.000
G1 X78.400 Y78.664 E-0.31512
G1 X78.806 Y78.284 E-0.17627
G1 X79.277 Y77.995 E-0.17498
G1 X79.801 Y77.805 E-0.17627
G1 X80.017 Y77.773 E-0.06935
G1 E-0.04800 F2400.00000
G1 Z0.400 F9000.000
G1 X79.460 Y78.325
G1 Z0.200
G1 E3.20000 F1500.00000
M204 S800
G1 F1200.000
G1 X80.383 Y78.100 E0.02978
G1 X99.529 Y78.098 E0.60032
G1 X100.396 Y78.263 E0.02767
G1 X101.140 Y78.730 E0.02755
G1 X101.665 Y79.439 E0.02767
G1 X101.895 Y80.291 E0.02767
G1 X101.901 Y99.594 E0.60521
G1 X101.734 Y100.403 E0.02590
G1 X101.300 Y101.106 E0.02590
G1 X100.935 Y101.439 E0.01550
G1 X100.509 Y101.689 E0.01550
G1 X100.036 Y101.846 E0.01562
G1 X99.545 Y101.902 E0.01550
G1 X80.406 Y101.901 E0.60008
G1 X79.597 Y101.734 E0.02590
G1 X78.894 Y101.300 E0.02590
G1 X78.561 Y100.935 E0.01550
G1 X78.311 Y100.509 E0.01550
G1 X78.154 Y100.036 E0.01562
G1 X78.098 Y99.545 E0.01550
G1 X78.099 Y80.406 E0.60008
G1 X78.266 Y79.597 E0.02590
G1 X78.700 Y78.894 E0.02590
G1 X79.412 Y78.361 E0.02789
M204 S1250
G1 E-2.24000 F2400.00000
G1 F7200.000
G1 X80.383 Y78.100 E-0.31829
G1 X82.257 Y78.100 E-0.59371
G1 E-0.04800 F2400.00000
G1 Z0.400 F9000.000
G1 X78.015 Y76.404
G1 Z0.200
G1 E3.20000 F1500.00000
M204 S800
G1 F1200.000
G1 X79.929 Y75.761 E0.06332
G1 X100.012 Y75.765 E0.62968
G1 X100.960 Y75.949 E0.03028
G1 X101.868 Y76.340 E0.03101
G1 X103.087 Y77.363 E0.04990
G1 X103.878 Y78.581 E0.04551
G1 X104.238 Y79.964 E0.04481
G1 X104.238 Y100.035 E0.62932
G1 X103.907 Y101.352 E0.04257
G1 X103.180 Y102.536 E0.04355
G1 X102.576 Y103.140 E0.02678
G1 X101.985 Y103.596 E0.02340
G1 X100.072 Y104.238 E0.06330
G1 X79.965 Y104.238 E0.63043
G1 X78.648 Y103.907 E0.04257
G1 X77.464 Y103.180 E0.04355
G1 X76.860 Y102.576 E0.02678
G1 X76.404 Y101.985 E0.02340
G1 X75.762 Y100.072 E0.06330
G1 X75.762 Y79.965 E0.63043
G1 X76.093 Y78.648 E0.04257
G1 X76.820 Y77.464 E0.04355
G1 X77.424 Y76.860 E0.02678
G1 X77.967 Y76.441 E0.02152
M204 S1250
G1 X78.197 Y76.740 F9000.000
M204 S800
G1 F1200.000
G1 X79.959 Y76.139 E0.05839
G1 X99.993 Y76.142 E0.62814
G1 X100.866 Y76.315 E0.02791
G1 X101.691 Y76.674 E0.02823
G1 X102.822 Y77.633 E0.04647
G1 X103.521 Y78.707 E0.04018
G1 X103.861 Y79.988 E0.04157
G1 X103.861 Y100.011 E0.62779
G1 X103.549 Y101.230 E0.03946
G1 X102.898 Y102.284 E0.03885
G1 X102.319 Y102.864 E0.02571
G1 X101.781 Y103.277 E0.02127
G1 X100.041 Y103.861 E0.05754
G1 X79.989 Y103.861 E0.62871
G1 X78.770 Y103.549 E0.03946
G1 X77.716 Y102.898 E0.03885
G1 X77.136 Y102.319 E0.02571
G1 X76.723 Y101.781 E0.02127
G1 X76.139 Y100.041 E0.05754
G1 X76.139 Y79.989 E0.62871
G1 X76.451 Y78.770 E0.03946
G1 X77.102 Y77.716 E0.03885
G1 X77.681 Y77.136 E0.02571
G1 X78.149 Y76.777 E0.01849
M204 S1250
G1 X78.378 Y77.076 F9000.000
M204 S800
G1 F1200.000
G1 X78.423 Y77.041 E0.00179
G1 X79.990 Y76.516 E0.05180
G1 X99.974 Y76.519 E0.62658
G1 X100.771 Y76.680 E0.02549
G1 X101.513 Y77.008 E0.02545
G1 X102.555 Y77.901 E0.04302
G1 X103.188 Y78.885 E0.03669
G1 X103.484 Y80.013 E0.03655
G1 X103.484 Y99.987 E0.62630
G1 X103.212 Y101.058 E0.03463
G1 X102.616 Y102.034 E0.03586
G1 X102.061 Y102.588 E0.02460
G1 X101.577 Y102.959 E0.01912
G1 X100.010 Y103.484 E0.05179
G1 X80.013 Y103.484 E0.62702
G1 X78.942 Y103.212 E0.03463
G1 X77.966 Y102.616 E0.03586
G1 X77.412 Y102.061 E0.02460
G1 X77.041 Y101.577 E0.01912
G1 X76.516 Y100.010 E0.05179
G1 X76.516 Y80.013 E0.62702
G1 X76.788 Y78.942 E0.03463
G1 X77.384 Y77.966 E0.03586
G1 X77.939 Y77.412 E0.02460
G1 X78.330 Y77.112 E0.01544
M204 S1250
G1 X78.627 Y77.360 F9000.000
M204 S800
G1 F1200.000
G1 X80.020 Y76.893 E0.04608
G1 X99.954 Y76.896 E0.62500
G1 X100.673 Y77.045 E0.02304
G1 X101.333 Y77.340 E0.02266
G1 X102.287 Y78.167 E0.03960
G1 X102.831 Y79.012 E0.03149
G1 X103.107 Y80.038 E0.03331
G1 X103.107 Y99.963 E0.62474
G1 X102.854 Y100.935 E0.03149
G1 X102.334 Y101.783 E0.03119
G1 X101.803 Y102.313 E0.02350
G1 X101.373 Y102.640 E0.01695
G1 X99.980 Y103.107 E0.04607
G1 X80.037 Y103.107 E0.62529
G1 X79.065 Y102.854 E0.03149
G1 X78.217 Y102.334 E0.03119
G1 X77.687 Y101.803 E0.02350
G1 X77.360 Y101.373 E0.01695
G1 X76.893 Y99.980 E0.04607
G1 X76.893 Y80.037 E0.62529
G1 X77.146 Y79.065 E0.03149
G1 X77.666 Y78.217 E0.03119
G1 X78.197 Y77.687 E0.02350
G1 X78.579 Y77.396 E0.01507
M204 S1250
G1 X78.806 Y77.697 F9000.000
M204 S800
G1 F1200.000
G1 X80.051 Y77.270 E0.04126
G1 X99.935 Y77.273 E0.62344
G1 X100.538 Y77.398 E0.01932
G1 X101.153 Y77.672 E0.02110
G1 X102.017 Y78.432 E0.03609
G1 X102.497 Y79.189 E0.02809
G1 X102.730 Y80.062 E0.02835
G1 X102.730 Y99.938 E0.62318
G1 X102.498 Y100.810 E0.02831
G1 X102.052 Y101.531 E0.02658
G1 X101.546 Y102.037 E0.02241
G1 X101.170 Y102.321 E0.01477
G1 X99.949 Y102.730 E0.04038
G1 X80.062 Y102.730 E0.62355
G1 X79.190 Y102.498 E0.02831
G1 X78.469 Y102.052 E0.02658
G1 X77.963 Y101.546 E0.02241
G1 X77.679 Y101.170 E0.01477
G1 X77.270 Y99.949 E0.04038
G1 X77.270 Y80.062 E0.62355
G1 X77.502 Y79.190 E0.02831
G1 X77.948 Y78.469 E0.02658
G1 X78.454 Y77.963 E0.02241
G1 X78.758 Y77.733 E0.01198
M204 S1250
G1 E-2.24000 F2400.00000
G1 F7200.000
G1 X80.051 Y77.270 E-0.43476
G1 X81.558 Y77.270 E-0.47724
G1 E-0.04800 F2400.00000
G1 Z0.400 F9000.000
G1 X80.143 Y78.401
G1 Z0.200
G1 E3.20000 F1500.00000
M204 S800
G1 F1200.000
G1 X99.871 Y78.405 E0.61855
G1 X100.230 Y78.488 E0.01157
G1 X100.596 Y78.660 E0.01268
G1 X101.201 Y79.218 E0.02580
G1 X101.433 Y79.580 E0.01347
G1 X101.599 Y80.143 E0.01841
G1 X101.599 Y99.857 E0.61811
G1 X101.433 Y100.421 E0.01842
G1 X101.208 Y100.775 E0.01318
G1 X100.777 Y101.206 E0.01911
G1 X100.569 Y101.359 E0.00808
G1 X99.857 Y101.599 E0.02354
G1 X80.143 Y101.599 E0.61812
G1 X79.579 Y101.433 E0.01842
G1 X79.225 Y101.208 E0.01318
G1 X78.794 Y100.777 E0.01911
G1 X78.641 Y100.569 E0.00808
G1 X78.401 Y99.857 E0.02354
G1 X78.401 Y80.143 E0.61812
G1 X78.567 Y79.579 E0.01842
G1 X78.792 Y79.225 E0.01318
G1 X79.223 Y78.794 E0.01911
G1 X79.431 Y78.641 E0.00808
G1 X80.086 Y78.420 E0.02167
M204 S1250
G1 X79.629 Y78.963 F9000.000
M204 S800
G1 F1200.000
G1 X80.174 Y78.778 E0.01806
G1 X99.849 Y78.782 E0.61690
G1 X100.087 Y78.837 E0.00767
G1 X100.407 Y78.988 E0.01109
G1 X100.926 Y79.476 E0.02233
G1 X101.081 Y79.717 E0.00898
G1 X101.222 Y80.173 E0.01495
G1 X101.222 Y99.827 E0.61626
G1 X101.081 Y100.283 E0.01496
G1 X100.927 Y100.523 E0.00892
G1 X100.521 Y100.929 E0.01800
G1 X100.371 Y101.037 E0.00579
G1 X99.826 Y101.222 E0.01806
G1 X80.173 Y101.222 E0.61622
G1 X79.717 Y101.081 E0.01496
G1 X79.477 Y100.927 E0.00892
G1 X79.071 Y100.521 E0.01800
G1 X78.963 Y100.371 E0.00579
G1 X78.778 Y99.826 E0.01806
G1 X78.778 Y80.173 E0.61622
G1 X78.919 Y79.717 E0.01496
G1 X79.073 Y79.477 E0.00892
G1 X79.479 Y79.071 E0.01800
G1 X79.580 Y78.999 E0.00391
M204 S1250
G1 X79.823 Y79.287 F9000.000
M204 S800
G1 F1200.000
G1 X80.206 Y79.155 E0.01269
G1 X99.827 Y79.159 E0.61520
G1 X99.944 Y79.186 E0.00377
G1 X100.217 Y79.315 E0.00947
G1 X100.648 Y79.732 E0.01880
G1 X100.732 Y79.860 E0.00479
G1 X100.845 Y80.204 E0.01136
G1 X100.845 Y99.796 E0.61427
G1 X100.732 Y100.140 E0.01136
G1 X100.647 Y100.269 E0.00484
G1 X100.267 Y100.650 E0.01686
G1 X100.177 Y100.713 E0.00345
G1 X99.794 Y100.845 E0.01270
G1 X80.204 Y100.845 E0.61423
G1 X79.860 Y100.732 E0.01136
G1 X79.731 Y100.647 E0.00484
G1 X79.350 Y100.267 E0.01686
G1 X79.287 Y100.177 E0.00345
G1 X79.155 Y99.794 E0.01270
G1 X79.155 Y80.204 E0.61423
G1 X79.268 Y79.860 E0.01136
G1 X79.353 Y79.731 E0.00484
G1 X79.774 Y79.322 E0.01841
M204 S1250
G1 X80.012 Y79.614 F9000.000
M204 S800
G1 F1200.000
G1 X80.239 Y79.532 E0.00757
G1 X99.775 Y79.532 E0.61252
G1 X100.025 Y79.642 E0.00856
G1 X100.368 Y79.985 E0.01522
G1 X100.468 Y80.239 E0.00856
G1 X100.468 Y99.761 E0.61207
G1 X100.368 Y100.015 E0.00856
G1 X100.015 Y100.368 E0.01566
G1 X99.761 Y100.468 E0.00856
G1 X80.239 Y100.468 E0.61207
G1 X79.985 Y100.368 E0.00856
G1 X79.632 Y100.015 E0.01566
G1 X79.532 Y99.761 E0.00856
G1 X79.532 Y80.239 E0.61207
M73 P5 R18
G1 X79.632 Y79.985 E0.00856
G1 X79.966 Y79.651 E0.01480
M204 S1250
G1 X80.212 Y79.938 F9000.000
M204 S800
G1 F1200.000
G1 X80.281 Y79.909 E0.00235
G1 X99.719 Y79.909 E0.60945
G1 X99.788 Y79.938 E0.00235
G1 X100.062 Y80.212 E0.01215
G1 X100.091 Y80.281 E0.00235
G1 X100.091 Y99.719 E0.60945
G1 X100.062 Y99.788 E0.00235
G1 X99.788 Y100.062 E0.01215
G1 X99.719 Y100.091 E0.00235
G1 X80.281 Y100.091 E0.60945
G1 X80.212 Y100.062 E0.00235
G1 X79.938 Y99.788 E0.01215
G1 X79.909 Y99.719 E0.00235
G1 X79.909 Y80.281 E0.60945
G1 X79.938 Y80.212 E0.00235
G1 X80.170 Y79.981 E0.01027
M204 S1250
G1 X80.397 Y80.286 F9000.000
M204 S800
G1 F1200.000
G1 X99.603 Y80.286 E0.60220
G1 X99.714 Y80.397 E0.00490
G1 X99.714 Y99.603 E0.60220
G1 X99.603 Y99.714 E0.00490
G1 X80.397 Y99.714 E0.60220
G1 X80.286 Y99.603 E0.00490
G1 X80.286 Y80.397 E0.60220
G1 X80.354 Y80.329 E0.00302
M204 S1250
G1 X80.885 Y80.885 F9000.000
M204 S800
G1 F1200.000
G1 X99.115 Y80.885 E0.57159
G1 X99.115 Y99.115 E0.57159
G1 X80.885 Y99.115 E0.57159
G1 X80.885 Y80.945 E0.56971
M204 S1250
G1 X81.271 Y80.989 F9000.000
G1 X81.262 Y81.262
M204 S800
G1 F1200.000
G1 X98.738 Y81.262 E0.54794
G1 X98.738 Y98.738 E0.54794
G1 X81.262 Y98.738 E0.54794
G1 X81.262 Y81.322 E0.54606
M204 S1250
G1 E-2.24000 F2400.00000
G1 F7200.000
G1 X84.142 Y81.312 E-0.91200
G1 E-0.04800 F2400.00000
G1 Z0.400 F9000.000
G1 X83.240 Y83.240
G1 Z0.200
G1 E3.20000 F1500.00000
M204 S800
G1 F1200.000
G1 X96.760 Y83.240 E0.42391
G1 X96.760 Y96.760 E0.42391
G1 X83.240 Y96.760 E0.42391
G1 X83.240 Y83.300 E0.42203
M204 S1250
G1 X83.136 Y82.854 F9000.000
G1 X82.863 Y82.863
M204 S800
G1 F1200.000
G1 X97.137 Y82.863 E0.44756
G1 X97.137 Y97.137 E0.44756
G1 X82.863 Y97.137 E0.44756
G1 X82.863 Y82.923 E0.44567
M204 S1250
G1 E-2.24000 F2400.00000
G1 F7200.000
G1 X85.743 Y82.911 E-0.91200
G1 E-0.04800 F2400.00000
G1 Z0.400 F9000.000
G1 X95.691 Y81.375
G1 Z0.200
G1 E3.20000 F1500.00000
M204 S800
G1 F1200.000
G1 X96.896 Y82.580 E0.05413
G1 X96.356 Y82.580 E0.01716
G1 X95.321 Y81.545 E0.04650
G1 X94.780 Y81.545 E0.01716
G1 X95.816 Y82.580 E0.04650
G1 X95.275 Y82.580 E0.01716
G1 X94.240 Y81.545 E0.04650
G1 X93.700 Y81.545 E0.01716
G1 X94.735 Y82.580 E0.04650
G1 X94.195 Y82.580 E0.01716
G1 X93.160 Y81.545 E0.04650
G1 X92.620 Y81.545 E0.01716
G1 X93.655 Y82.580 E0.04650
G1 X93.115 Y82.580 E0.01716
G1 X92.079 Y81.545 E0.04650
G1 X91.539 Y81.545 E0.01716
G1 X92.574 Y82.580 E0.04650
G1 X92.034 Y82.580 E0.01716
G1 X90.999 Y81.545 E0.04650
G1 X90.459 Y81.545 E0.01716
G1 X91.494 Y82.580 E0.04650
G1 X90.954 Y82.580 E0.01716
G1 X89.918 Y81.545 E0.04650
G1 X89.378 Y81.545 E0.01716
G1 X90.413 Y82.580 E0.04650
G1 X89.873 Y82.580 E0.01716
G1 X88.838 Y81.545 E0.04650
G1 X88.298 Y81.545 E0.01716
G1 X89.333 Y82.580 E0.04650
G1 X88.793 Y82.580 E0.01716
G1 X87.757 Y81.545 E0.04650
G1 X87.217 Y81.545 E0.01716
G1 X88.252 Y82.580 E0.04650
G1 X87.712 Y82.580 E0.01716
G1 X86.677 Y81.545 E0.04650
G1 X86.137 Y81.545 E0.01716
G1 X87.172 Y82.580 E0.04650
G1 X86.632 Y82.580 E0.01716
G1 X85.597 Y81.545 E0.04650
G1 X85.056 Y81.545 E0.01716
G1 X86.092 Y82.580 E0.04650
G1 X85.551 Y82.580 E0.01716
G1 X84.516 Y81.545 E0.04650
G1 X83.976 Y81.545 E0.01716
G1 X85.011 Y82.580 E0.04650
G1 X84.471 Y82.580 E0.01716
G1 X83.436 Y81.545 E0.04650
G1 X82.895 Y81.545 E0.01716
G1 X83.931 Y82.580 E0.04650
G1 X83.390 Y82.580 E0.01716
G1 X82.355 Y81.545 E0.04650
G1 X81.815 Y81.545 E0.01716
G1 X82.850 Y82.580 E0.04650
G1 X82.580 Y82.580 E0.00858
G1 X82.580 Y82.850 E0.00858
G1 X81.545 Y81.815 E0.04650
G1 X81.545 Y82.355 E0.01716
G1 X82.580 Y83.391 E0.04650
G1 X82.580 Y83.931 E0.01716
G1 X81.545 Y82.895 E0.04650
G1 X81.545 Y83.436 E0.01716
G1 X82.580 Y84.471 E0.04650
G1 X82.580 Y85.011 E0.01716
G1 X81.545 Y83.976 E0.04650
G1 X81.545 Y84.516 E0.01716
G1 X82.580 Y85.551 E0.04650
G1 X82.580 Y86.092 E0.01716
G1 X81.545 Y85.056 E0.04650
G1 X81.545 Y85.597 E0.01716
G1 X82.580 Y86.632 E0.04650
G1 X82.580 Y87.172 E0.01716
G1 X81.545 Y86.137 E0.04650
G1 X81.545 Y86.677 E0.01716
G1 X82.580 Y87.712 E0.04650
G1 X82.580 Y88.253 E0.01716
G1 X81.545 Y87.217 E0.04650
G1 X81.545 Y87.758 E0.01716
G1 X82.580 Y88.793 E0.04650
G1 X82.580 Y89.333 E0.01716
G1 X81.545 Y88.298 E0.04650
G1 X81.545 Y88.838 E0.01716
G1 X82.580 Y89.873 E0.04650
G1 X82.580 Y90.413 E0.01716
G1 X81.545 Y89.378 E0.04650
G1 X81.545 Y89.918 E0.01716
G1 X82.580 Y90.954 E0.04650
G1 X82.580 Y91.494 E0.01716
G1 X81.545 Y90.459 E0.04650
G1 X81.545 Y90.999 E0.01716
G1 X82.580 Y92.034 E0.04650
G1 X82.580 Y92.574 E0.01716
G1 X81.545 Y91.539 E0.04650
G1 X81.545 Y92.079 E0.01716
G1 X82.580 Y93.115 E0.04650
G1 X82.580 Y93.655 E0.01716
G1 X81.545 Y92.620 E0.04650
G1 X81.545 Y93.160 E0.01716
G1 X82.580 Y94.195 E0.04650
G1 X82.580 Y94.735 E0.01716
G1 X81.545 Y93.700 E0.04650
G1 X81.545 Y94.240 E0.01716
G1 X82.580 Y95.276 E0.04650
G1 X82.580 Y95.816 E0.01716
G1 X81.545 Y94.781 E0.04650
G1 X81.545 Y95.321 E0.01716
G1 X82.580 Y96.356 E0.04650
G1 X82.580 Y96.896 E0.01716
G1 X81.545 Y95.861 E0.04650
G1 X81.545 Y96.401 E0.01716
G1 X83.599 Y98.455 E0.09226
G1 X84.139 Y98.455 E0.01716
G1 X83.104 Y97.420 E0.04650
G1 X83.644 Y97.420 E0.01716
G1 X84.679 Y98.455 E0.04650
G1 X85.219 Y98.455 E0.01716
G1 X84.184 Y97.420 E0.04650
G1 X84.724 Y97.420 E0.01716
G1 X85.760 Y98.455 E0.04650
G1 X86.300 Y98.455 E0.01716
G1 X85.265 Y97.420 E0.04650
G1 X85.805 Y97.420 E0.01716
G1 X86.840 Y98.455 E0.04650
G1 X87.380 Y98.455 E0.01716
G1 X86.345 Y97.420 E0.04650
G1 X86.885 Y97.420 E0.01716
G1 X87.921 Y98.455 E0.04650
G1 X88.461 Y98.455 E0.01716
G1 X87.426 Y97.420 E0.04650
G1 X87.966 Y97.420 E0.01716
G1 X89.001 Y98.455 E0.04650
G1 X89.541 Y98.455 E0.01716
G1 X88.506 Y97.420 E0.04650
G1 X89.046 Y97.420 E0.01716
G1 X90.082 Y98.455 E0.04650
G1 X90.622 Y98.455 E0.01716
G1 X89.587 Y97.420 E0.04650
G1 X90.127 Y97.420 E0.01716
G1 X91.162 Y98.455 E0.04650
G1 X91.702 Y98.455 E0.01716
G1 X90.667 Y97.420 E0.04650
