; generated by PrusaSlicer 2.3.0+win64 on 2021-03-19 at 00:07:59 UTC


;
;

;
;
; 

; external perimeters extrusion width = 0.45mm
; perimeters extrusion width = 0.45mm
; infill extrusion width = 0.45mm
; solid infill extrusion width = 0.45mm
; top infill extrusion width = 0.40mm
; first layer extrusion width = 0.42mm

M73 P0 R21
M201 X1250 Y1250 Z400 E5000 ; sets maximum accelerations, mm/sec^2
M203 X180 Y180 Z12 E80 ; sets maximum feedrates, mm/sec
M204 P1250 R1250 T1250 ; sets acceleration (P, T) and retract acceleration (R), mm/sec^2
M205 X8.00 Y8.00 Z2.00 E10.00 ; sets the jerk limits, mm/sec
M205 S0 T0 ; sets the minimum extruding and travel feed rate, mm/sec
M107
;TYPE:Custom
G90 ; use absolute coordinates
M83 ; extruder relative mode
M104 S170 ; set extruder temp for bed leveling
M140 S85 ; set bed temp
M109 R170 ; wait for bed leveling temp
M190 S85 ; wait for bed temp
G28 ; home all without mesh bed level
G29 ; mesh bed leveling 
M104 S240 ; set extruder temp
G92 E0.0
G1 Y-2.0 X179 F2400
G1 Z3 F720
M109 S240 ; wait for extruder temp

; intro line
G1 X170 F1000
G1 Z0.2 F720
G1 X110.0 E8.0 F900
G1 X40.0 E10.0 F700
G92 E0.0

M221 S95 ; set flow
G21 ; set units to millimeters
G90 ; use absolute coordinates
M83 ; use relative distances for extrusion
M900 K0.2 ; Filament gcode
;LAYER_CHANGE
;Z:0.2
;HEIGHT:0.2
;BEFORE_LAYER_CHANGE
G92 E0.0
;0.2


M73 P1 R20
G1 Z0.200 F9000.000
;AFTER_LAYER_CHANGE
;0.2
G1 E-3.20000 F2400.000
G1 Z0.400 F9000.000
G1 X54.900 Y53.887
G1 Z0.200
G1 E3.20000 F1500.000
M204 S800
;TYPE:Skirt
;WIDTH:0.42
G1 F1200.000
G1 X55.598 Y53.424 E0.02626
G1 X56.413 Y53.231 E0.02626
G1 X93.266 Y53.228 E1.15550
G1 X93.967 Y53.335 E0.02225
G1 X94.603 Y53.642 E0.02213
G1 X124.356 Y74.474 E1.13883
G1 X124.804 Y74.901 E0.01941
G1 X125.126 Y75.426 E0.01929
G1 X125.302 Y76.016 E0.01929
G1 X125.321 Y76.631 E0.01929
G1 X125.186 Y77.216 E0.01882
G1 X124.910 Y77.748 E0.01882
G1 X91.215 Y125.863 E1.84173
G1 X90.564 Y126.436 E0.02720
G1 X89.751 Y126.737 E0.02720
G1 X86.005 Y126.761 E0.11747
G1 X85.420 Y126.627 E0.01882
G1 X84.890 Y126.354 E0.01870
G1 X55.177 Y105.550 E1.13728
M73 P2 R20
G1 X54.709 Y105.116 E0.02000
G1 X54.373 Y104.574 E0.02000
G1 X54.219 Y104.104 E0.01550
G1 X54.166 Y103.613 E0.01550
G1 X54.177 Y55.373 E1.51253
G1 X54.405 Y54.567 E0.02626
G1 X54.865 Y53.936 E0.02449
M204 S1250
; printing object shooter guid.stl id:1 copy 0
G1 E-2.24000 F2400.000
;WIPE_START
G1 F7200.000
G1 X55.598 Y53.424 E-0.28307
G1 X56.413 Y53.231 E-0.26518
G1 X57.561 Y53.231 E-0.36375
;WIPE_END
G1 E-0.04800 F2400.000
G1 Z0.400 F9000.000
G1 X103.644 Y82.992
G1 Z0.200
G1 E3.20000 F1500.000
M204 S800
;TYPE:Perimeter
G1 F1200.000
G1 X104.240 Y82.226 E0.03043
G1 X105.053 Y81.695 E0.03043
G1 X105.993 Y81.457 E0.03043
G1 X106.960 Y81.537 E0.03043
G1 X107.849 Y81.927 E0.03043
G1 X108.563 Y82.584 E0.03043
G1 X109.025 Y83.438 E0.03043
G1 X109.185 Y84.395 E0.03043
G1 X109.025 Y85.352 E0.03043
G1 X108.563 Y86.206 E0.03043
G1 X107.849 Y86.863 E0.03043
G1 X106.960 Y87.253 E0.03043
G1 X105.993 Y87.333 E0.03043
G1 X105.053 Y87.095 E0.03043
G1 X104.240 Y86.564 E0.03043
G1 X103.644 Y85.798 E0.03043
G1 X103.329 Y84.880 E0.03043
G1 X103.329 Y83.910 E0.03043
G1 X103.625 Y83.049 E0.02855
M204 S1250
G1 X103.980 Y83.174 F9000.000
M204 S800
;TYPE:External perimeter
G1 F1200.000
G1 X104.499 Y82.507 E0.02648
G1 X105.206 Y82.046 E0.02648
G1 X106.025 Y81.838 E0.02648
G1 X106.867 Y81.908 E0.02648
G1 X107.640 Y82.247 E0.02648
G1 X108.261 Y82.819 E0.02648
G1 X108.663 Y83.562 E0.02648
G1 X108.802 Y84.395 E0.02648
G1 X108.663 Y85.228 E0.02648
G1 X108.261 Y85.971 E0.02648
G1 X107.640 Y86.543 E0.02648
G1 X106.867 Y86.882 E0.02648
G1 X106.025 Y86.952 E0.02648
G1 X105.206 Y86.745 E0.02648
G1 X104.499 Y86.283 E0.02648
G1 X103.980 Y85.616 E0.02648
G1 X103.706 Y84.817 E0.02648
G1 X103.706 Y83.973 E0.02648
G1 X103.961 Y83.231 E0.02460
M204 S1250
G1 X103.771 Y82.833 F9000.000
G1 E-2.24000 F2400.000
;WIPE_START
G1 F7200.000
G1 X104.499 Y82.507 E-0.28549
G1 X105.206 Y82.046 E-0.26746
G1 X106.025 Y81.838 E-0.26745
G1 X106.313 Y81.862 E-0.09160
;WIPE_END
G1 E-0.04800 F2400.000
G1 Z0.400 F9000.000
G1 X93.185 Y84.395
G1 Z0.200
G1 E3.20000 F1500.000
M204 S800
;TYPE:Perimeter
G1 F1200.000
G1 X93.025 Y85.352 E0.03043
G1 X92.563 Y86.206 E0.03043
G1 X91.849 Y86.863 E0.03043
G1 X90.960 Y87.253 E0.03043
G1 X89.993 Y87.333 E0.03043
G1 X89.052 Y87.095 E0.03043
G1 X88.240 Y86.564 E0.03043
G1 X87.644 Y85.798 E0.03043
G1 X87.329 Y84.880 E0.03043
G1 X87.329 Y83.910 E0.03043
G1 X87.644 Y82.992 E0.03043
G1 X88.240 Y82.226 E0.03043
G1 X89.052 Y81.695 E0.03043
G1 X89.993 Y81.457 E0.03043
G1 X90.960 Y81.537 E0.03043
G1 X91.849 Y81.927 E0.03043
G1 X92.563 Y82.584 E0.03043
G1 X93.025 Y83.438 E0.03043
G1 X93.175 Y84.336 E0.02855
M204 S1250
G1 X92.802 Y84.395 F9000.000
M204 S800
;TYPE:External perimeter
G1 F1200.000
G1 X92.663 Y85.228 E0.02648
G1 X92.261 Y85.971 E0.02648
G1 X91.640 Y86.543 E0.02648
G1 X90.867 Y86.882 E0.02648
G1 X90.025 Y86.952 E0.02648
G1 X89.206 Y86.745 E0.02648
G1 X88.499 Y86.283 E0.02648
G1 X87.980 Y85.616 E0.02648
G1 X87.706 Y84.817 E0.02648
G1 X87.706 Y83.973 E0.02648
G1 X87.980 Y83.174 E0.02648
G1 X88.499 Y82.507 E0.02648
G1 X89.206 Y82.046 E0.02648
G1 X90.025 Y81.838 E0.02648
G1 X90.867 Y81.908 E0.02648
G1 X91.640 Y82.247 E0.02648
G1 X92.261 Y82.819 E0.02648
G1 X92.663 Y83.562 E0.02648
G1 X92.792 Y84.336 E0.02460
M204 S1250
G1 X93.149 Y84.595 F9000.000
G1 E-2.24000 F2400.000
;WIPE_START
G1 F7200.000
G1 X92.663 Y85.228 E-0.28549
G1 X92.261 Y85.971 E-0.26745
G1 X91.640 Y86.543 E-0.26745
G1 X91.375 Y86.659 E-0.09160
;WIPE_END
G1 E-0.04800 F2400.000
G1 Z0.400 F9000.000
G1 X89.993 Y113.457
G1 Z0.200
G1 E3.20000 F1500.000
M204 S800
;TYPE:Perimeter
G1 F1200.000
G1 X90.960 Y113.537 E0.03043
G1 X91.849 Y113.927 E0.03043
G1 X92.563 Y114.584 E0.03043
G1 X93.025 Y115.438 E0.03043
G1 X93.185 Y116.395 E0.03043
G1 X93.025 Y117.352 E0.03043
G1 X92.563 Y118.206 E0.03043
G1 X91.967 Y118.755 E0.02542
G1 X91.849 Y118.863 E0.00501
G1 X90.960 Y119.253 E0.03043
G1 X89.993 Y119.333 E0.03043
G1 X89.052 Y119.095 E0.03043
G1 X88.240 Y118.564 E0.03043
G1 X87.644 Y117.798 E0.03043
G1 X87.329 Y116.880 E0.03043
G1 X87.329 Y115.910 E0.03043
G1 X87.644 Y114.992 E0.03043
G1 X88.240 Y114.226 E0.03043
G1 X89.052 Y113.695 E0.03043
G1 X89.935 Y113.472 E0.02855
M204 S1250
G1 X90.025 Y113.838 F9000.000
M204 S800
;TYPE:External perimeter
G1 F1200.000
G1 X90.867 Y113.908 E0.02648
G1 X91.640 Y114.247 E0.02648
G1 X92.261 Y114.819 E0.02648
G1 X92.663 Y115.562 E0.02648
G1 X92.802 Y116.395 E0.02648
G1 X92.663 Y117.228 E0.02648
G1 X92.261 Y117.971 E0.02648
G1 X91.711 Y118.477 E0.02345
G1 X91.640 Y118.543 E0.00303
G1 X90.867 Y118.882 E0.02648
G1 X90.025 Y118.952 E0.02648
G1 X89.206 Y118.745 E0.02648
G1 X88.499 Y118.283 E0.02648
G1 X87.980 Y117.616 E0.02648
G1 X87.706 Y116.817 E0.02648
G1 X87.706 Y115.973 E0.02648
G1 X87.980 Y115.174 E0.02648
G1 X88.499 Y114.507 E0.02648
G1 X89.206 Y114.046 E0.02648
G1 X89.967 Y113.853 E0.02460
M204 S1250
G1 X90.196 Y113.476 F9000.000
G1 E-2.24000 F2400.000
;WIPE_START
G1 F7200.000
G1 X90.867 Y113.908 E-0.28549
G1 X91.640 Y114.247 E-0.26745
G1 X92.261 Y114.819 E-0.26745
G1 X92.399 Y115.074 E-0.09160
;WIPE_END
G1 E-0.04800 F2400.000
G1 Z0.400 F9000.000
G1 X87.024 Y123.608
G1 Z0.200
G1 E3.20000 F1500.000
M204 S800
;TYPE:Perimeter
G1 F1200.000
G1 X87.024 Y77.182 E1.45565
M73 P3 R20
G1 X120.480 Y77.182 E1.04900
G1 X121.008 Y77.171 E0.01655
G1 X121.592 Y77.105 E0.01843
G1 X121.198 Y77.551 E0.01863
G1 X120.887 Y77.978 E0.01659
G1 X88.936 Y123.608 E1.74656
G1 X87.084 Y123.608 E0.05806
M204 S1250
G1 X86.647 Y123.985 F9000.000
M204 S800
;TYPE:External perimeter
G1 F1200.000
G1 X86.647 Y76.805 E1.47930
G1 X120.476 Y76.804 E1.06070
G1 X120.984 Y76.794 E0.01591
G1 X121.504 Y76.738 E0.01642
G1 X121.991 Y76.613 E0.01577
G1 X122.529 Y76.617 E0.01687
G1 X122.221 Y77.062 E0.01697
G1 X121.838 Y77.391 E0.01582
G1 X121.493 Y77.786 E0.01646
G1 X121.193 Y78.198 E0.01596
G1 X89.132 Y123.985 E1.75260
M73 P4 R20
G1 X86.707 Y123.985 E0.07604
M204 S1250
G1 X86.732 Y123.594 F9000.000
G1 E-2.24000 F2400.000
;WIPE_START
G1 F7200.000
G1 X86.703 Y121.105 E-0.91200
;WIPE_END
G1 E-0.04800 F2400.000
G1 Z0.400 F9000.000
G1 X87.345 Y117.919
G1 Z0.200
G1 E3.20000 F1500.000
M204 S800
;TYPE:Gap fill
;WIDTH:0.271174
G1 F1200.000
G1 X87.317 Y117.751 E0.00323
M204 S1250
M204 S800
;WIDTH:0.226711
G1 X87.289 Y117.583 E0.00260
M204 S1250
M204 S800
;WIDTH:0.182247
G1 X87.261 Y117.415 E0.00197
M204 S1250
M204 S800
;WIDTH:0.137783
G1 X87.233 Y117.247 E0.00134
M204 S1250
G1 E-2.24000 F2400.000
;WIPE_START
G1 F7200.000
G1 X87.261 Y117.415 E-0.05393
;WIPE_END
G1 E-0.90607 F2400.000
G1 Z0.400 F9000.000
G1 X87.233 Y115.543
G1 Z0.200
G1 E3.20000 F1500.000
M204 S800
;WIDTH:0.137784
G1 F1200.000
G1 X87.261 Y115.375 E0.00134
M204 S1250
M204 S800
;WIDTH:0.182248
G1 X87.289 Y115.207 E0.00197
M204 S1250
M204 S800
;WIDTH:0.226711
G1 X87.317 Y115.039 E0.00260
M204 S1250
M204 S800
;WIDTH:0.271175
G1 X87.345 Y114.871 E0.00323
M204 S1250
G1 E-2.24000 F2400.000
;WIPE_START
G1 F7200.000
G1 X87.317 Y115.039 E-0.05393
;WIPE_END
G1 E-0.90607 F2400.000
G1 Z0.400 F9000.000
G1 X91.321 Y119.218
G1 Z0.200
G1 E3.20000 F1500.000
M204 S800
;TYPE:Solid infill
;WIDTH:0.430617
G1 F1200.000
G1 X91.523 Y119.420 E0.00921
G1 X91.297 Y119.743 E0.01269
G1 X91.069 Y119.514 E0.01041
G1 X90.575 Y119.569 E0.01602
G1 X91.071 Y120.065 E0.02264
G1 X90.845 Y120.388 E0.01269
G1 X90.068 Y119.611 E0.03543
G1 X89.970 Y119.619 E0.00319
G1 X89.379 Y119.469 E0.01966
G1 X90.620 Y120.710 E0.05658
G1 X90.394 Y121.033 E0.01269
G1 X87.535 Y118.174 E0.13031
G1 X87.307 Y118.212 E0.00748
G1 X87.307 Y118.494 E0.00906
G1 X90.168 Y121.355 E0.13045
G1 X89.942 Y121.677 E0.01269
G1 X87.307 Y119.042 E0.12016
G1 X87.307 Y119.590 E0.01768
G1 X89.716 Y122.000 E0.10986
G1 X89.491 Y122.322 E0.01269
G1 X87.307 Y120.138 E0.09957
G1 X87.307 Y120.687 E0.01768
G1 X89.265 Y122.645 E0.08927
G1 X89.039 Y122.967 E0.01269
G1 X87.307 Y121.235 E0.07898
G1 X87.307 Y121.783 E0.01768
G1 X88.813 Y123.290 E0.06868
G1 X88.788 Y123.325 E0.00139
G1 X88.300 Y123.325 E0.01574
G1 X87.307 Y122.332 E0.04530
G1 X87.307 Y122.880 E0.01768
G1 X87.922 Y123.495 E0.02804
M204 S1250
G1 E-2.24000 F2400.000
;WIPE_START
G1 F7200.000
G1 X87.307 Y122.880 E-0.27541
G1 X87.307 Y122.332 E-0.17362
G1 X88.300 Y123.325 E-0.44496
G1 X88.357 Y123.325 E-0.01800
;WIPE_END
G1 E-0.04800 F2400.000
G1 Z0.400 F9000.000
G1 X93.376 Y116.938
G1 Z0.200
G1 E3.20000 F1500.000
M204 S800
;TYPE:Gap fill
;WIDTH:0.181824
G1 F1200.000
G1 X93.376 Y116.731 E0.00240
M204 S1250
M204 S800
;WIDTH:0.137572
G1 X93.376 Y116.523 E0.00163
M204 S1250
G1 E-2.24000 F2400.000
;WIPE_START
G1 F7200.000
G1 X93.376 Y116.731 E-0.06573
;WIPE_END
G1 E-0.89427 F2400.000
G1 Z0.400 F9000.000
G1 X87.345 Y85.919
G1 Z0.200
G1 E3.20000 F1500.000
M204 S800
;WIDTH:0.271174
G1 F1200.000
G1 X87.317 Y85.751 E0.00323
M204 S1250
M204 S800
;WIDTH:0.226711
G1 X87.289 Y85.583 E0.00260
M204 S1250
M204 S800
;WIDTH:0.182248
G1 X87.261 Y85.415 E0.00197
M204 S1250
M204 S800
;WIDTH:0.137785
G1 X87.233 Y85.247 E0.00134
M204 S1250
G1 E-2.24000 F2400.000
;WIPE_START
G1 F7200.000
G1 X87.261 Y85.415 E-0.05393
;WIPE_END
G1 E-0.90607 F2400.000
G1 Z0.400 F9000.000
G1 X87.233 Y83.543
G1 Z0.200
G1 E3.20000 F1500.000
M204 S800
;WIDTH:0.137784
G1 F1200.000
G1 X87.261 Y83.375 E0.00134
M204 S1250
M204 S800
;WIDTH:0.182247
G1 X87.289 Y83.207 E0.00197
M204 S1250
M204 S800
;WIDTH:0.226711
G1 X87.317 Y83.039 E0.00260
M204 S1250
M204 S800
;WIDTH:0.271174
G1 X87.345 Y82.871 E0.00323
M204 S1250
G1 E-2.24000 F2400.000
;WIPE_START
G1 F7200.000
G1 X87.317 Y83.039 E-0.05393
;WIPE_END
G1 E-0.90607 F2400.000
G1 Z0.400 F9000.000
G1 X120.982 Y77.656
G1 Z0.200
G1 E3.20000 F1500.000
M204 S800
;TYPE:Solid infill
;WIDTH:0.42153
G1 F1200.000
G1 X120.784 Y77.458 E0.00880
G1 X120.255 Y77.464 E0.01667
G1 X120.635 Y77.845 E0.01693
G1 X120.414 Y78.160 E0.01210
G1 X119.719 Y77.464 E0.03095
G1 X119.184 Y77.464 E0.01686
G1 X120.194 Y78.474 E0.04497
G1 X119.973 Y78.789 E0.01210
G1 X118.648 Y77.464 E0.05899
G1 X118.113 Y77.464 E0.01686
G1 X119.753 Y79.104 E0.07301
G1 X119.532 Y79.419 E0.01210
G1 X117.578 Y77.464 E0.08703
G1 X117.042 Y77.464 E0.01686
G1 X119.312 Y79.734 E0.10105
G1 X119.091 Y80.049 E0.01210
G1 X116.507 Y77.464 E0.11507
G1 X115.971 Y77.464 E0.01686
G1 X118.871 Y80.364 E0.12909
G1 X118.650 Y80.679 E0.01210
G1 X115.436 Y77.464 E0.14311
G1 X114.900 Y77.464 E0.01686
G1 X118.430 Y80.994 E0.15714
G1 X118.209 Y81.309 E0.01210
G1 X114.365 Y77.464 E0.17116
G1 X113.830 Y77.464 E0.01686
G1 X117.989 Y81.624 E0.18518
G1 X117.768 Y81.939 E0.01210
G1 X113.294 Y77.464 E0.19920
G1 X112.759 Y77.464 E0.01686
G1 X117.548 Y82.254 E0.21322
G1 X117.327 Y82.568 E0.01210
G1 X112.223 Y77.464 E0.22724
G1 X111.688 Y77.464 E0.01686
G1 X117.107 Y82.883 E0.24126
G1 X116.886 Y83.198 E0.01210
G1 X111.152 Y77.464 E0.25528
G1 X110.617 Y77.464 E0.01686
G1 X116.666 Y83.513 E0.26930
G1 X116.445 Y83.828 E0.01210
G1 X110.082 Y77.465 E0.28332
G1 X109.546 Y77.465 E0.01686
G1 X116.225 Y84.143 E0.29734
M73 P5 R20
G1 X116.004 Y84.458 E0.01210
G1 X109.011 Y77.465 E0.31136
G1 X108.475 Y77.465 E0.01686
G1 X115.784 Y84.773 E0.32538
G1 X115.563 Y85.088 E0.01210
G1 X107.940 Y77.465 E0.33940
G1 X107.404 Y77.465 E0.01686
G1 X115.343 Y85.403 E0.35342
G1 X115.122 Y85.718 E0.01210
G1 X106.869 Y77.465 E0.36744
G1 X106.334 Y77.465 E0.01686
G1 X114.902 Y86.033 E0.38146
G1 X114.681 Y86.347 E0.01210
G1 X105.798 Y77.465 E0.39548
G1 X105.263 Y77.465 E0.01686
G1 X114.461 Y86.662 E0.40950
G1 X114.240 Y86.977 E0.01210
G1 X104.727 Y77.465 E0.42352
G1 X104.192 Y77.465 E0.01686
G1 X114.020 Y87.292 E0.43754
G1 X113.799 Y87.607 E0.01210
G1 X103.657 Y77.465 E0.45156
G1 X103.121 Y77.465 E0.01686
G1 X106.905 Y81.249 E0.16849
G1 X106.322 Y81.201 E0.01844
G1 X102.586 Y77.465 E0.16633
G1 X102.050 Y77.465 E0.01686
G1 X105.800 Y81.214 E0.16695
G1 X105.373 Y81.323 E0.01387
G1 X101.515 Y77.465 E0.17176
G1 X100.979 Y77.465 E0.01686
G1 X104.945 Y81.431 E0.17658
G1 X104.620 Y81.640 E0.01220
G1 X100.444 Y77.465 E0.18591
G1 X99.909 Y77.465 E0.01686
G1 X104.296 Y81.852 E0.19533
G1 X104.046 Y82.015 E0.00940
G1 X103.992 Y82.084 E0.00274
G1 X99.373 Y77.465 E0.20566
G1 X98.838 Y77.465 E0.01686
G1 X103.758 Y82.385 E0.21906
M73 P5 R19
G1 X103.524 Y82.686 E0.01201
G1 X98.302 Y77.465 E0.23247
G1 X97.767 Y77.465 E0.01686
G1 X103.332 Y83.030 E0.24777
G1 X103.195 Y83.429 E0.01327
G1 X97.231 Y77.465 E0.26552
G1 X96.696 Y77.465 E0.01686
G1 X103.058 Y83.827 E0.28326
G1 X103.046 Y84.350 E0.01648
G1 X96.161 Y77.465 E0.30656
G1 X95.625 Y77.465 E0.01686
M73 P6 R19
G1 X103.298 Y85.137 E0.34159
M204 S1250
G1 E-2.24000 F2400.000
;WIPE_START
G1 F7200.000
G1 X101.261 Y83.101 E-0.91200
;WIPE_END
G1 E-0.04800 F2400.000
G1 Z0.400 F9000.000
G1 X109.149 Y83.492
G1 Z0.200
G1 E3.20000 F1500.000
M204 S800
G1 F1200.000
G1 X113.579 Y87.922 E0.19722
G1 X113.358 Y88.237 E0.01210
G1 X109.462 Y84.341 E0.17344
G1 X109.471 Y84.395 E0.00171
G1 X109.401 Y84.816 E0.01342
G1 X113.137 Y88.552 E0.16635
G1 X112.917 Y88.867 E0.01210
G1 X109.325 Y85.274 E0.15994
G1 X109.296 Y85.445 E0.00546
G1 X109.178 Y85.663 E0.00780
G1 X112.696 Y89.182 E0.15664
G1 X112.476 Y89.497 E0.01210
G1 X108.990 Y86.011 E0.15520
G1 X108.802 Y86.358 E0.01244
G1 X112.255 Y89.812 E0.15375
G1 X112.035 Y90.127 E0.01210
G1 X108.529 Y86.621 E0.15607
G1 X108.251 Y86.878 E0.01193
G1 X111.814 Y90.441 E0.15866
G1 X111.594 Y90.756 E0.01210
G1 X107.960 Y87.123 E0.16176
G1 X107.588 Y87.286 E0.01279
G1 X111.373 Y91.071 E0.16852
G1 X111.153 Y91.386 E0.01210
G1 X107.216 Y87.449 E0.17527
G1 X107.031 Y87.531 E0.00637
G1 X106.783 Y87.551 E0.00784
G1 X110.932 Y91.701 E0.18476
G1 X110.712 Y92.016 E0.01210
G1 X106.288 Y87.592 E0.19695
G1 X105.970 Y87.619 E0.01006
G1 X105.714 Y87.554 E0.00829
G1 X110.491 Y92.331 E0.21267
G1 X110.271 Y92.646 E0.01210
G1 X104.997 Y87.373 E0.23478
G1 X104.937 Y87.357 E0.00195
G1 X104.046 Y86.775 E0.03352
G1 X103.392 Y85.935 E0.03352
G1 X103.304 Y85.679 E0.00850
G1 X95.090 Y77.465 E0.36573
G1 X94.554 Y77.465 E0.01686
G1 X110.050 Y92.961 E0.68991
