; generated by PrusaSlicer 2.3.0+win64 on 2021-03-22 at 21:53:31 UTC


;
;

;
;
; 

; external perimeters extrusion width = 0.45mm
; perimeters extrusion width = 0.45mm
; infill extrusion width = 0.45mm
; solid infill extrusion width = 0.45mm
; top infill extrusion width = 0.40mm
; first layer extrusion width = 0.42mm

M73 P0 R37
M201 X1250 Y1250 Z400 E5000 ; sets maximum accelerations, mm/sec^2
M203 X180 Y180 Z12 E80 ; sets maximum feedrates, mm/sec
M204 P1250 R1250 T1250 ; sets acceleration (P, T) and retract acceleration (R), mm/sec^2
M205 X8.00 Y8.00 Z2.00 E10.00 ; sets the jerk limits, mm/sec
M205 S0 T0 ; sets the minimum extruding and travel feed rate, mm/sec
M107
;TYPE:Custom
G90 ; use absolute coordinates
M83 ; extruder relative mode
M104 S170 ; set extruder temp for bed leveling
M140 S85 ; set bed temp
M109 R170 ; wait for bed leveling temp
M190 S85 ; wait for bed temp
G28 ; home all without mesh bed level
G29 ; mesh bed leveling 
M104 S240 ; set extruder temp
G92 E0.0
G1 Y-2.0 X179 F2400
G1 Z3 F720
M109 S240 ; wait for extruder temp

; intro line
G1 X170 F1000
G1 Z0.2 F720
G1 X110.0 E8.0 F900
G1 X40.0 E10.0 F700
G92 E0.0

M221 S95 ; set flow
G21 ; set units to millimeters
G90 ; use absolute coordinates
M83 ; use relative distances for extrusion
M900 K0.2 ; Filament gcode
;LAYER_CHANGE
;Z:0.2
;HEIGHT:0.2
;BEFORE_LAYER_CHANGE
G92 E0.0
;0.2


G1 Z0.200 F9000.000
;AFTER_LAYER_CHANGE
;0.2
G1 E-3.20000 F2400.000
G1 Z0.400 F9000.000
G1 X60.413 Y65.205
G1 Z0.200
G1 E3.20000 F1500.000
M204 S800
;TYPE:Skirt
;WIDTH:0.42
G1 F1200.000
G1 X61.535 Y64.161 E0.04804
G1 X62.376 Y63.644 E0.03096
G1 X63.079 Y63.335 E0.02405
G1 X93.774 Y55.005 E0.99725
G1 X95.263 Y54.823 E0.04704
G1 X111.290 Y54.822 E0.50250
G1 X112.389 Y54.919 E0.03460
G1 X113.459 Y55.204 E0.03472
G1 X114.464 Y55.671 E0.03474
G1 X115.375 Y56.306 E0.03483
G1 X116.154 Y57.080 E0.03443
G1 X116.798 Y57.992 E0.03501
G1 X117.270 Y58.994 E0.03472
G1 X117.563 Y60.074 E0.03508
G1 X121.065 Y103.947 E1.37999
G1 X121.025 Y106.653 E0.08485
G1 X120.742 Y108.747 E0.06625
G1 X120.275 Y110.687 E0.06256
G1 X119.605 Y112.606 E0.06375
G1 X118.744 Y114.448 E0.06375
G1 X117.703 Y116.194 E0.06375
G1 X116.492 Y117.827 E0.06375
G1 X115.124 Y119.327 E0.06363
M73 P1 R37
G1 X113.611 Y120.684 E0.06375
G1 X111.996 Y121.863 E0.06267
G1 X110.216 Y122.906 E0.06470
G1 X108.399 Y123.739 E0.06267
G1 X107.048 Y124.223 E0.04501
G1 X105.082 Y124.743 E0.06374
G1 X103.112 Y125.058 E0.06256
G1 X101.083 Y125.177 E0.06375
G1 X99.051 Y125.092 E0.06375
G1 X97.024 Y124.799 E0.06422
G1 X94.385 Y124.092 E0.08568
G1 X92.788 Y123.467 E0.05375
G1 X91.354 Y122.769 E0.05000
G1 X89.029 Y121.306 E0.08616
G1 X86.940 Y119.555 E0.08544
G1 X85.578 Y118.112 E0.06224
G1 X60.441 Y89.464 E1.19498
G1 X59.978 Y88.851 E0.02408
G1 X59.576 Y88.156 E0.02519
G1 X59.206 Y87.238 E0.03103
G1 X58.920 Y85.683 E0.04957
G1 X58.909 Y69.283 E0.51421
G1 X59.021 Y68.129 E0.03634
G1 X59.207 Y67.394 E0.02378
G1 X59.572 Y66.487 E0.03065
G1 X60.380 Y65.255 E0.04620
M204 S1250
; printing object round pully v2.stl id:2 copy 0
G1 E-2.24000 F2400.000
;WIPE_START
G1 F7200.000
G1 X61.535 Y64.161 E-0.50364
G1 X62.376 Y63.644 E-0.31273
G1 X62.653 Y63.522 E-0.09563
;WIPE_END
G1 E-0.04800 F2400.000
G1 Z0.400 F9000.000
G1 X96.634 Y99.492
G1 Z0.200
G1 E3.20000 F1500.000
M204 S800
;TYPE:Perimeter
G1 F1200.000
G1 X97.413 Y98.969 E0.02941
G1 X98.254 Y98.538 E0.02964
G1 X103.543 Y98.538 E0.16584
G1 X104.381 Y98.945 E0.02921
G1 X105.174 Y99.453 E0.02954
G1 X107.894 Y104.164 E0.17058
G1 X107.939 Y104.993 E0.02601
G1 X107.901 Y105.825 E0.02611
G1 X105.183 Y110.532 E0.17043
G1 X104.525 Y110.969 E0.02475
G1 X103.968 Y111.267 E0.01980
G1 X103.533 Y111.462 E0.01494
G1 X98.241 Y111.462 E0.16594
G1 X97.405 Y111.029 E0.02954
G1 X96.633 Y110.507 E0.02921
G1 X94.004 Y105.953 E0.16486
G1 X93.950 Y105.155 E0.02509
G1 X93.968 Y104.511 E0.02021
G1 X94.014 Y104.028 E0.01520
G1 X96.604 Y99.544 E0.16237
M204 S1250
G1 X96.916 Y99.756 F9000.000
M204 S800
;TYPE:External perimeter
G1 F1200.000
G1 X97.604 Y99.295 E0.02597
G1 X98.345 Y98.915 E0.02609
G1 X103.456 Y98.915 E0.16026
G1 X104.196 Y99.275 E0.02580
G1 X104.894 Y99.721 E0.02597
G1 X107.523 Y104.275 E0.16487
G1 X107.562 Y104.994 E0.02259
G1 X107.528 Y105.716 E0.02264
G1 X104.900 Y110.267 E0.16478
G1 X104.331 Y110.644 E0.02142
G1 X103.801 Y110.928 E0.01884
G1 X103.452 Y111.085 E0.01199
G1 X98.333 Y111.085 E0.16052
G1 X97.598 Y110.704 E0.02597
G1 X96.916 Y110.243 E0.02580
G1 X94.374 Y105.841 E0.15939
G1 X94.328 Y105.148 E0.02178
G1 X94.344 Y104.534 E0.01924
G1 X94.382 Y104.146 E0.01222
G1 X96.886 Y99.808 E0.15705
M204 S1250
G1 X96.825 Y99.367 F9000.000
G1 E-2.24000 F2400.000
;WIPE_START
G1 F7200.000
G1 X97.604 Y99.295 E-0.27950
G1 X98.345 Y98.915 E-0.26351
G1 X99.510 Y98.915 E-0.36899
;WIPE_END
G1 E-0.04800 F2400.000
G1 Z0.400 F9000.000
G1 X90.185 Y91.807
G1 Z0.200
G1 E3.20000 F1500.000
M204 S800
;TYPE:Perimeter
G1 F1200.000
G1 X90.888 Y91.255 E0.02800
G1 X91.841 Y90.608 E0.03615
G1 X92.322 Y90.316 E0.01761
G1 X93.336 Y89.768 E0.03615
G1 X93.843 Y89.526 E0.01761
G1 X94.907 Y89.082 E0.03615
G1 X95.436 Y88.893 E0.01761
G1 X96.536 Y88.560 E0.03603
G1 X97.427 Y88.350 E0.02869
G1 X98.214 Y88.202 E0.02512
G1 X98.772 Y88.122 E0.01768
G1 X99.920 Y88.015 E0.03615
G1 X100.483 Y87.992 E0.01765
G1 X101.403 Y87.996 E0.02884
G1 X102.203 Y88.035 E0.02512
G1 X102.769 Y88.087 E0.01784
G1 X103.331 Y88.159 E0.01777
G1 X104.467 Y88.361 E0.03615
G1 X105.014 Y88.487 E0.01761
G1 X106.118 Y88.802 E0.03600
G1 X107.199 Y89.189 E0.03600
G1 X107.722 Y89.407 E0.01777
G1 X108.237 Y89.643 E0.01777
G1 X109.261 Y90.174 E0.03615
G1 X109.746 Y90.457 E0.01761
G1 X110.710 Y91.089 E0.03615
G1 X111.164 Y91.420 E0.01761
G1 X112.057 Y92.142 E0.03600
G1 X112.898 Y92.922 E0.03600
G1 X113.291 Y93.325 E0.01761
G1 X114.053 Y94.190 E0.03615
G1 X114.403 Y94.629 E0.01761
G1 X115.074 Y95.567 E0.03615
G1 X115.378 Y96.039 E0.01761
G1 X115.949 Y97.035 E0.03600
G1 X116.452 Y98.067 E0.03600
G1 X116.673 Y98.584 E0.01761
G1 X117.071 Y99.666 E0.03615
G1 X117.238 Y100.202 E0.01761
G1 X117.526 Y101.318 E0.03615
G1 X117.639 Y101.874 E0.01777
G1 X117.734 Y102.432 E0.01777
G1 X117.869 Y103.577 E0.03615
G1 X117.907 Y104.138 E0.01761
G1 X117.926 Y105.291 E0.03615
G1 X117.907 Y105.852 E0.01761
G1 X117.811 Y107.001 E0.03615
G1 X117.735 Y107.558 E0.01761
G1 X117.524 Y108.691 E0.03615
G1 X117.393 Y109.237 E0.01761
G1 X117.068 Y110.344 E0.03615
G1 X116.883 Y110.874 E0.01761
G1 X116.448 Y111.942 E0.03615
G1 X116.210 Y112.451 E0.01761
G1 X115.671 Y113.470 E0.03615
G1 X115.382 Y113.954 E0.01767
G1 X114.909 Y114.673 E0.02698
G1 X114.404 Y115.369 E0.02698
G1 X114.053 Y115.810 E0.01767
G1 X113.291 Y116.675 E0.03615
G1 X112.898 Y117.078 E0.01761
G1 X112.053 Y117.861 E0.03615
G1 X111.622 Y118.222 E0.01761
G1 X110.702 Y118.917 E0.03615
G1 X110.233 Y119.235 E0.01777
G1 X109.754 Y119.538 E0.01777
G1 X108.749 Y120.103 E0.03615
G1 X108.246 Y120.353 E0.01761
G1 X107.194 Y120.813 E0.03600
G1 X106.114 Y121.200 E0.03600
G1 X105.575 Y121.363 E0.01765
G1 X104.683 Y121.589 E0.02884
G1 X103.903 Y121.749 E0.02497
G1 X102.764 Y121.913 E0.03606
G1 X102.205 Y121.965 E0.01761
G1 X101.053 Y122.013 E0.03615
G1 X100.491 Y122.008 E0.01761
G1 X99.340 Y121.941 E0.03615
G1 X98.216 Y121.798 E0.03553
G1 X97.085 Y121.577 E0.03615
G1 X96.539 Y121.441 E0.01761
G1 X95.439 Y121.108 E0.03603
G1 X94.582 Y120.789 E0.02869
G1 X93.849 Y120.477 E0.02497
G1 X92.820 Y119.964 E0.03606
G1 X92.329 Y119.688 E0.01765
G1 X91.549 Y119.201 E0.02884
G1 X90.889 Y118.746 E0.02512
G1 X90.439 Y118.406 E0.01768
G1 X89.555 Y117.666 E0.03615
G1 X89.142 Y117.283 E0.01765
G1 X88.497 Y116.627 E0.02884
G1 X87.962 Y116.031 E0.02512
G1 X87.604 Y115.596 E0.01768
G1 X86.916 Y114.670 E0.03615
G1 X86.604 Y114.201 E0.01765
G1 X86.130 Y113.413 E0.02884
G1 X85.750 Y112.713 E0.02497
G1 X85.264 Y111.671 E0.03606
G1 X85.051 Y111.149 E0.01767
G1 X84.763 Y110.338 E0.02698
G1 X84.512 Y109.519 E0.02687
G1 X84.295 Y108.628 E0.02874
G1 X84.140 Y107.842 E0.02512
G1 X84.055 Y107.285 E0.01768
G1 X83.940 Y106.142 E0.03600
G1 X83.901 Y104.995 E0.03600
G1 X83.911 Y104.428 E0.01777
G1 X83.939 Y103.862 E0.01777
G1 X84.055 Y102.720 E0.03600
G1 X84.246 Y101.593 E0.03584
G1 X84.514 Y100.477 E0.03600
G1 X84.672 Y99.938 E0.01761
G1 X85.052 Y98.849 E0.03615
G1 X85.264 Y98.329 E0.01761
G1 X85.751 Y97.284 E0.03615
G1 X86.017 Y96.783 E0.01777
G1 X86.299 Y96.292 E0.01777
G1 X86.920 Y95.325 E0.03603
G1 X87.462 Y94.588 E0.02869
G1 X87.962 Y93.968 E0.02497
G1 X88.737 Y93.118 E0.03606
G1 X89.140 Y92.719 E0.01777
G1 X89.555 Y92.334 E0.01777
G1 X90.139 Y91.845 E0.02387
M204 S1250
G1 X89.897 Y91.556 F9000.000
M204 S800
;TYPE:External perimeter
G1 F1200.000
G1 X90.668 Y90.949 E0.03077
G1 X91.638 Y90.290 E0.03675
G1 X92.134 Y89.989 E0.01821
G1 X93.165 Y89.431 E0.03675
G1 X93.689 Y89.181 E0.01821
G1 X94.771 Y88.731 E0.03675
G1 X95.317 Y88.535 E0.01821
G1 X96.438 Y88.195 E0.03670
G1 X97.348 Y87.981 E0.02933
G1 X98.152 Y87.830 E0.02564
G1 X98.728 Y87.747 E0.01823
G1 X99.895 Y87.639 E0.03675
G1 X100.476 Y87.615 E0.01822
G1 X101.413 Y87.619 E0.02938
G1 X102.230 Y87.659 E0.02564
G1 X102.810 Y87.713 E0.01829
G1 X103.388 Y87.786 E0.01827
G1 X104.542 Y87.991 E0.03675
G1 X105.108 Y88.122 E0.01821
G1 X106.234 Y88.442 E0.03669
G1 X107.335 Y88.837 E0.03669
G1 X107.873 Y89.061 E0.01827
G1 X108.403 Y89.303 E0.01827
G1 X109.443 Y89.843 E0.03675
G1 X109.944 Y90.137 E0.01821
G1 X110.925 Y90.778 E0.03675
G1 X111.394 Y91.121 E0.01821
G1 X112.304 Y91.857 E0.03669
G1 X113.162 Y92.652 E0.03669
G1 X113.567 Y93.068 E0.01821
G1 X114.342 Y93.947 E0.03675
G1 X114.704 Y94.402 E0.01821
G1 X115.386 Y95.355 E0.03675
G1 X115.700 Y95.843 E0.01821
G1 X116.282 Y96.858 E0.03669
G1 X116.795 Y97.910 E0.03669
G1 X117.023 Y98.444 E0.01821
G1 X117.428 Y99.544 E0.03675
G1 X117.601 Y100.099 E0.01821
G1 X117.893 Y101.234 E0.03675
G1 X118.010 Y101.804 E0.01827
G1 X118.107 Y102.379 E0.01827
G1 X118.245 Y103.543 E0.03675
G1 X118.284 Y104.122 E0.01821
G1 X118.304 Y105.294 E0.03675
G1 X118.284 Y105.874 E0.01821
G1 X118.186 Y107.042 E0.03675
G1 X118.108 Y107.618 E0.01821
G1 X117.893 Y108.770 E0.03675
G1 X117.757 Y109.335 E0.01821
G1 X117.427 Y110.459 E0.03675
G1 X117.236 Y111.007 E0.01821
G1 X116.794 Y112.093 E0.03675
G1 X116.548 Y112.619 E0.01821
G1 X115.999 Y113.655 E0.03675
G1 X115.702 Y114.154 E0.01823
G1 X115.219 Y114.887 E0.02751
G1 X114.704 Y115.598 E0.02751
G1 X114.342 Y116.053 E0.01823
G1 X113.567 Y116.932 E0.03675
G1 X113.162 Y117.348 E0.01821
G1 X112.302 Y118.144 E0.03675
G1 X111.857 Y118.517 E0.01821
G1 X110.922 Y119.224 E0.03675
G1 X110.440 Y119.551 E0.01827
G1 X109.947 Y119.862 E0.01827
G1 X108.926 Y120.436 E0.03675
G1 X108.406 Y120.695 E0.01821
G1 X107.333 Y121.163 E0.03669
G1 X106.232 Y121.558 E0.03669
G1 X105.676 Y121.727 E0.01822
G1 X104.767 Y121.957 E0.02938
G1 X103.968 Y122.121 E0.02559
G1 X102.809 Y122.288 E0.03671
G1 X102.230 Y122.341 E0.01821
G1 X101.059 Y122.390 E0.03675
G1 X100.479 Y122.385 E0.01821
G1 X99.309 Y122.317 E0.03675
G1 X98.153 Y122.170 E0.03653
G1 X97.003 Y121.945 E0.03675
G1 X96.439 Y121.805 E0.01821
G1 X95.319 Y121.466 E0.03670
G1 X94.442 Y121.139 E0.02933
G1 X93.691 Y120.820 E0.02559
G1 X92.643 Y120.298 E0.03672
G1 X92.137 Y120.013 E0.01822
G1 X91.342 Y119.516 E0.02938
G1 X90.668 Y119.052 E0.02564
G1 X90.204 Y118.701 E0.01823
G1 X89.306 Y117.949 E0.03675
G1 X88.880 Y117.554 E0.01822
G1 X88.223 Y116.885 E0.02938
G1 X87.676 Y116.277 E0.02564
G1 X87.306 Y115.828 E0.01823
G1 X86.608 Y114.887 E0.03675
G1 X86.286 Y114.403 E0.01822
G1 X85.802 Y113.600 E0.02938
G1 X85.413 Y112.883 E0.02559
G1 X84.918 Y111.822 E0.03671
G1 X84.699 Y111.283 E0.01823
G1 X84.405 Y110.457 E0.02751
G1 X84.149 Y109.619 E0.02747
G1 X83.927 Y108.709 E0.02935
G1 X83.769 Y107.907 E0.02564
G1 X83.681 Y107.332 E0.01823
G1 X83.563 Y106.168 E0.03669
G1 X83.524 Y104.998 E0.03669
G1 X83.534 Y104.416 E0.01827
G1 X83.563 Y103.834 E0.01827
G1 X83.681 Y102.670 E0.03669
G1 X83.876 Y101.518 E0.03664
G1 X84.149 Y100.380 E0.03669
G1 X84.313 Y99.822 E0.01821
G1 X84.699 Y98.716 E0.03675
G1 X84.918 Y98.178 E0.01821
G1 X85.414 Y97.116 E0.03675
G1 X85.686 Y96.601 E0.01827
G1 X85.976 Y96.096 E0.01827
G1 X86.609 Y95.111 E0.03670
G1 X87.164 Y94.358 E0.02933
G1 X87.676 Y93.723 E0.02559
G1 X88.465 Y92.857 E0.03671
G1 X88.879 Y92.447 E0.01827
G1 X89.306 Y92.051 E0.01827
G1 X89.851 Y91.595 E0.02229
M204 S1250
G1 X90.271 Y91.698 F9000.000
G1 E-2.24000 F2400.000
;WIPE_START
G1 F7200.000
G1 X90.668 Y90.949 E-0.32980
G1 X91.638 Y90.290 E-0.37113
G1 X92.134 Y89.989 E-0.18391
G1 X92.209 Y89.948 E-0.02716
;WIPE_END
G1 E-0.04800 F2400.000
G1 Z0.400 F9000.000
G1 X111.051 Y91.477
G1 Z0.200
G1 E3.20000 F1500.000
M204 S800
;TYPE:Solid infill
;WIDTH:0.423089
G1 F1200.000
G1 X113.083 Y93.517 E0.09103
G1 X113.836 Y94.371 E0.03600
G1 X114.177 Y94.800 E0.01731
G1 X114.981 Y95.945 E0.04424
G1 X109.994 Y90.958 E0.22295
M73 P2 R37
G1 X109.597 Y90.698 E0.01501
G1 X109.124 Y90.421 E0.01731
G1 X108.700 Y90.201 E0.01512
G1 X115.731 Y97.232 E0.31432
G1 X116.232 Y98.271 E0.03646
G1 X107.643 Y89.682 E0.38397
G1 X106.753 Y89.330 E0.03025
G1 X116.584 Y99.160 E0.43948
G1 X116.876 Y99.991 E0.02782
G1 X105.927 Y89.041 E0.48950
G1 X105.175 Y88.827 E0.02470
G1 X117.084 Y100.736 E0.53237
G1 X117.265 Y101.455 E0.02344
G1 X104.460 Y88.650 E0.57244
G1 X103.803 Y88.530 E0.02113
G1 X117.394 Y102.122 E0.60763
G1 X117.487 Y102.752 E0.02013
G1 X103.157 Y88.422 E0.64064
G1 X102.548 Y88.351 E0.01936
G1 X117.559 Y103.362 E0.67105
G1 X117.611 Y103.951 E0.01871
G1 X101.966 Y88.306 E0.69940
G1 X101.401 Y88.279 E0.01790
G1 X117.630 Y104.508 E0.72555
G1 X117.640 Y105.055 E0.01729
G1 X100.861 Y88.276 E0.75011
M73 P2 R36
G1 X100.328 Y88.281 E0.01683
G1 X117.633 Y105.587 E0.77364
G1 X117.603 Y106.094 E0.01607
G1 X99.818 Y88.309 E0.79509
G1 X99.326 Y88.354 E0.01562
G1 X117.562 Y106.590 E0.81522
G1 X117.515 Y107.081 E0.01558
G1 X98.834 Y88.400 E0.83512
G1 X98.363 Y88.466 E0.01505
G1 X117.449 Y107.553 E0.85325
G1 X117.364 Y108.005 E0.01457
G1 X97.906 Y88.548 E0.86986
G1 X97.455 Y88.634 E0.01453
G1 X117.279 Y108.458 E0.88625
G1 X117.183 Y108.900 E0.01427
G1 X97.020 Y88.736 E0.90140
M73 P3 R36
G1 X96.586 Y88.840 E0.01410
G1 X117.072 Y109.326 E0.91584
G1 X116.950 Y109.742 E0.01369
G1 X96.173 Y88.965 E0.92883
G1 X95.760 Y89.090 E0.01363
G1 X116.828 Y110.157 E0.94182
G1 X116.693 Y110.560 E0.01342
G1 X95.355 Y89.222 E0.95391
G1 X94.961 Y89.366 E0.01325
G1 X104.079 Y98.484 E0.40763
G1 X103.608 Y98.255 E0.01657
G1 X103.313 Y98.255 E0.00934
G1 X94.582 Y89.524 E0.39031
G1 X94.202 Y89.682 E0.01300
G1 X102.775 Y98.255 E0.38324
G1 X102.237 Y98.255 E0.01700
G1 X93.828 Y89.846 E0.37593
G1 X93.464 Y90.020 E0.01275
G1 X101.700 Y98.255 E0.36816
G1 X101.162 Y98.255 E0.01700
G1 X93.115 Y90.208 E0.35973
G1 X92.766 Y90.397 E0.01254
G1 X100.624 Y98.255 E0.35130
G1 X100.087 Y98.255 E0.01700
G1 X92.419 Y90.588 E0.34278
G1 X92.085 Y90.791 E0.01237
G1 X99.549 Y98.255 E0.33369
G1 X99.011 Y98.255 E0.01700
G1 X91.761 Y91.004 E0.32415
G1 X91.440 Y91.222 E0.01224
G1 X98.474 Y98.255 E0.31443
G1 X98.185 Y98.255 E0.00912
G1 X98.021 Y98.340 E0.00585
G1 X91.120 Y91.439 E0.30849
G1 X90.811 Y91.668 E0.01215
G1 X97.665 Y98.522 E0.30643
G1 X97.310 Y98.704 E0.01262
G1 X90.510 Y91.904 E0.30402
G1 X90.217 Y92.149 E0.01206
G1 X96.984 Y98.916 E0.30253
G1 X96.662 Y99.132 E0.01225
G1 X89.924 Y92.394 E0.30122
G1 X89.637 Y92.644 E0.01205
G1 X96.372 Y99.379 E0.30109
G1 X96.175 Y99.720 E0.01244
G1 X89.358 Y92.903 E0.30476
G1 X89.087 Y93.170 E0.01202
G1 X95.978 Y100.061 E0.30807
G1 X95.782 Y100.402 E0.01244
G1 X88.824 Y93.444 E0.31106
G1 X88.567 Y93.725 E0.01203
G1 X95.585 Y100.743 E0.31372
G1 X95.388 Y101.083 E0.01244
G1 X88.311 Y94.006 E0.31639
G1 X88.062 Y94.295 E0.01205
G1 X95.191 Y101.424 E0.31870
G1 X94.994 Y101.765 E0.01244
G1 X87.822 Y94.593 E0.32064
G1 X87.587 Y94.895 E0.01211
G1 X94.798 Y102.106 E0.32234
G1 X94.601 Y102.447 E0.01244
G1 X87.359 Y95.205 E0.32373
G1 X87.133 Y95.517 E0.01217
G1 X94.404 Y102.788 E0.32505
G1 X94.207 Y103.128 E0.01244
G1 X86.923 Y95.844 E0.32565
G1 X86.712 Y96.171 E0.01230
G1 X94.010 Y103.469 E0.32626
