; generated by PrusaSlicer 2.3.0+win64 on 2021-04-02 at 23:28:19 UTC


;
;

;
;
; 

; external perimeters extrusion width = 0.45mm
; perimeters extrusion width = 0.45mm
; infill extrusion width = 0.45mm
; solid infill extrusion width = 0.45mm
; top infill extrusion width = 0.40mm
; first layer extrusion width = 0.42mm

M73 P0 R109
M201 X1250 Y1250 Z400 E5000 ; sets maximum accelerations, mm/sec^2
M203 X180 Y180 Z12 E80 ; sets maximum feedrates, mm/sec
M204 P1250 R1250 T1250 ; sets acceleration (P, T) and retract acceleration (R), mm/sec^2
M205 X8.00 Y8.00 Z2.00 E10.00 ; sets the jerk limits, mm/sec
M205 S0 T0 ; sets the minimum extruding and travel feed rate, mm/sec
M107
;TYPE:Custom
G90 ; use absolute coordinates
M83 ; extruder relative mode
M104 S170 ; set extruder temp for bed leveling
M140 S75 ; set bed temp
M109 R170 ; wait for bed leveling temp
M190 S75 ; wait for bed temp
G28 ; home all without mesh bed level
G29 ; mesh bed leveling 
M104 S245 ; set extruder temp
G92 E0.0
G1 Y-2.0 X179 F2400
G1 Z3 F720
M109 S245 ; wait for extruder temp

; intro line
G1 X170 F1000
G1 Z0.2 F720
G1 X110.0 E8.0 F900
G1 X40.0 E10.0 F700
G92 E0.0

M221 S95 ; set flow
G21 ; set units to millimeters
G90 ; use absolute coordinates
M83 ; use relative distances for extrusion
M900 K0.2 ; Filament gcode
;LAYER_CHANGE
;Z:0.2
;HEIGHT:0.2
;BEFORE_LAYER_CHANGE
G92 E0.0
;0.2


G1 Z0.200 F9000.000
;AFTER_LAYER_CHANGE
;0.2
G1 E-3.20000 F2400.000
G1 Z0.400 F9000.000
G1 X59.166 Y88.543
G1 Z0.200
G1 E3.20000 F1500.000
M204 S800
;TYPE:Skirt
;WIDTH:0.42
G1 F1200.000
G1 X59.798 Y87.659 E0.03407
G1 X60.664 Y86.885 E0.03641
G1 X117.591 Y47.027 E2.17891
G1 X118.199 Y46.665 E0.02219
G1 X119.097 Y46.313 E0.03024
G1 X120.481 Y46.105 E0.04388
G1 X121.101 Y46.128 E0.01946
G1 X122.025 Y46.290 E0.02941
G1 X123.229 Y46.733 E0.04022
G1 X124.326 Y47.411 E0.04045
G1 X125.504 Y48.536 E0.05105
G1 X140.809 Y70.351 E0.83554
G1 X141.616 Y71.884 E0.05434
G1 X141.912 Y72.891 E0.03291
G1 X142.029 Y73.650 E0.02407
G1 X142.047 Y74.640 E0.03106
G1 X141.955 Y75.382 E0.02344
G1 X141.674 Y76.372 E0.03225
G1 X141.327 Y77.103 E0.02537
G1 X140.692 Y77.993 E0.03429
G1 X139.823 Y78.770 E0.03654
G1 X82.827 Y118.675 E2.18154
M73 P0 R108
G1 X82.268 Y119.000 E0.02028
G1 X81.372 Y119.348 E0.03015
G1 X79.994 Y119.550 E0.04366
G1 X79.033 Y119.483 E0.03020
G1 X78.334 Y119.333 E0.02242
G1 X77.682 Y119.109 E0.02160
G1 X76.738 Y118.637 E0.03310
G1 X75.712 Y117.875 E0.04008
G1 X74.644 Y116.678 E0.05031
G1 X59.388 Y94.848 E0.83503
G1 X58.923 Y93.899 E0.03313
G1 X58.695 Y93.245 E0.02171
G1 X58.536 Y92.564 E0.02194
G1 X58.430 Y91.559 E0.03168
G1 X58.456 Y90.828 E0.02294
G1 X58.627 Y89.859 E0.03086
G1 X59.143 Y88.598 E0.04270
M204 S1250
G1 E-2.24000 F2400.000
;WIPE_START
G1 F7200.000
G1 X59.798 Y87.659 E-0.36260
G1 X60.664 Y86.885 E-0.36777
G1 X61.134 Y86.556 E-0.18164
;WIPE_END
G1 E-0.04800 F2400.000
G1 Z0.400 F9000.000
G1 X57.145 Y87.379
G1 Z0.200
G1 E3.20000 F1500.000
M204 S800
G1 F1200.000
G1 X57.452 Y86.877 E0.01846
G1 X58.094 Y86.061 E0.03254
G1 X58.656 Y85.502 E0.02489
G1 X59.283 Y85.001 E0.02515
G1 X116.306 Y45.074 E2.18262
G1 X117.159 Y44.571 E0.03105
G1 X117.809 Y44.282 E0.02230
G1 X118.472 Y44.059 E0.02194
G1 X119.631 Y43.824 E0.03709
G1 X120.317 Y43.771 E0.02155
G1 X120.991 Y43.777 E0.02114
G1 X121.866 Y43.870 E0.02761
G1 X122.732 Y44.058 E0.02777
G1 X123.598 Y44.345 E0.02862
G1 X124.418 Y44.716 E0.02820
G1 X125.089 Y45.100 E0.02425
G1 X125.629 Y45.467 E0.02047
G1 X126.139 Y45.869 E0.02037
G1 X126.750 Y46.435 E0.02610
G1 X127.318 Y47.063 E0.02655
G1 X127.760 Y47.640 E0.02279
G1 X142.790 Y69.110 E0.82174
G1 X143.151 Y69.687 E0.02133
G1 X143.472 Y70.293 E0.02152
G1 X143.780 Y71.002 E0.02422
G1 X144.019 Y71.703 E0.02322
G1 X144.233 Y72.577 E0.02821
G1 X144.346 Y73.329 E0.02386
G1 X144.393 Y74.042 E0.02239
G1 X144.365 Y74.975 E0.02928
G1 X144.258 Y75.777 E0.02534
G1 X144.093 Y76.492 E0.02301
G1 X143.779 Y77.400 E0.03013
G1 X143.430 Y78.133 E0.02547
G1 X143.036 Y78.778 E0.02370
G1 X142.394 Y79.594 E0.03254
G1 X141.831 Y80.154 E0.02489
G1 X141.205 Y80.655 E0.02515
G1 X84.034 Y120.676 E2.18810
G1 X83.328 Y121.084 E0.02558
G1 X82.702 Y121.363 E0.02149
G1 X82.048 Y121.586 E0.02169
G1 X81.033 Y121.806 E0.03255
G1 X80.005 Y121.888 E0.03233
G1 X79.327 Y121.868 E0.02126
G1 X78.656 Y121.791 E0.02120
G1 X77.630 Y121.562 E0.03296
G1 X76.956 Y121.335 E0.02230
G1 X76.309 Y121.058 E0.02208
G1 X75.540 Y120.643 E0.02739
G1 X74.829 Y120.166 E0.02684
G1 X74.157 Y119.619 E0.02716
G1 X73.685 Y119.167 E0.02051
G1 X73.251 Y118.690 E0.02023
G1 X72.739 Y118.032 E0.02612
G1 X57.764 Y96.645 E0.81862
G1 X57.337 Y95.969 E0.02507
G1 X56.953 Y95.229 E0.02615
G1 X56.662 Y94.532 E0.02367
G1 X56.428 Y93.814 E0.02368
G1 X56.238 Y92.991 E0.02647
G1 X56.134 Y92.258 E0.02321
G1 X56.092 Y91.504 E0.02370
G1 X56.113 Y90.791 E0.02236
G1 X56.193 Y90.089 E0.02216
G1 X56.408 Y89.116 E0.03124
G1 X56.713 Y88.245 E0.02894
G1 X57.114 Y87.431 E0.02846
M204 S1250
G1 X57.436 Y87.626 F9000.000
M204 S800
G1 F1200.000
G1 X57.755 Y87.101 E0.01927
G1 X58.383 Y86.304 E0.03181
G1 X58.915 Y85.777 E0.02348
G1 X59.504 Y85.306 E0.02365
G1 X116.516 Y45.387 E2.18221
G1 X117.322 Y44.911 E0.02935
G1 X117.938 Y44.637 E0.02114
G1 X118.581 Y44.420 E0.02128
G1 X119.672 Y44.199 E0.03489
G1 X120.321 Y44.148 E0.02042
G1 X120.978 Y44.154 E0.02059
G1 X121.816 Y44.244 E0.02642
G1 X122.642 Y44.424 E0.02650
G1 X123.452 Y44.693 E0.02677
G1 X124.239 Y45.048 E0.02706
G1 X124.884 Y45.416 E0.02328
G1 X125.401 Y45.767 E0.01961
G1 X125.900 Y46.161 E0.01992
G1 X126.487 Y46.706 E0.02513
G1 X127.033 Y47.310 E0.02552
G1 X127.453 Y47.859 E0.02169
G1 X142.473 Y69.314 E0.82117
G1 X142.828 Y69.881 E0.02096
G1 X143.135 Y70.463 E0.02064
G1 X143.425 Y71.132 E0.02285
G1 X143.655 Y71.801 E0.02219
G1 X143.865 Y72.658 E0.02767
G1 X143.971 Y73.362 E0.02233
G1 X144.016 Y74.040 E0.02129
G1 X143.989 Y74.954 E0.02869
G1 X143.889 Y75.701 E0.02361
G1 X143.734 Y76.378 E0.02178
G1 X143.426 Y77.267 E0.02948
G1 X143.102 Y77.946 E0.02359
G1 X142.732 Y78.554 E0.02233
G1 X142.105 Y79.351 E0.03181
G1 X141.573 Y79.879 E0.02348
G1 X140.984 Y80.349 E0.02365
G1 X83.838 Y120.354 E2.18717
G1 X83.165 Y120.744 E0.02438
G1 X82.557 Y121.016 E0.02089
G1 X81.937 Y121.226 E0.02054
G1 X80.990 Y121.431 E0.03038
G1 X80.006 Y121.511 E0.03096
G1 X79.362 Y121.492 E0.02018
G1 X78.708 Y121.417 E0.02063
G1 X77.740 Y121.201 E0.03110
G1 X77.097 Y120.986 E0.02127
G1 X76.465 Y120.715 E0.02156
G1 X75.728 Y120.316 E0.02630
G1 X75.046 Y119.858 E0.02573
G1 X74.412 Y119.342 E0.02564
G1 X73.959 Y118.908 E0.01966
G1 X73.535 Y118.441 E0.01979
G1 X73.040 Y117.804 E0.02528
G1 X58.076 Y96.432 E0.81805
G1 X57.668 Y95.788 E0.02391
G1 X57.297 Y95.076 E0.02516
G1 X57.018 Y94.408 E0.02270
G1 X56.789 Y93.705 E0.02318
G1 X56.610 Y92.930 E0.02493
G1 X56.509 Y92.214 E0.02269
G1 X56.469 Y91.491 E0.02269
G1 X56.490 Y90.811 E0.02136
G1 X56.566 Y90.141 E0.02112
G1 X56.773 Y89.209 E0.02996
G1 X57.065 Y88.380 E0.02756
G1 X57.405 Y87.678 E0.02445
M204 S1250
G1 X57.727 Y87.873 F9000.000
M204 S800
G1 F1200.000
G1 X58.059 Y87.325 E0.02007
G1 X58.671 Y86.547 E0.03107
G1 X59.172 Y86.052 E0.02206
G1 X59.725 Y85.612 E0.02216
G1 X116.727 Y45.700 E2.18180
G1 X117.486 Y45.251 E0.02765
G1 X118.083 Y44.985 E0.02051
G1 X118.690 Y44.781 E0.02008
G1 X119.713 Y44.574 E0.03271
G1 X120.342 Y44.525 E0.01980
G1 X120.965 Y44.531 E0.01952
G1 X121.765 Y44.618 E0.02524
G1 X122.551 Y44.790 E0.02523
G1 X123.324 Y45.048 E0.02553
G1 X124.060 Y45.380 E0.02533
G1 X124.678 Y45.732 E0.02230
G1 X125.183 Y46.075 E0.01916
G1 X125.660 Y46.452 E0.01904
G1 X126.224 Y46.976 E0.02416
G1 X126.747 Y47.556 E0.02450
G1 X127.146 Y48.079 E0.02061
G1 X142.156 Y69.519 E0.82060
G1 X142.497 Y70.063 E0.02015
G1 X142.798 Y70.633 E0.02020
G1 X143.071 Y71.261 E0.02148
G1 X143.291 Y71.899 E0.02115
G1 X143.497 Y72.739 E0.02713
G1 X143.595 Y73.396 E0.02080
G1 X143.639 Y74.038 E0.02018
G1 X143.612 Y74.933 E0.02809
G1 X143.519 Y75.626 E0.02190
G1 X143.374 Y76.265 E0.02055
G1 X143.073 Y77.133 E0.02882
G1 X142.775 Y77.758 E0.02172
G1 X142.429 Y78.330 E0.02095
G1 X141.816 Y79.109 E0.03106
G1 X141.315 Y79.603 E0.02206
G1 X140.763 Y80.044 E0.02216
G1 X83.642 Y120.032 E2.18625
G1 X83.002 Y120.404 E0.02320
G1 X82.427 Y120.661 E0.01974
G1 X81.826 Y120.865 E0.01991
G1 X80.923 Y121.060 E0.02897
G1 X80.007 Y121.134 E0.02882
G1 X79.382 Y121.115 E0.01961
G1 X78.762 Y121.044 E0.01957
G1 X77.851 Y120.841 E0.02926
G1 X77.224 Y120.631 E0.02071
G1 X76.622 Y120.372 E0.02056
G1 X75.915 Y119.988 E0.02521
G1 X75.277 Y119.560 E0.02409
G1 X74.667 Y119.064 E0.02465
G1 X74.225 Y118.640 E0.01921
G1 X73.819 Y118.193 E0.01894
G1 X73.346 Y117.584 E0.02416
G1 X58.387 Y96.219 E0.81777
G1 X57.998 Y95.606 E0.02276
G1 X57.642 Y94.923 E0.02416
G1 X57.374 Y94.284 E0.02173
G1 X57.155 Y93.611 E0.02217
G1 X56.982 Y92.869 E0.02389
G1 X56.885 Y92.185 E0.02167
G1 X56.846 Y91.479 E0.02217
G1 X56.866 Y90.830 E0.02034
G1 X56.940 Y90.195 E0.02007
G1 X57.139 Y89.302 E0.02867
G1 X57.417 Y88.515 E0.02618
G1 X57.699 Y87.925 E0.02048
M204 S1250
G1 X58.038 Y88.088 F9000.000
M204 S800
G1 F1200.000
G1 X58.362 Y87.549 E0.01972
G1 X58.960 Y86.789 E0.03031
G1 X59.429 Y86.328 E0.02062
G1 X59.946 Y85.917 E0.02069
G1 X116.937 Y46.013 E2.18141
M73 P1 R108
G1 X117.650 Y45.591 E0.02596
G1 X118.212 Y45.339 E0.01931
G1 X118.799 Y45.142 E0.01942
G1 X119.754 Y44.949 E0.03054
G1 X120.347 Y44.902 E0.01866
G1 X120.952 Y44.908 E0.01896
G1 X121.695 Y44.988 E0.02343
G1 X122.442 Y45.151 E0.02398
G1 X123.178 Y45.396 E0.02431
G1 X123.881 Y45.712 E0.02419
G1 X124.472 Y46.048 E0.02132
G1 X124.955 Y46.375 E0.01828
G1 X125.420 Y46.743 E0.01859
G1 X125.961 Y47.246 E0.02317
G1 X126.462 Y47.803 E0.02347
G1 X126.840 Y48.298 E0.01953
G1 X141.839 Y69.723 E0.82004
G1 X142.174 Y70.258 E0.01978
G1 X142.461 Y70.802 E0.01931
G1 X142.717 Y71.391 E0.02013
G1 X142.926 Y71.997 E0.02010
G1 X143.128 Y72.821 E0.02658
G1 X143.219 Y73.429 E0.01929
G1 X143.262 Y74.036 E0.01907
G1 X143.235 Y74.912 E0.02749
G1 X143.150 Y75.551 E0.02020
G1 X143.014 Y76.151 E0.01930
G1 X142.721 Y77.000 E0.02815
G1 X142.447 Y77.572 E0.01988
G1 X142.125 Y78.106 E0.01956
G1 X141.527 Y78.866 E0.03031
G1 X141.058 Y79.327 E0.02063
G1 X140.542 Y79.738 E0.02070
G1 X83.445 Y119.710 E2.18534
G1 X82.839 Y120.064 E0.02200
G1 X82.282 Y120.313 E0.01914
G1 X81.715 Y120.505 E0.01874
G1 X80.879 Y120.685 E0.02682
G1 X80.007 Y120.757 E0.02745
G1 X79.417 Y120.740 E0.01851
G1 X78.815 Y120.670 E0.01900
G1 X77.943 Y120.475 E0.02801
G1 X77.352 Y120.276 E0.01954
G1 X76.779 Y120.029 E0.01957
G1 X76.103 Y119.661 E0.02413
G1 X75.495 Y119.252 E0.02299
G1 X74.923 Y118.786 E0.02314
G1 X74.500 Y118.382 E0.01835
G1 X74.103 Y117.945 E0.01850
G1 X73.653 Y117.364 E0.02304
G1 X58.698 Y96.006 E0.81750
G1 X58.329 Y95.424 E0.02162
G1 X57.987 Y94.769 E0.02317
G1 X57.730 Y94.159 E0.02076
G1 X57.520 Y93.517 E0.02117
G1 X57.354 Y92.808 E0.02285
G1 X57.259 Y92.140 E0.02114
G1 X57.223 Y91.467 E0.02114
G1 X57.243 Y90.851 E0.01933
G1 X57.313 Y90.248 E0.01902
G1 X57.504 Y89.396 E0.02738
G1 X57.769 Y88.651 E0.02481
G1 X58.012 Y88.142 E0.01768
M204 S1250
G1 E-2.24000 F2400.000
;WIPE_START
G1 F7200.000
G1 X58.362 Y87.549 E-0.21806
G1 X58.960 Y86.789 E-0.30610
G1 X59.429 Y86.328 E-0.20830
G1 X59.873 Y85.975 E-0.17954
;WIPE_END
G1 E-0.04800 F2400.000
G1 Z0.400 F9000.000
G1 X59.249 Y87.032
G1 Z0.200
G1 E3.20000 F1500.000
M204 S800
G1 F1200.000
G1 X59.686 Y86.605 E0.01917
G1 X60.167 Y86.223 E0.01925
G1 X117.148 Y46.326 E2.18101
G1 X117.813 Y45.931 E0.02427
G1 X118.357 Y45.688 E0.01868
G1 X118.908 Y45.503 E0.01819
G1 X119.795 Y45.324 E0.02839
G1 X120.368 Y45.279 E0.01803
G1 X120.938 Y45.285 E0.01787
G1 X121.643 Y45.362 E0.02224
G1 X122.351 Y45.518 E0.02272
G1 X123.032 Y45.744 E0.02249
G1 X123.703 Y46.045 E0.02307
G1 X124.267 Y46.365 E0.02032
G1 X124.737 Y46.684 E0.01782
G1 X125.180 Y47.034 E0.01770
G1 X125.698 Y47.516 E0.02220
G1 X126.176 Y48.049 E0.02244
G1 X126.533 Y48.517 E0.01847
G1 X141.522 Y69.928 E0.81948
G1 X141.844 Y70.440 E0.01896
G1 X142.125 Y70.972 E0.01886
G1 X142.363 Y71.522 E0.01879
G1 X142.562 Y72.096 E0.01905
G1 X142.760 Y72.902 E0.02603
G1 X142.844 Y73.463 E0.01780
G1 X142.884 Y74.034 E0.01795
G1 X142.859 Y74.891 E0.02688
G1 X142.780 Y75.477 E0.01852
G1 X142.654 Y76.038 E0.01805
G1 X142.368 Y76.866 E0.02747
G1 X142.119 Y77.386 E0.01806
G1 X141.821 Y77.883 E0.01816
G1 X141.239 Y78.623 E0.02953
G1 X140.802 Y79.050 E0.01917
G1 X140.321 Y79.432 E0.01925
G1 X83.247 Y119.389 E2.18445
M73 P1 R107
G1 X82.675 Y119.724 E0.02081
G1 X82.152 Y119.959 E0.01796
G1 X81.605 Y120.144 E0.01811
G1 X80.812 Y120.314 E0.02542
G1 X80.007 Y120.380 E0.02533
G1 X79.436 Y120.363 E0.01792
G1 X78.868 Y120.297 E0.01791
G1 X78.054 Y120.115 E0.02616
G1 X77.480 Y119.921 E0.01898
G1 X76.937 Y119.686 E0.01856
G1 X76.292 Y119.335 E0.02304
G1 X75.713 Y118.944 E0.02189
G1 X75.178 Y118.509 E0.02164
G1 X74.765 Y118.114 E0.01790
G1 X74.387 Y117.697 E0.01764
G1 X73.959 Y117.144 E0.02192
G1 X59.010 Y95.794 E0.81723
G1 X58.659 Y95.242 E0.02049
G1 X58.331 Y94.615 E0.02218
G1 X58.086 Y94.034 E0.01979
G1 X57.885 Y93.423 E0.02016
G1 X57.726 Y92.746 E0.02181
G1 X57.635 Y92.111 E0.02009
G1 X57.600 Y91.455 E0.02061
G1 X57.620 Y90.871 E0.01831
G1 X57.686 Y90.302 E0.01797
G1 X57.869 Y89.490 E0.02609
G1 X58.121 Y88.787 E0.02343
G1 X58.369 Y88.269 E0.01799
G1 X58.666 Y87.773 E0.01816
G1 X59.212 Y87.080 E0.02765
M204 S1250
G1 X59.507 Y87.312 F9000.000
M204 S800
G1 F1200.000
G1 X59.928 Y86.894 E0.01862
G1 X60.388 Y86.529 E0.01840
G1 X117.359 Y46.639 E2.18062
G1 X117.978 Y46.270 E0.02260
G1 X118.486 Y46.042 E0.01746
G1 X119.016 Y45.865 E0.01753
G1 X119.837 Y45.699 E0.02624
G1 X120.373 Y45.656 E0.01687
G1 X120.924 Y45.662 E0.01730
G1 X121.592 Y45.736 E0.02105
G1 X122.242 Y45.879 E0.02088
G1 X122.887 Y46.092 E0.02129
G1 X123.526 Y46.378 E0.02193
G1 X124.062 Y46.681 E0.01933
G1 X124.509 Y46.984 E0.01692
G1 X124.940 Y47.325 E0.01723
G1 X125.434 Y47.786 E0.02121
G1 X125.890 Y48.295 E0.02141
G1 X126.226 Y48.737 E0.01741
G1 X141.206 Y70.133 E0.81894
G1 X141.514 Y70.622 E0.01813
G1 X141.788 Y71.141 E0.01840
G1 X142.014 Y71.665 E0.01789
G1 X142.203 Y72.211 E0.01810
G1 X142.388 Y72.966 E0.02440
G1 X142.470 Y73.512 E0.01729
G1 X142.508 Y74.051 E0.01696
G1 X142.484 Y74.851 E0.02509
G1 X142.410 Y75.403 E0.01744
G1 X142.289 Y75.946 E0.01745
G1 X142.023 Y76.713 E0.02546
G1 X141.783 Y77.215 E0.01744
G1 X141.504 Y77.678 E0.01695
G1 X140.966 Y78.362 E0.02730
G1 X140.559 Y78.762 E0.01787
G1 X140.100 Y79.127 E0.01840
G1 X83.050 Y119.068 E2.18358
G1 X82.510 Y119.385 E0.01961
G1 X82.006 Y119.611 E0.01733
G1 X81.495 Y119.783 E0.01691
G1 X80.769 Y119.939 E0.02329
G1 X80.007 Y120.002 E0.02397
G1 X79.471 Y119.988 E0.01681
G1 X78.922 Y119.924 E0.01733
G1 X78.147 Y119.749 E0.02491
G1 X77.609 Y119.567 E0.01781
G1 X77.095 Y119.344 E0.01757
G1 X76.480 Y119.008 E0.02196
G1 X75.944 Y118.646 E0.02028
G1 X75.433 Y118.231 E0.02067
G1 X75.040 Y117.856 E0.01703
G1 X74.671 Y117.450 E0.01719
G1 X74.265 Y116.925 E0.02081
G1 X59.321 Y95.581 E0.81696
G1 X58.989 Y95.060 E0.01936
G1 X58.675 Y94.461 E0.02119
G1 X58.442 Y93.908 E0.01882
G1 X58.250 Y93.328 E0.01915
G1 X58.098 Y92.683 E0.02077
G1 X58.011 Y92.082 E0.01904
G1 X57.977 Y91.459 E0.01957
G1 X57.995 Y90.907 E0.01730
G1 X58.060 Y90.356 E0.01741
G1 X58.229 Y89.606 E0.02410
G1 X58.465 Y88.941 E0.02214
G1 X58.705 Y88.440 E0.01739
G1 X58.983 Y87.977 E0.01695
G1 X59.470 Y87.359 E0.02466
M204 S1250
G1 X60.060 Y87.824 F9000.000
M204 S800
G1 F1200.000
G1 X60.428 Y87.459 E0.01625
G1 X60.829 Y87.140 E0.01607
G1 X117.780 Y47.264 E2.17985
G1 X118.308 Y46.949 E0.01927
G1 X118.760 Y46.745 E0.01555
G1 X119.232 Y46.588 E0.01561
G1 X119.920 Y46.449 E0.02200
G1 X120.398 Y46.410 E0.01505
G1 X120.896 Y46.416 E0.01560
G1 X121.469 Y46.480 E0.01807
G1 X122.042 Y46.606 E0.01841
G1 X122.614 Y46.795 E0.01889
G1 X123.171 Y47.043 E0.01910
G1 X123.653 Y47.315 E0.01734
G1 X124.063 Y47.592 E0.01553
G1 X124.459 Y47.906 E0.01584
G1 X124.906 Y48.325 E0.01922
G1 X125.317 Y48.786 E0.01935
G1 X125.612 Y49.175 E0.01533
G1 X140.573 Y70.544 E0.81789
G1 X140.854 Y70.988 E0.01648
G1 X141.108 Y71.468 E0.01702
