(1001)
(T1  D=0.125 CR=0 - ZMIN=-0.125 - FLAT END MILL)
G0 G40 G90 G17
G20

(DRILL2)
T1 M6
M3 S2440
G0 X-17.9181 Y0.5685
G0 Z0.6625
G0 Z0.2625
G1 Z-0.125 F30.
G0 Z0.2625
G0 X-17.2882
G1 Z-0.125 F30.
G0 Z0.2625
G0 X-16.6583
G1 Z-0.125 F30.
G0 Z0.2625
G0 X-16.0283
G1 Z-0.125 F30.
G0 Z0.2625
G0 X-15.3984
G1 Z-0.125 F30.
G0 Z0.2625
G0 X-14.7685
G1 Z-0.125 F30.
G0 Z0.2625
G0 X-14.1386
G1 Z-0.125 F30.
G0 Z0.2625
G0 X-13.5087
G1 Z-0.125 F30.
G0 Z0.2625
G0 X-12.8787
G1 Z-0.125 F30.
G0 Z0.2625
G0 X-12.2488
G1 Z-0.125 F30.
G0 Z0.2625
G0 X-11.6189
G1 Z-0.125 F30.
G0 Z0.2625
G0 X-10.989
G1 Z-0.125 F30.
G0 Z0.2625
G0 X-10.3591
G1 Z-0.125 F30.
G0 Z0.2625
G0 X-9.7291
G1 Z-0.125 F30.
G0 Z0.2625
G0 X-9.0992
G1 Z-0.125 F30.
G0 Z0.2625
G0 X-8.4693
G1 Z-0.125 F30.
G0 Z0.2625
G0 X-7.8394
G1 Z-0.125 F30.
G0 Z0.2625
G0 X-7.2095
G1 Z-0.125 F30.
G0 Z0.2625
G0 X-6.5795
G1 Z-0.125 F30.
G0 Z0.2625
G0 X-5.9496
G1 Z-0.125 F30.
G0 Z0.2625
G0 X-5.3197
G1 Z-0.125 F30.
G0 Z0.2625
G0 X-8.8635 Y1.474
G1 Z-0.125 F30.
G0 Z0.2625
G0 X-9.1785 Y1.789
G1 Z-0.125 F30.
G0 Z0.2625
G0 X-8.8635 Y2.1039
G1 Z-0.125 F30.
G0 Z0.2625
G0 X-9.0996 Y3.0882
G1 Z-0.125 F30.
G0 Z0.2625
G0 Y3.4031
G1 Z-0.125 F30.
G0 Z0.2625
G0 Y3.7181
G1 Z-0.125 F30.
G0 Z0.2625
G0 Y4.033
G1 Z-0.125 F30.
G0 Z0.2625
G0 Y4.348
G1 Z-0.125 F30.
G0 Z0.2625
G0 X-10.9894 Y4.5449
G1 Z-0.125 F30.
G0 Z0.2625
G0 X-11.3043
G1 Z-0.125 F30.
G0 Z0.2625
G0 X-11.6193
G1 Z-0.125 F30.
G0 Z0.2625
G0 X-11.9343
G1 Z-0.125 F30.
G0 Z0.2625
G0 X-12.2492
G1 Z-0.125 F30.
G0 Z0.2625
G0 X-13.92 Y3.6787
G1 Z-0.125 F30.
G0 Z0.2625
G0 X-13.605 Y3.3638
G1 Z-0.125 F30.
G0 Z0.2625
G0 X-13.92 Y3.0488
G1 Z-0.125 F30.
G0 Z0.2625
G0 X-17.9181 Y5.3185
G1 Z-0.125 F30.
G0 Z0.2625
G0 X-17.2882
G1 Z-0.125 F30.
G0 Z0.2625
G0 X-16.6583
G1 Z-0.125 F30.
G0 Z0.2625
G0 X-16.0283
G1 Z-0.125 F30.
G0 Z0.2625
G0 X-15.3984
G1 Z-0.125 F30.
G0 Z0.2625
G0 X-14.7685
G1 Z-0.125 F30.
G0 Z0.2625
G0 X-14.1386
G1 Z-0.125 F30.
G0 Z0.2625
G0 X-13.5087
G1 Z-0.125 F30.
G0 Z0.2625
G0 X-12.8787
G1 Z-0.125 F30.
G0 Z0.2625
G0 X-12.2488
G1 Z-0.125 F30.
G0 Z0.2625
G0 X-11.6189
G1 Z-0.125 F30.
G0 Z0.2625
G0 X-10.989
G1 Z-0.125 F30.
G0 Z0.2625
G0 X-10.3591
G1 Z-0.125 F30.
G0 Z0.2625
G0 X-9.7291
G1 Z-0.125 F30.
G0 Z0.2625
G0 X-9.0992
G1 Z-0.125 F30.
G0 Z0.2625
G0 X-8.4693
G1 Z-0.125 F30.
G0 Z0.2625
G0 X-7.8394
G1 Z-0.125 F30.
G0 Z0.2625
G0 X-7.2095
G1 Z-0.125 F30.
G0 Z0.2625
G0 X-6.5795
G1 Z-0.125 F30.
G0 Z0.2625
G0 X-5.9496
G1 Z-0.125 F30.
G0 Z0.2625
G0 X-5.3197
G1 Z-0.125 F30.
G0 Z0.2625
G0 X-4.6902 Y4.348
G1 Z-0.125 F30.
G0 Z0.2625
G0 Y4.033
G1 Z-0.125 F30.
G0 Z0.2625
G0 Y3.7181
G1 Z-0.125 F30.
G0 Z0.2625
G0 Y3.4031
G1 Z-0.125 F30.
G0 Z0.2625
G0 Y3.0882
G1 Z-0.125 F30.
G0 Z0.2625
G0 X-6.8949
G1 Z-0.125 F30.
G0 Z0.2625
G0 Y3.4031
G1 Z-0.125 F30.
G0 Z0.2625
G0 Y3.7181
G1 Z-0.125 F30.
G0 Z0.2625
G0 Y4.033
G1 Z-0.125 F30.
G0 Z0.2625
G0 Y4.348
G1 Z-0.125 F30.
G0 Z0.2625
G0 X-8.8635 Y6.224
G1 Z-0.125 F30.
G0 Z0.2625
G0 X-9.1785 Y6.539
G1 Z-0.125 F30.
G0 Z0.2625
G0 X-8.8635 Y6.8539
G1 Z-0.125 F30.
G0 Z0.2625
G0 X-9.0996 Y7.8382
G1 Z-0.125 F30.
G0 Z0.2625
G0 Y8.1531
G1 Z-0.125 F30.
G0 Z0.2625
G0 Y8.4681
G1 Z-0.125 F30.
G0 Z0.2625
G0 Y8.783
G1 Z-0.125 F30.
G0 Z0.2625
G0 Y9.098
G1 Z-0.125 F30.
G0 Z0.2625
G0 X-10.9894 Y9.2949
G1 Z-0.125 F30.
G0 Z0.2625
G0 X-11.3043
G1 Z-0.125 F30.
G0 Z0.2625
G0 X-11.6193
G1 Z-0.125 F30.
G0 Z0.2625
G0 X-11.9343
G1 Z-0.125 F30.
G0 Z0.2625
G0 X-12.2492
G1 Z-0.125 F30.
G0 Z0.2625
G0 X-12.4353 Y11.0092
G1 Z-0.125 F30.
G0 Z0.2625
G0 X-12.7896
G1 Z-0.125 F30.
G0 Z0.2625
G0 Y11.9541
G1 Z-0.125 F30.
G0 Z0.2625
G0 X-12.4353
G1 Z-0.125 F30.
G0 Z0.2625
G0 X-13.9229 Y12.7415
G1 Z-0.125 F30.
G0 Z0.2625
G0 X-13.608 Y13.0564
G1 Z-0.125 F30.
G0 Z0.2625
G0 X-13.9229 Y13.3714
G1 Z-0.125 F30.
G0 Z0.2625
G0 X-12.4353 Y15.7592
G1 Z-0.125 F30.
G0 Z0.2625
G0 X-12.7896
G1 Z-0.125 F30.
G0 Z0.2625
G0 Y16.7041
G1 Z-0.125 F30.
G0 Z0.2625
G0 X-12.4353
G1 Z-0.125 F30.
G0 Z0.2625
G0 X-13.9229 Y17.4915
G1 Z-0.125 F30.
G0 Z0.2625
G0 X-13.608 Y17.8064
G1 Z-0.125 F30.
G0 Z0.2625
G0 X-13.9229 Y18.1214
G1 Z-0.125 F30.
G0 Z0.2625
G0 X-10.3541 Y18.2789
G1 Z-0.125 F30.
G0 Z0.2625
G0 X-9.9998
G1 Z-0.125 F30.
G0 Z0.2625
G0 Y17.334
G1 Z-0.125 F30.
G0 Z0.2625
G0 X-10.3541
G1 Z-0.125 F30.
G0 Z0.2625
G0 X-8.8665 Y16.5466
G1 Z-0.125 F30.
G0 Z0.2625
G0 X-9.1814 Y16.2316
G1 Z-0.125 F30.
G0 Z0.2625
G0 X-8.8665 Y15.9167
G1 Z-0.125 F30.
G0 Z0.2625
G0 X-10.3541 Y13.5289
G1 Z-0.125 F30.
G0 Z0.2625
G0 X-9.9998
G1 Z-0.125 F30.
G0 Z0.2625
G0 Y12.584
G1 Z-0.125 F30.
G0 Z0.2625
G0 X-10.3541
G1 Z-0.125 F30.
G0 Z0.2625
G0 X-8.8665 Y11.7966
G1 Z-0.125 F30.
G0 Z0.2625
G0 X-9.1814 Y11.4816
G1 Z-0.125 F30.
G0 Z0.2625
G0 X-8.8665 Y11.1667
G1 Z-0.125 F30.
G0 Z0.2625
G0 X-6.8949 Y9.098
G1 Z-0.125 F30.
G0 Z0.2625
G0 Y8.783
G1 Z-0.125 F30.
G0 Z0.2625
G0 Y8.4681
G1 Z-0.125 F30.
G0 Z0.2625
G0 Y8.1531
G1 Z-0.125 F30.
G0 Z0.2625
G0 Y7.8382
G1 Z-0.125 F30.
G0 Z0.2625
G0 X-4.6902
G1 Z-0.125 F30.
G0 Z0.2625
G0 Y8.1531
G1 Z-0.125 F30.
G0 Z0.2625
G0 Y8.4681
G1 Z-0.125 F30.
G0 Z0.2625
G0 Y8.783
G1 Z-0.125 F30.
G0 Z0.2625
G0 Y9.098
G1 Z-0.125 F30.
G0 Z0.2625
G0 X-5.3226 Y10.2612
G1 Z-0.125 F30.
G0 Z0.2625
G0 X-5.9525
G1 Z-0.125 F30.
G0 Z0.2625
G0 X-6.5825
G1 Z-0.125 F30.
G0 Z0.2625
G0 X-7.2124
G1 Z-0.125 F30.
G0 Z0.2625
G0 X-7.8423
G1 Z-0.125 F30.
G0 Z0.2625
G0 X-8.4722
G1 Z-0.125 F30.
G0 Z0.2625
G0 X-9.1022
G1 Z-0.125 F30.
G0 Z0.2625
G0 X-9.7321
G1 Z-0.125 F30.
G0 Z0.2625
G0 X-10.362
G1 Z-0.125 F30.
G0 Z0.2625
G0 X-10.9919
G1 Z-0.125 F30.
G0 Z0.2625
G0 X-11.6218
G1 Z-0.125 F30.
G0 Z0.2625
G0 X-12.2518
G1 Z-0.125 F30.
G0 Z0.2625
G0 X-12.8817
G1 Z-0.125 F30.
G0 Z0.2625
G0 X-13.5116
G1 Z-0.125 F30.
G0 Z0.2625
G0 X-14.1415
G1 Z-0.125 F30.
G0 Z0.2625
G0 X-14.7714
G1 Z-0.125 F30.
G0 Z0.2625
G0 X-15.4014
G1 Z-0.125 F30.
G0 Z0.2625
G0 X-16.0313
G1 Z-0.125 F30.
G0 Z0.2625
G0 X-16.6612
G1 Z-0.125 F30.
G0 Z0.2625
G0 X-17.2911
G1 Z-0.125 F30.
G0 Z0.2625
G0 X-17.9211
G1 Z-0.125 F30.
G0 Z0.2625
G0 X-13.92 Y8.4287
G1 Z-0.125 F30.
G0 Z0.2625
G0 X-13.605 Y8.1138
G1 Z-0.125 F30.
G0 Z0.2625
G0 X-13.92 Y7.7988
G1 Z-0.125 F30.
G0 Z0.2625
G0 X-17.9211 Y15.0112
G1 Z-0.125 F30.
G0 Z0.2625
G0 X-17.2911
G1 Z-0.125 F30.
G0 Z0.2625
G0 X-16.6612
G1 Z-0.125 F30.
G0 Z0.2625
G0 X-16.0313
G1 Z-0.125 F30.
G0 Z0.2625
G0 X-15.4014
G1 Z-0.125 F30.
G0 Z0.2625
G0 X-14.7714
G1 Z-0.125 F30.
G0 Z0.2625
G0 X-14.1415
G1 Z-0.125 F30.
G0 Z0.2625
G0 X-13.5116
G1 Z-0.125 F30.
G0 Z0.2625
G0 X-12.8817
G1 Z-0.125 F30.
G0 Z0.2625
G0 X-12.2518
G1 Z-0.125 F30.
G0 Z0.2625
G0 X-11.6218
G1 Z-0.125 F30.
G0 Z0.2625
G0 X-10.9919
G1 Z-0.125 F30.
G0 Z0.2625
G0 X-10.362
G1 Z-0.125 F30.
G0 Z0.2625
G0 X-9.7321
G1 Z-0.125 F30.
G0 Z0.2625
G0 X-9.1022
G1 Z-0.125 F30.
G0 Z0.2625
G0 X-8.4722
G1 Z-0.125 F30.
G0 Z0.2625
G0 X-7.8423
G1 Z-0.125 F30.
G0 Z0.2625
G0 X-7.2124
G1 Z-0.125 F30.
G0 Z0.2625
G0 X-6.5825
G1 Z-0.125 F30.
G0 Z0.2625
G0 X-5.9525
G1 Z-0.125 F30.
G0 Z0.2625
G0 X-5.3226
G1 Z-0.125 F30.
G0 Z0.2625
G0 Z0.6625

(2D CONTOUR1)
G0 X-1.3983 Y8.3182
G0 Z0.6625
G0 Z0.2625
G1 Z0.1181 F30.
G1 Z0.0587
G1 X-1.398 Z0.056 F6.1
G1 X-1.3971 Z0.0533
G1 X-1.3956 Z0.051
G1 X-1.3936 Z0.049
G1 X-1.3913 Z0.0475
G1 X-1.3886 Z0.0466
G1 X-1.3858 Z0.0462
G1 X-1.3733
G1 X0.8808
G1 X-0.2737 Y9.4727
G1 X-1.7084
G1 X-2.1319 Y8.7312
G1 Y8.3182
G1 X-1.3733
G1 X-1.3608
G1 X-1.3581 Z0.0466
G1 X-1.3554 Z0.0475
G1 X-1.353 Z0.049
G1 X-1.3511 Z0.051
G1 X-1.3496 Z0.0533
G1 X-1.3487 Z0.056
G1 X-1.3483 Z0.0587
G0 Z0.2625
G0 X-1.3983
G1 Z0.1019 F30.
G1 Z0.0425
G1 X-1.398 Z0.0397 F6.1
G1 X-1.3971 Z0.0371
G1 X-1.3956 Z0.0347
G1 X-1.3936 Z0.0327
G1 X-1.3913 Z0.0312
G1 X-1.3886 Z0.0303
G1 X-1.3858 Z0.03
G1 X-1.3733
G1 X0.8808
G1 X-0.2737 Y9.4727
G1 X-1.7084
G1 X-2.1319 Y8.7312
G1 Y8.3182
G1 X-1.3733
G1 X-1.3608
G1 X-1.3581 Z0.0303
G1 X-1.3554 Z0.0312
G1 X-1.353 Z0.0327
G1 X-1.3511 Z0.0347
G1 X-1.3496 Z0.0371
G1 X-1.3487 Z0.0397
G1 X-1.3483 Z0.0425
G0 Z0.2625
G0 X-1.3983
G1 Z0.0856 F30.
G1 Z0.0262
G1 X-1.398 Z0.0235 F6.1
G1 X-1.3971 Z0.0208
G1 X-1.3956 Z0.0185
G1 X-1.3936 Z0.0165
G1 X-1.3913 Z0.015
G1 X-1.3886 Z0.0141
G1 X-1.3858 Z0.0137
G1 X-1.3733
G1 X0.8808
G1 X-0.2737 Y9.4727
G1 X-1.7084
G1 X-2.1319 Y8.7312
G1 Y8.3182
G1 X-1.3733
G1 X-1.3608
G1 X-1.3581 Z0.0141
G1 X-1.3554 Z0.015
G1 X-1.353 Z0.0165
G1 X-1.3511 Z0.0185
G1 X-1.3496 Z0.0208
G1 X-1.3487 Z0.0235
G1 X-1.3483 Z0.0262
G0 Z0.2625
G0 X-1.3983
G1 Z0.0694 F30.
G1 Z0.01
G1 X-1.398 Z0.0072 F6.1
G1 X-1.3971 Z0.0046
G1 X-1.3956 Z0.0022
G1 X-1.3936 Z0.0002
G1 X-1.3913 Z-0.0013
G1 X-1.3886 Z-0.0022
G1 X-1.3858 Z-0.0025
G1 X-1.3733
G1 X0.8808
G1 X-0.2737 Y9.4727
G1 X-1.7084
G1 X-2.1319 Y8.7312
G1 Y8.3182
G1 X-1.3733
G1 X-1.3608
G1 X-1.3581 Z-0.0022
G1 X-1.3554 Z-0.0013
G1 X-1.353 Z0.0002
G1 X-1.3511 Z0.0022
G1 X-1.3496 Z0.0046
G1 X-1.3487 Z0.0072
G1 X-1.3483 Z0.01
G0 Z0.2625
G0 X-1.3983
G1 Z0.0531 F30.
G1 Z-0.0063
G1 X-1.398 Z-0.009 F6.1
G1 X-1.3971 Z-0.0117
G1 X-1.3956 Z-0.014
G1 X-1.3936 Z-0.016
G1 X-1.3913 Z-0.0175
G1 X-1.3886 Z-0.0184
G1 X-1.3858 Z-0.0187
G1 X-1.3733
G1 X0.8808
G1 X-0.2737 Y9.4727
G1 X-1.7084
G1 X-2.1319 Y8.7312
G1 Y8.3182
G1 X-1.3733
G1 X-1.3608
G1 X-1.3581 Z-0.0184
G1 X-1.3554 Z-0.0175
G1 X-1.353 Z-0.016
G1 X-1.3511 Z-0.014
G1 X-1.3496 Z-0.0117
G1 X-1.3487 Z-0.009
G1 X-1.3483 Z-0.0063
G0 Z0.2625
G0 X-1.3983
G1 Z0.0369 F30.
G1 Z-0.0225
G1 X-1.398 Z-0.0253 F6.1
G1 X-1.3971 Z-0.0279
G1 X-1.3956 Z-0.0303
G1 X-1.3936 Z-0.0323
G1 X-1.3913 Z-0.0338
G1 X-1.3886 Z-0.0347
G1 X-1.3858 Z-0.035
G1 X-1.3733
G1 X0.8808
G1 X-0.2737 Y9.4727
G1 X-1.7084
G1 X-2.1319 Y8.7312
G1 Y8.3182
G1 X-1.3733
G1 X-1.3608
G1 X-1.3581 Z-0.0347
G1 X-1.3554 Z-0.0338
G1 X-1.353 Z-0.0323
G1 X-1.3511 Z-0.0303
G1 X-1.3496 Z-0.0279
G1 X-1.3487 Z-0.0253
G1 X-1.3483 Z-0.0225
G0 Z0.2625
G0 X-1.3983
G1 Z0.0206 F30.
G1 Z-0.0388
G1 X-1.398 Z-0.0415 F6.1
G1 X-1.3971 Z-0.0442
G1 X-1.3956 Z-0.0465
G1 X-1.3936 Z-0.0485
G1 X-1.3913 Z-0.05
G1 X-1.3886 Z-0.0509
G1 X-1.3858 Z-0.0512
G1 X-1.3733
G1 X0.8808
G1 X-0.2737 Y9.4727
G1 X-1.7084
G1 X-2.1319 Y8.7312
G1 Y8.3182
G1 X-1.3733
G1 X-1.3608
G1 X-1.3581 Z-0.0509
G1 X-1.3554 Z-0.05
G1 X-1.353 Z-0.0485
G1 X-1.3511 Z-0.0465
G1 X-1.3496 Z-0.0442
G1 X-1.3487 Z-0.0415
G1 X-1.3483 Z-0.0388
G0 Z0.2625
G0 X-1.3983
G1 Z0.0044 F30.
G1 Z-0.055
G1 X-1.398 Z-0.0578 F6.1
G1 X-1.3971 Z-0.0604
G1 X-1.3956 Z-0.0628
G1 X-1.3936 Z-0.0648
G1 X-1.3913 Z-0.0663
G1 X-1.3886 Z-0.0672
G1 X-1.3858 Z-0.0675
G1 X-1.3733
G1 X0.8808
G1 X-0.2737 Y9.4727
G1 X-1.7084
G1 X-2.1319 Y8.7312
G1 Y8.3182
G1 X-1.3733
G1 X-1.3608
G1 X-1.3581 Z-0.0672
G1 X-1.3554 Z-0.0663
G1 X-1.353 Z-0.0648
G1 X-1.3511 Z-0.0628
G1 X-1.3496 Z-0.0604
G1 X-1.3487 Z-0.0578
G1 X-1.3483 Z-0.055
G0 Z0.2625
G0 X-1.3983
G1 Z-0.0119 F30.
G1 Z-0.0713
G1 X-1.398 Z-0.074 F6.1
G1 X-1.3971 Z-0.0767
G1 X-1.3956 Z-0.079
G1 X-1.3936 Z-0.081
G1 X-1.3913 Z-0.0825
G1 X-1.3886 Z-0.0834
G1 X-1.3858 Z-0.0837
G1 X-1.3733
G1 X0.8808
G1 X-0.2737 Y9.4727
G1 X-1.7084
G1 X-2.1319 Y8.7312
G1 Y8.3182
G1 X-1.3733
G1 X-1.3608
G1 X-1.3581 Z-0.0834
G1 X-1.3554 Z-0.0825
G1 X-1.353 Z-0.081
G1 X-1.3511 Z-0.079
G1 X-1.3496 Z-0.0767
G1 X-1.3487 Z-0.074
G1 X-1.3483 Z-0.0713
G0 Z0.2625
G0 X-1.3983
G1 Z-0.0281 F30.
G1 Z-0.0813
G1 X-1.398 Z-0.084 F6.1
G1 X-1.3971 Z-0.0867
G1 X-1.3956 Z-0.089
G1 X-1.3936 Z-0.091
G1 X-1.3913 Z-0.0925
G1 X-1.3886 Z-0.0934
G1 X-1.3858 Z-0.0937
G1 X-1.3733
G1 X0.8808
G1 X-0.2737 Y9.4727
G1 X-1.7084
G1 X-2.1319 Y8.7312
G1 Y8.3182
G1 X-1.3733
G1 X-1.3608
G1 X-1.3581 Z-0.0934
G1 X-1.3554 Z-0.0925
G1 X-1.353 Z-0.091
G1 X-1.3511 Z-0.089
G1 X-1.3496 Z-0.0867
G1 X-1.3487 Z-0.084
G1 X-1.3483 Z-0.0813
G0 Z0.2625
G0 X1.7831 Y7.4159
G1 Z0.1181 F30.
G1 Z0.0587
G1 X1.7829 Y7.4161 Z0.056 F6.1
G1 X1.7822 Y7.4168 Z0.0533
G1 X1.7812 Y7.4178 Z0.051
G1 X1.7798 Y7.4192 Z0.049
G1 X1.7781 Y7.4209 Z0.0475
G1 X1.7763 Y7.4228 Z0.0466
G1 X1.7743 Y7.4247 Z0.0462
G1 X1.7654 Y7.4336
G1 X1.5964 Y7.6027
G1 X-2.1319
G1 Y6.4481
G1 X2.371
G1 Y6.828
G1 X1.7654 Y7.4336
G1 X1.7566 Y7.4424
G1 X1.7546 Y7.4444 Z0.0466
G1 X1.7528 Y7.4463 Z0.0475
G1 X1.7511 Y7.4479 Z0.049
G1 X1.7497 Y7.4493 Z0.051
G1 X1.7486 Y7.4504 Z0.0533
G1 X1.748 Y7.451 Z0.056
G1 X1.7478 Y7.4513 Z0.0587
G0 Z0.2625
G0 X1.7831 Y7.4159
G1 Z0.1019 F30.
G1 Z0.0425
G1 X1.7829 Y7.4161 Z0.0397 F6.1
G1 X1.7822 Y7.4168 Z0.0371
G1 X1.7812 Y7.4178 Z0.0347
G1 X1.7798 Y7.4192 Z0.0327
G1 X1.7781 Y7.4209 Z0.0312
G1 X1.7763 Y7.4228 Z0.0303
G1 X1.7743 Y7.4247 Z0.03
G1 X1.7654 Y7.4336
G1 X1.5964 Y7.6027
G1 X-2.1319
G1 Y6.4481
G1 X2.371
G1 Y6.828
G1 X1.7654 Y7.4336
G1 X1.7566 Y7.4424
G1 X1.7546 Y7.4444 Z0.0303
G1 X1.7528 Y7.4463 Z0.0312
G1 X1.7511 Y7.4479 Z0.0327
G1 X1.7497 Y7.4493 Z0.0347
G1 X1.7486 Y7.4504 Z0.0371
G1 X1.748 Y7.451 Z0.0397
G1 X1.7478 Y7.4513 Z0.0425
G0 Z0.2625
G0 X1.7831 Y7.4159
G1 Z0.0856 F30.
G1 Z0.0262
G1 X1.7829 Y7.4161 Z0.0235 F6.1
G1 X1.7822 Y7.4168 Z0.0208
G1 X1.7812 Y7.4178 Z0.0185
G1 X1.7798 Y7.4192 Z0.0165
G1 X1.7781 Y7.4209 Z0.015
G1 X1.7763 Y7.4228 Z0.0141
G1 X1.7743 Y7.4247 Z0.0137
G1 X1.7654 Y7.4336
G1 X1.5964 Y7.6027
G1 X-2.1319
G1 Y6.4481
G1 X2.371
G1 Y6.828
G1 X1.7654 Y7.4336
G1 X1.7566 Y7.4424
G1 X1.7546 Y7.4444 Z0.0141
G1 X1.7528 Y7.4463 Z0.015
G1 X1.7511 Y7.4479 Z0.0165
G1 X1.7497 Y7.4493 Z0.0185
G1 X1.7486 Y7.4504 Z0.0208
G1 X1.748 Y7.451 Z0.0235
G1 X1.7478 Y7.4513 Z0.0262
G0 Z0.2625
G0 X1.7831 Y7.4159
G1 Z0.0694 F30.
G1 Z0.01
G1 X1.7829 Y7.4161 Z0.0072 F6.1
G1 X1.7822 Y7.4168 Z0.0046
G1 X1.7812 Y7.4178 Z0.0022
G1 X1.7798 Y7.4192 Z0.0002
G1 X1.7781 Y7.4209 Z-0.0013
G1 X1.7763 Y7.4228 Z-0.0022
G1 X1.7743 Y7.4247 Z-0.0025
G1 X1.7654 Y7.4336
G1 X1.5964 Y7.6027
G1 X-2.1319
G1 Y6.4481
G1 X2.371
G1 Y6.828
G1 X1.7654 Y7.4336
G1 X1.7566 Y7.4424
G1 X1.7546 Y7.4444 Z-0.0022
G1 X1.7528 Y7.4463 Z-0.0013
G1 X1.7511 Y7.4479 Z0.0002
G1 X1.7497 Y7.4493 Z0.0022
G1 X1.7486 Y7.4504 Z0.0046
G1 X1.748 Y7.451 Z0.0072
G1 X1.7478 Y7.4513 Z0.01
G0 Z0.2625
G0 X1.7831 Y7.4159
G1 Z0.0531 F30.
G1 Z-0.0063
G1 X1.7829 Y7.4161 Z-0.009 F6.1
G1 X1.7822 Y7.4168 Z-0.0117
G1 X1.7812 Y7.4178 Z-0.014
G1 X1.7798 Y7.4192 Z-0.016
G1 X1.7781 Y7.4209 Z-0.0175
G1 X1.7763 Y7.4228 Z-0.0184
G1 X1.7743 Y7.4247 Z-0.0187
G1 X1.7654 Y7.4336
G1 X1.5964 Y7.6027
G1 X-2.1319
G1 Y6.4481
G1 X2.371
G1 Y6.828
G1 X1.7654 Y7.4336
G1 X1.7566 Y7.4424
G1 X1.7546 Y7.4444 Z-0.0184
G1 X1.7528 Y7.4463 Z-0.0175
G1 X1.7511 Y7.4479 Z-0.016
G1 X1.7497 Y7.4493 Z-0.014
G1 X1.7486 Y7.4504 Z-0.0117
G1 X1.748 Y7.451 Z-0.009
G1 X1.7478 Y7.4513 Z-0.0063
G0 Z0.2625
G0 X1.7831 Y7.4159
G1 Z0.0369 F30.
G1 Z-0.0225
G1 X1.7829 Y7.4161 Z-0.0253 F6.1
G1 X1.7822 Y7.4168 Z-0.0279
G1 X1.7812 Y7.4178 Z-0.0303
G1 X1.7798 Y7.4192 Z-0.0323
G1 X1.7781 Y7.4209 Z-0.0338
G1 X1.7763 Y7.4228 Z-0.0347
G1 X1.7743 Y7.4247 Z-0.035
G1 X1.7654 Y7.4336
G1 X1.5964 Y7.6027
G1 X-2.1319
G1 Y6.4481
G1 X2.371
G1 Y6.828
G1 X1.7654 Y7.4336
G1 X1.7566 Y7.4424
G1 X1.7546 Y7.4444 Z-0.0347
G1 X1.7528 Y7.4463 Z-0.0338
G1 X1.7511 Y7.4479 Z-0.0323
G1 X1.7497 Y7.4493 Z-0.0303
G1 X1.7486 Y7.4504 Z-0.0279
G1 X1.748 Y7.451 Z-0.0253
G1 X1.7478 Y7.4513 Z-0.0225
G0 Z0.2625
G0 X1.7831 Y7.4159
G1 Z0.0206 F30.
G1 Z-0.0388
G1 X1.7829 Y7.4161 Z-0.0415 F6.1
G1 X1.7822 Y7.4168 Z-0.0442
G1 X1.7812 Y7.4178 Z-0.0465
G1 X1.7798 Y7.4192 Z-0.0485
G1 X1.7781 Y7.4209 Z-0.05
G1 X1.7763 Y7.4228 Z-0.0509
G1 X1.7743 Y7.4247 Z-0.0512
G1 X1.7654 Y7.4336
G1 X1.5964 Y7.6027
G1 X-2.1319
G1 Y6.4481
G1 X2.371
G1 Y6.828
G1 X1.7654 Y7.4336
G1 X1.7566 Y7.4424
G1 X1.7546 Y7.4444 Z-0.0509
G1 X1.7528 Y7.4463 Z-0.05
G1 X1.7511 Y7.4479 Z-0.0485
G1 X1.7497 Y7.4493 Z-0.0465
G1 X1.7486 Y7.4504 Z-0.0442
G1 X1.748 Y7.451 Z-0.0415
G1 X1.7478 Y7.4513 Z-0.0388
G0 Z0.2625
G0 X1.7831 Y7.4159
G1 Z0.0044 F30.
G1 Z-0.055
G1 X1.7829 Y7.4161 Z-0.0578 F6.1
G1 X1.7822 Y7.4168 Z-0.0604
G1 X1.7812 Y7.4178 Z-0.0628
G1 X1.7798 Y7.4192 Z-0.0648
G1 X1.7781 Y7.4209 Z-0.0663
G1 X1.7763 Y7.4228 Z-0.0672
G1 X1.7743 Y7.4247 Z-0.0675
G1 X1.7654 Y7.4336
G1 X1.5964 Y7.6027
G1 X-2.1319
G1 Y6.4481
G1 X2.371
G1 Y6.828
G1 X1.7654 Y7.4336
G1 X1.7566 Y7.4424
G1 X1.7546 Y7.4444 Z-0.0672
G1 X1.7528 Y7.4463 Z-0.0663
G1 X1.7511 Y7.4479 Z-0.0648
G1 X1.7497 Y7.4493 Z-0.0628
G1 X1.7486 Y7.4504 Z-0.0604
G1 X1.748 Y7.451 Z-0.0578
G1 X1.7478 Y7.4513 Z-0.055
G0 Z0.2625
G0 X1.7831 Y7.4159
G1 Z-0.0119 F30.
G1 Z-0.0713
G1 X1.7829 Y7.4161 Z-0.074 F6.1
G1 X1.7822 Y7.4168 Z-0.0767
G1 X1.7812 Y7.4178 Z-0.079
G1 X1.7798 Y7.4192 Z-0.081
G1 X1.7781 Y7.4209 Z-0.0825
G1 X1.7763 Y7.4228 Z-0.0834
G1 X1.7743 Y7.4247 Z-0.0837
G1 X1.7654 Y7.4336
G1 X1.5964 Y7.6027
G1 X-2.1319
G1 Y6.4481
G1 X2.371
G1 Y6.828
G1 X1.7654 Y7.4336
G1 X1.7566 Y7.4424
G1 X1.7546 Y7.4444 Z-0.0834
G1 X1.7528 Y7.4463 Z-0.0825
G1 X1.7511 Y7.4479 Z-0.081
G1 X1.7497 Y7.4493 Z-0.079
G1 X1.7486 Y7.4504 Z-0.0767
G1 X1.748 Y7.451 Z-0.074
G1 X1.7478 Y7.4513 Z-0.0713
G0 Z0.2625
G0 X1.7831 Y7.4159
G1 Z-0.0281 F30.
G1 Z-0.0813
G1 X1.7829 Y7.4161 Z-0.084 F6.1
G1 X1.7822 Y7.4168 Z-0.0867
G1 X1.7812 Y7.4178 Z-0.089
G1 X1.7798 Y7.4192 Z-0.091
G1 X1.7781 Y7.4209 Z-0.0925
G1 X1.7763 Y7.4228 Z-0.0934
G1 X1.7743 Y7.4247 Z-0.0937
G1 X1.7654 Y7.4336
G1 X1.5964 Y7.6027
G1 X-2.1319
G1 Y6.4481
G1 X2.371
G1 Y6.828
G1 X1.7654 Y7.4336
G1 X1.7566 Y7.4424
G1 X1.7546 Y7.4444 Z-0.0934
G1 X1.7528 Y7.4463 Z-0.0925
G1 X1.7511 Y7.4479 Z-0.091
G1 X1.7497 Y7.4493 Z-0.089
G1 X1.7486 Y7.4504 Z-0.0867
G1 X1.748 Y7.451 Z-0.084
G1 X1.7478 Y7.4513 Z-0.0813
G0 Z0.2625
G0 X2.371 Y8.9695
G1 Z0.1181 F30.
G1 Z0.0587
G1 Y8.9698 Z0.056 F6.1
G1 Y8.9707 Z0.0533
G1 Y8.9722 Z0.051
G1 Y8.9742 Z0.049
G1 Y8.9766 Z0.0475
G1 Y8.9792 Z0.0466
G1 Y8.982 Z0.0462
G1 Y8.9945
G1 Y9.4727
G1 X0.7382
G1 X2.371 Y7.8399
G1 Y8.9945
G1 Y9.007
G1 Y9.0098 Z0.0466
G1 Y9.0124 Z0.0475
G1 Y9.0148 Z0.049
G1 Y9.0168 Z0.051
G1 Y9.0183 Z0.0533
G1 Y9.0192 Z0.056
G1 Y9.0195 Z0.0587
G0 Z0.2625
G0 Y8.9695
G1 Z0.1019 F30.
G1 Z0.0425
G1 Y8.9698 Z0.0397 F6.1
G1 Y8.9707 Z0.0371
G1 Y8.9722 Z0.0347
G1 Y8.9742 Z0.0327
G1 Y8.9766 Z0.0312
G1 Y8.9792 Z0.0303
G1 Y8.982 Z0.03
G1 Y8.9945
G1 Y9.4727
G1 X0.7382
G1 X2.371 Y7.8399
G1 Y8.9945
G1 Y9.007
G1 Y9.0098 Z0.0303
G1 Y9.0124 Z0.0312
G1 Y9.0148 Z0.0327
G1 Y9.0168 Z0.0347
G1 Y9.0183 Z0.0371
G1 Y9.0192 Z0.0397
G1 Y9.0195 Z0.0425
G0 Z0.2625
G0 Y8.9695
G1 Z0.0856 F30.
G1 Z0.0262
G1 Y8.9698 Z0.0235 F6.1
G1 Y8.9707 Z0.0208
G1 Y8.9722 Z0.0185
G1 Y8.9742 Z0.0165
G1 Y8.9766 Z0.015
G1 Y8.9792 Z0.0141
G1 Y8.982 Z0.0137
G1 Y8.9945
G1 Y9.4727
G1 X0.7382
G1 X2.371 Y7.8399
G1 Y8.9945
G1 Y9.007
G1 Y9.0098 Z0.0141
G1 Y9.0124 Z0.015
G1 Y9.0148 Z0.0165
G1 Y9.0168 Z0.0185
G1 Y9.0183 Z0.0208
G1 Y9.0192 Z0.0235
G1 Y9.0195 Z0.0262
G0 Z0.2625
G0 Y8.9695
G1 Z0.0694 F30.
G1 Z0.01
G1 Y8.9698 Z0.0072 F6.1
G1 Y8.9707 Z0.0046
G1 Y8.9722 Z0.0022
G1 Y8.9742 Z0.0002
G1 Y8.9766 Z-0.0013
G1 Y8.9792 Z-0.0022
G1 Y8.982 Z-0.0025
G1 Y8.9945
G1 Y9.4727
G1 X0.7382
G1 X2.371 Y7.8399
G1 Y8.9945
G1 Y9.007
G1 Y9.0098 Z-0.0022
G1 Y9.0124 Z-0.0013
G1 Y9.0148 Z0.0002
G1 Y9.0168 Z0.0022
G1 Y9.0183 Z0.0046
G1 Y9.0192 Z0.0072
G1 Y9.0195 Z0.01
G0 Z0.2625
G0 Y8.9695
G1 Z0.0531 F30.
G1 Z-0.0063
G1 Y8.9698 Z-0.009 F6.1
G1 Y8.9707 Z-0.0117
G1 Y8.9722 Z-0.014
G1 Y8.9742 Z-0.016
G1 Y8.9766 Z-0.0175
G1 Y8.9792 Z-0.0184
G1 Y8.982 Z-0.0187
G1 Y8.9945
G1 Y9.4727
G1 X0.7382
G1 X2.371 Y7.8399
G1 Y8.9945
G1 Y9.007
G1 Y9.0098 Z-0.0184
G1 Y9.0124 Z-0.0175
G1 Y9.0148 Z-0.016
G1 Y9.0168 Z-0.014
G1 Y9.0183 Z-0.0117
G1 Y9.0192 Z-0.009
G1 Y9.0195 Z-0.0063
G0 Z0.2625
G0 Y8.9695
G1 Z0.0369 F30.
G1 Z-0.0225
G1 Y8.9698 Z-0.0253 F6.1
G1 Y8.9707 Z-0.0279
G1 Y8.9722 Z-0.0303
G1 Y8.9742 Z-0.0323
G1 Y8.9766 Z-0.0338
G1 Y8.9792 Z-0.0347
G1 Y8.982 Z-0.035
G1 Y8.9945
G1 Y9.4727
G1 X0.7382
G1 X2.371 Y7.8399
G1 Y8.9945
G1 Y9.007
G1 Y9.0098 Z-0.0347
G1 Y9.0124 Z-0.0338
G1 Y9.0148 Z-0.0323
G1 Y9.0168 Z-0.0303
G1 Y9.0183 Z-0.0279
G1 Y9.0192 Z-0.0253
G1 Y9.0195 Z-0.0225
G0 Z0.2625
G0 Y8.9695
G1 Z0.0206 F30.
G1 Z-0.0388
G1 Y8.9698 Z-0.0415 F6.1
G1 Y8.9707 Z-0.0442
G1 Y8.9722 Z-0.0465
G1 Y8.9742 Z-0.0485
G1 Y8.9766 Z-0.05
G1 Y8.9792 Z-0.0509
G1 Y8.982 Z-0.0512
G1 Y8.9945
G1 Y9.4727
G1 X0.7382
G1 X2.371 Y7.8399
G1 Y8.9945
G1 Y9.007
G1 Y9.0098 Z-0.0509
G1 Y9.0124 Z-0.05
G1 Y9.0148 Z-0.0485
G1 Y9.0168 Z-0.0465
G1 Y9.0183 Z-0.0442
G1 Y9.0192 Z-0.0415
G1 Y9.0195 Z-0.0388
G0 Z0.2625
G0 Y8.9695
G1 Z0.0044 F30.
G1 Z-0.055
G1 Y8.9698 Z-0.0578 F6.1
G1 Y8.9707 Z-0.0604
G1 Y8.9722 Z-0.0628
G1 Y8.9742 Z-0.0648
G1 Y8.9766 Z-0.0663
G1 Y8.9792 Z-0.0672
G1 Y8.982 Z-0.0675
G1 Y8.9945
G1 Y9.4727
G1 X0.7382
G1 X2.371 Y7.8399
G1 Y8.9945
G1 Y9.007
G1 Y9.0098 Z-0.0672
G1 Y9.0124 Z-0.0663
G1 Y9.0148 Z-0.0648
G1 Y9.0168 Z-0.0628
G1 Y9.0183 Z-0.0604
G1 Y9.0192 Z-0.0578
G1 Y9.0195 Z-0.055
G0 Z0.2625
G0 Y8.9695
G1 Z-0.0119 F30.
G1 Z-0.0713
G1 Y8.9698 Z-0.074 F6.1
G1 Y8.9707 Z-0.0767
G1 Y8.9722 Z-0.079
G1 Y8.9742 Z-0.081
G1 Y8.9766 Z-0.0825
G1 Y8.9792 Z-0.0834
G1 Y8.982 Z-0.0837
G1 Y8.9945
G1 Y9.4727
G1 X0.7382
G1 X2.371 Y7.8399
G1 Y8.9945
G1 Y9.007
G1 Y9.0098 Z-0.0834
G1 Y9.0124 Z-0.0825
G1 Y9.0148 Z-0.081
G1 Y9.0168 Z-0.079
G1 Y9.0183 Z-0.0767
G1 Y9.0192 Z-0.074
G1 Y9.0195 Z-0.0713
G0 Z0.2625
G0 Y8.9695
G1 Z-0.0281 F30.
G1 Z-0.0813
G1 Y8.9698 Z-0.084 F6.1
G1 Y8.9707 Z-0.0867
G1 Y8.9722 Z-0.089
G1 Y8.9742 Z-0.091
G1 Y8.9766 Z-0.0925
G1 Y8.9792 Z-0.0934
G1 Y8.982 Z-0.0937
G1 Y8.9945
G1 Y9.4727
G1 X0.7382
G1 X2.371 Y7.8399
G1 Y8.9945
G1 Y9.007
G1 Y9.0098 Z-0.0934
G1 Y9.0124 Z-0.0925
G1 Y9.0148 Z-0.091
G1 Y9.0168 Z-0.089
G1 Y9.0183 Z-0.0867
G1 Y9.0192 Z-0.084
G1 Y9.0195 Z-0.0813
G0 Z0.2625
G0 X3.8853 Y8.6387
G1 Z0.1181 F30.
G1 Z0.0587
G1 X3.8855 Y8.6389 Z0.056 F6.1
G1 X3.8862 Y8.6395 Z0.0533
G1 X3.8873 Y8.6406 Z0.051
G1 X3.8887 Y8.642 Z0.049
G1 X3.8903 Y8.6437 Z0.0475
G1 X3.8922 Y8.6455 Z0.0466
G1 X3.8942 Y8.6475 Z0.0462
G1 X3.903 Y8.6563
G1 X4.7194 Y9.4727
G1 X3.0866
G1 Y7.8399
G1 X3.903 Y8.6563
G1 X3.9118 Y8.6652
G1 X3.9138 Y8.6671 Z0.0466
G1 X3.9157 Y8.669 Z0.0475
G1 X3.9174 Y8.6707 Z0.049
G1 X3.9188 Y8.6721 Z0.051
G1 X3.9198 Y8.6731 Z0.0533
G1 X3.9205 Y8.6738 Z0.056
G1 X3.9207 Y8.674 Z0.0587
G0 Z0.2625
G0 X3.8853 Y8.6387
G1 Z0.1019 F30.
G1 Z0.0425
G1 X3.8855 Y8.6389 Z0.0397 F6.1
G1 X3.8862 Y8.6395 Z0.0371
G1 X3.8873 Y8.6406 Z0.0347
G1 X3.8887 Y8.642 Z0.0327
G1 X3.8903 Y8.6437 Z0.0312
G1 X3.8922 Y8.6455 Z0.0303
G1 X3.8942 Y8.6475 Z0.03
G1 X3.903 Y8.6563
G1 X4.7194 Y9.4727
G1 X3.0866
G1 Y7.8399
G1 X3.903 Y8.6563
G1 X3.9118 Y8.6652
G1 X3.9138 Y8.6671 Z0.0303
G1 X3.9157 Y8.669 Z0.0312
G1 X3.9174 Y8.6707 Z0.0327
G1 X3.9188 Y8.6721 Z0.0347
G1 X3.9198 Y8.6731 Z0.0371
G1 X3.9205 Y8.6738 Z0.0397
G1 X3.9207 Y8.674 Z0.0425
G0 Z0.2625
G0 X3.8853 Y8.6387
G1 Z0.0856 F30.
G1 Z0.0262
G1 X3.8855 Y8.6389 Z0.0235 F6.1
G1 X3.8862 Y8.6395 Z0.0208
G1 X3.8873 Y8.6406 Z0.0185
G1 X3.8887 Y8.642 Z0.0165
G1 X3.8903 Y8.6437 Z0.015
G1 X3.8922 Y8.6455 Z0.0141
G1 X3.8942 Y8.6475 Z0.0137
G1 X3.903 Y8.6563
G1 X4.7194 Y9.4727
G1 X3.0866
G1 Y7.8399
G1 X3.903 Y8.6563
G1 X3.9118 Y8.6652
G1 X3.9138 Y8.6671 Z0.0141
G1 X3.9157 Y8.669 Z0.015
G1 X3.9174 Y8.6707 Z0.0165
G1 X3.9188 Y8.6721 Z0.0185
G1 X3.9198 Y8.6731 Z0.0208
G1 X3.9205 Y8.6738 Z0.0235
G1 X3.9207 Y8.674 Z0.0262
G0 Z0.2625
G0 X3.8853 Y8.6387
G1 Z0.0694 F30.
G1 Z0.01
G1 X3.8855 Y8.6389 Z0.0072 F6.1
G1 X3.8862 Y8.6395 Z0.0046
G1 X3.8873 Y8.6406 Z0.0022
G1 X3.8887 Y8.642 Z0.0002
G1 X3.8903 Y8.6437 Z-0.0013
G1 X3.8922 Y8.6455 Z-0.0022
G1 X3.8942 Y8.6475 Z-0.0025
G1 X3.903 Y8.6563
G1 X4.7194 Y9.4727
G1 X3.0866
G1 Y7.8399
G1 X3.903 Y8.6563
G1 X3.9118 Y8.6652
G1 X3.9138 Y8.6671 Z-0.0022
G1 X3.9157 Y8.669 Z-0.0013
G1 X3.9174 Y8.6707 Z0.0002
G1 X3.9188 Y8.6721 Z0.0022
G1 X3.9198 Y8.6731 Z0.0046
G1 X3.9205 Y8.6738 Z0.0072
G1 X3.9207 Y8.674 Z0.01
G0 Z0.2625
G0 X3.8853 Y8.6387
G1 Z0.0531 F30.
G1 Z-0.0063
G1 X3.8855 Y8.6389 Z-0.009 F6.1
G1 X3.8862 Y8.6395 Z-0.0117
G1 X3.8873 Y8.6406 Z-0.014
G1 X3.8887 Y8.642 Z-0.016
G1 X3.8903 Y8.6437 Z-0.0175
G1 X3.8922 Y8.6455 Z-0.0184
G1 X3.8942 Y8.6475 Z-0.0187
G1 X3.903 Y8.6563
G1 X4.7194 Y9.4727
G1 X3.0866
G1 Y7.8399
G1 X3.903 Y8.6563
G1 X3.9118 Y8.6652
G1 X3.9138 Y8.6671 Z-0.0184
G1 X3.9157 Y8.669 Z-0.0175
G1 X3.9174 Y8.6707 Z-0.016
G1 X3.9188 Y8.6721 Z-0.014
G1 X3.9198 Y8.6731 Z-0.0117
G1 X3.9205 Y8.6738 Z-0.009
G1 X3.9207 Y8.674 Z-0.0063
G0 Z0.2625
G0 X3.8853 Y8.6387
G1 Z0.0369 F30.
G1 Z-0.0225
G1 X3.8855 Y8.6389 Z-0.0253 F6.1
G1 X3.8862 Y8.6395 Z-0.0279
G1 X3.8873 Y8.6406 Z-0.0303
G1 X3.8887 Y8.642 Z-0.0323
G1 X3.8903 Y8.6437 Z-0.0338
G1 X3.8922 Y8.6455 Z-0.0347
G1 X3.8942 Y8.6475 Z-0.035
G1 X3.903 Y8.6563
G1 X4.7194 Y9.4727
G1 X3.0866
G1 Y7.8399
G1 X3.903 Y8.6563
G1 X3.9118 Y8.6652
G1 X3.9138 Y8.6671 Z-0.0347
G1 X3.9157 Y8.669 Z-0.0338
G1 X3.9174 Y8.6707 Z-0.0323
G1 X3.9188 Y8.6721 Z-0.0303
G1 X3.9198 Y8.6731 Z-0.0279
G1 X3.9205 Y8.6738 Z-0.0253
G1 X3.9207 Y8.674 Z-0.0225
G0 Z0.2625
G0 X3.8853 Y8.6387
G1 Z0.0206 F30.
G1 Z-0.0388
G1 X3.8855 Y8.6389 Z-0.0415 F6.1
G1 X3.8862 Y8.6395 Z-0.0442
G1 X3.8873 Y8.6406 Z-0.0465
G1 X3.8887 Y8.642 Z-0.0485
G1 X3.8903 Y8.6437 Z-0.05
G1 X3.8922 Y8.6455 Z-0.0509
G1 X3.8942 Y8.6475 Z-0.0512
G1 X3.903 Y8.6563
G1 X4.7194 Y9.4727
G1 X3.0866
G1 Y7.8399
G1 X3.903 Y8.6563
G1 X3.9118 Y8.6652
G1 X3.9138 Y8.6671 Z-0.0509
G1 X3.9157 Y8.669 Z-0.05
G1 X3.9174 Y8.6707 Z-0.0485
G1 X3.9188 Y8.6721 Z-0.0465
G1 X3.9198 Y8.6731 Z-0.0442
G1 X3.9205 Y8.6738 Z-0.0415
G1 X3.9207 Y8.674 Z-0.0388
G0 Z0.2625
G0 X3.8853 Y8.6387
G1 Z0.0044 F30.
G1 Z-0.055
G1 X3.8855 Y8.6389 Z-0.0578 F6.1
G1 X3.8862 Y8.6395 Z-0.0604
G1 X3.8873 Y8.6406 Z-0.0628
G1 X3.8887 Y8.642 Z-0.0648
G1 X3.8903 Y8.6437 Z-0.0663
G1 X3.8922 Y8.6455 Z-0.0672
G1 X3.8942 Y8.6475 Z-0.0675
G1 X3.903 Y8.6563
G1 X4.7194 Y9.4727
G1 X3.0866
G1 Y7.8399
G1 X3.903 Y8.6563
G1 X3.9118 Y8.6652
G1 X3.9138 Y8.6671 Z-0.0672
G1 X3.9157 Y8.669 Z-0.0663
G1 X3.9174 Y8.6707 Z-0.0648
G1 X3.9188 Y8.6721 Z-0.0628
G1 X3.9198 Y8.6731 Z-0.0604
G1 X3.9205 Y8.6738 Z-0.0578
G1 X3.9207 Y8.674 Z-0.055
G0 Z0.2625
G0 X3.8853 Y8.6387
G1 Z-0.0119 F30.
G1 Z-0.0713
G1 X3.8855 Y8.6389 Z-0.074 F6.1
G1 X3.8862 Y8.6395 Z-0.0767
G1 X3.8873 Y8.6406 Z-0.079
G1 X3.8887 Y8.642 Z-0.081
G1 X3.8903 Y8.6437 Z-0.0825
G1 X3.8922 Y8.6455 Z-0.0834
G1 X3.8942 Y8.6475 Z-0.0837
G1 X3.903 Y8.6563
G1 X4.7194 Y9.4727
G1 X3.0866
G1 Y7.8399
G1 X3.903 Y8.6563
G1 X3.9118 Y8.6652
G1 X3.9138 Y8.6671 Z-0.0834
G1 X3.9157 Y8.669 Z-0.0825
G1 X3.9174 Y8.6707 Z-0.081
G1 X3.9188 Y8.6721 Z-0.079
G1 X3.9198 Y8.6731 Z-0.0767
G1 X3.9205 Y8.6738 Z-0.074
G1 X3.9207 Y8.674 Z-0.0713
G0 Z0.2625
G0 X3.8853 Y8.6387
G1 Z-0.0281 F30.
G1 Z-0.0813
G1 X3.8855 Y8.6389 Z-0.084 F6.1
G1 X3.8862 Y8.6395 Z-0.0867
G1 X3.8873 Y8.6406 Z-0.089
G1 X3.8887 Y8.642 Z-0.091
G1 X3.8903 Y8.6437 Z-0.0925
G1 X3.8922 Y8.6455 Z-0.0934
G1 X3.8942 Y8.6475 Z-0.0937
G1 X3.903 Y8.6563
G1 X4.7194 Y9.4727
G1 X3.0866
G1 Y7.8399
G1 X3.903 Y8.6563
G1 X3.9118 Y8.6652
G1 X3.9138 Y8.6671 Z-0.0934
G1 X3.9157 Y8.669 Z-0.0925
G1 X3.9174 Y8.6707 Z-0.091
G1 X3.9188 Y8.6721 Z-0.089
G1 X3.9198 Y8.6731 Z-0.0867
G1 X3.9205 Y8.6738 Z-0.084
G1 X3.9207 Y8.674 Z-0.0813
G0 Z0.2625
G0 X5.9454 Y8.3182
G1 Z0.1181 F30.
G1 Z0.0587
G1 X5.9457 Z0.056 F6.1
G1 X5.9467 Z0.0533
G1 X5.9482 Z0.051
G1 X5.9501 Z0.049
G1 X5.9525 Z0.0475
G1 X5.9552 Z0.0466
G1 X5.9579 Z0.0462
G1 X5.9704
G1 X7.0234
G1 X7.7981 Y9.0929
G1 Y9.4727
G1 X5.7313
G1 X4.5768 Y8.3182
G1 X5.9704
G1 X5.9829
G1 X5.9857 Z0.0466
G1 X5.9884 Z0.0475
G1 X5.9907 Z0.049
G1 X5.9927 Z0.051
G1 X5.9942 Z0.0533
G1 X5.9951 Z0.056
G1 X5.9954 Z0.0587
G0 Z0.2625
G0 X5.9454
G1 Z0.1019 F30.
G1 Z0.0425
G1 X5.9457 Z0.0397 F6.1
G1 X5.9467 Z0.0371
G1 X5.9482 Z0.0347
G1 X5.9501 Z0.0327
G1 X5.9525 Z0.0312
G1 X5.9552 Z0.0303
G1 X5.9579 Z0.03
G1 X5.9704
G1 X7.0234
G1 X7.7981 Y9.0929
G1 Y9.4727
G1 X5.7313
G1 X4.5768 Y8.3182
G1 X5.9704
G1 X5.9829
G1 X5.9857 Z0.0303
G1 X5.9884 Z0.0312
G1 X5.9907 Z0.0327
G1 X5.9927 Z0.0347
G1 X5.9942 Z0.0371
G1 X5.9951 Z0.0397
G1 X5.9954 Z0.0425
G0 Z0.2625
G0 X5.9454
G1 Z0.0856 F30.
G1 Z0.0262
G1 X5.9457 Z0.0235 F6.1
G1 X5.9467 Z0.0208
G1 X5.9482 Z0.0185
G1 X5.9501 Z0.0165
G1 X5.9525 Z0.015
G1 X5.9552 Z0.0141
G1 X5.9579 Z0.0137
G1 X5.9704
G1 X7.0234
G1 X7.7981 Y9.0929
G1 Y9.4727
G1 X5.7313
G1 X4.5768 Y8.3182
G1 X5.9704
G1 X5.9829
G1 X5.9857 Z0.0141
G1 X5.9884 Z0.015
G1 X5.9907 Z0.0165
G1 X5.9927 Z0.0185
G1 X5.9942 Z0.0208
G1 X5.9951 Z0.0235
G1 X5.9954 Z0.0262
G0 Z0.2625
G0 X5.9454
G1 Z0.0694 F30.
G1 Z0.01
G1 X5.9457 Z0.0072 F6.1
G1 X5.9467 Z0.0046
G1 X5.9482 Z0.0022
G1 X5.9501 Z0.0002
G1 X5.9525 Z-0.0013
G1 X5.9552 Z-0.0022
G1 X5.9579 Z-0.0025
G1 X5.9704
G1 X7.0234
G1 X7.7981 Y9.0929
G1 Y9.4727
G1 X5.7313
G1 X4.5768 Y8.3182
G1 X5.9704
G1 X5.9829
G1 X5.9857 Z-0.0022
G1 X5.9884 Z-0.0013
G1 X5.9907 Z0.0002
G1 X5.9927 Z0.0022
G1 X5.9942 Z0.0046
G1 X5.9951 Z0.0072
G1 X5.9954 Z0.01
G0 Z0.2625
G0 X5.9454
G1 Z0.0531 F30.
G1 Z-0.0063
G1 X5.9457 Z-0.009 F6.1
G1 X5.9467 Z-0.0117
G1 X5.9482 Z-0.014
G1 X5.9501 Z-0.016
G1 X5.9525 Z-0.0175
G1 X5.9552 Z-0.0184
G1 X5.9579 Z-0.0187
G1 X5.9704
G1 X7.0234
G1 X7.7981 Y9.0929
G1 Y9.4727
G1 X5.7313
G1 X4.5768 Y8.3182
G1 X5.9704
G1 X5.9829
G1 X5.9857 Z-0.0184
G1 X5.9884 Z-0.0175
G1 X5.9907 Z-0.016
G1 X5.9927 Z-0.014
G1 X5.9942 Z-0.0117
G1 X5.9951 Z-0.009
G1 X5.9954 Z-0.0063
G0 Z0.2625
G0 X5.9454
G1 Z0.0369 F30.
G1 Z-0.0225
G1 X5.9457 Z-0.0253 F6.1
G1 X5.9467 Z-0.0279
G1 X5.9482 Z-0.0303
G1 X5.9501 Z-0.0323
G1 X5.9525 Z-0.0338
G1 X5.9552 Z-0.0347
G1 X5.9579 Z-0.035
G1 X5.9704
G1 X7.0234
G1 X7.7981 Y9.0929
G1 Y9.4727
G1 X5.7313
G1 X4.5768 Y8.3182
G1 X5.9704
G1 X5.9829
G1 X5.9857 Z-0.0347
G1 X5.9884 Z-0.0338
G1 X5.9907 Z-0.0323
G1 X5.9927 Z-0.0303
G1 X5.9942 Z-0.0279
G1 X5.9951 Z-0.0253
G1 X5.9954 Z-0.0225
G0 Z0.2625
G0 X5.9454
G1 Z0.0206 F30.
G1 Z-0.0388
G1 X5.9457 Z-0.0415 F6.1
G1 X5.9467 Z-0.0442
G1 X5.9482 Z-0.0465
G1 X5.9501 Z-0.0485
G1 X5.9525 Z-0.05
G1 X5.9552 Z-0.0509
G1 X5.9579 Z-0.0512
G1 X5.9704
G1 X7.0234
G1 X7.7981 Y9.0929
G1 Y9.4727
G1 X5.7313
G1 X4.5768 Y8.3182
G1 X5.9704
G1 X5.9829
G1 X5.9857 Z-0.0509
G1 X5.9884 Z-0.05
G1 X5.9907 Z-0.0485
G1 X5.9927 Z-0.0465
G1 X5.9942 Z-0.0442
G1 X5.9951 Z-0.0415
G1 X5.9954 Z-0.0388
G0 Z0.2625
G0 X5.9454
G1 Z0.0044 F30.
G1 Z-0.055
G1 X5.9457 Z-0.0578 F6.1
G1 X5.9467 Z-0.0604
G1 X5.9482 Z-0.0628
G1 X5.9501 Z-0.0648
G1 X5.9525 Z-0.0663
G1 X5.9552 Z-0.0672
G1 X5.9579 Z-0.0675
G1 X5.9704
G1 X7.0234
G1 X7.7981 Y9.0929
G1 Y9.4727
G1 X5.7313
G1 X4.5768 Y8.3182
G1 X5.9704
G1 X5.9829
G1 X5.9857 Z-0.0672
G1 X5.9884 Z-0.0663
G1 X5.9907 Z-0.0648
G1 X5.9927 Z-0.0628
G1 X5.9942 Z-0.0604
G1 X5.9951 Z-0.0578
G1 X5.9954 Z-0.055
G0 Z0.2625
G0 X5.9454
G1 Z-0.0119 F30.
G1 Z-0.0713
G1 X5.9457 Z-0.074 F6.1
G1 X5.9467 Z-0.0767
G1 X5.9482 Z-0.079
G1 X5.9501 Z-0.081
G1 X5.9525 Z-0.0825
G1 X5.9552 Z-0.0834
G1 X5.9579 Z-0.0837
G1 X5.9704
G1 X7.0234
G1 X7.7981 Y9.0929
G1 Y9.4727
G1 X5.7313
G1 X4.5768 Y8.3182
G1 X5.9704
G1 X5.9829
G1 X5.9857 Z-0.0834
G1 X5.9884 Z-0.0825
G1 X5.9907 Z-0.081
G1 X5.9927 Z-0.079
G1 X5.9942 Z-0.0767
G1 X5.9951 Z-0.074
G1 X5.9954 Z-0.0713
G0 Z0.2625
G0 X5.9454
G1 Z-0.0281 F30.
G1 Z-0.0813
G1 X5.9457 Z-0.084 F6.1
G1 X5.9467 Z-0.0867
G1 X5.9482 Z-0.089
G1 X5.9501 Z-0.091
G1 X5.9525 Z-0.0925
G1 X5.9552 Z-0.0934
G1 X5.9579 Z-0.0937
G1 X5.9704
G1 X7.0234
G1 X7.7981 Y9.0929
G1 Y9.4727
G1 X5.7313
G1 X4.5768 Y8.3182
G1 X5.9704
G1 X5.9829
G1 X5.9857 Z-0.0934
G1 X5.9884 Z-0.0925
G1 X5.9907 Z-0.091
G1 X5.9927 Z-0.089
G1 X5.9942 Z-0.0867
G1 X5.9951 Z-0.084
G1 X5.9954 Z-0.0813
G0 Z0.2625
G0 X4.1254 Y7.6027
G1 Z0.1181 F30.
G1 Z0.0587
G1 X4.1251 Z0.056 F6.1
G1 X4.1241 Z0.0533
G1 X4.1226 Z0.051
G1 X4.1207 Z0.049
G1 X4.1183 Z0.0475
G1 X4.1157 Z0.0466
G1 X4.1129 Z0.0462
G1 X4.1004
G1 X3.8613
G1 X3.0866 Y6.828
G1 Y6.4481
G1 X5.1534
G1 X6.3079 Y7.6027
G1 X4.1004
G1 X4.0879
G1 X4.0851 Z0.0466
G1 X4.0825 Z0.0475
G1 X4.0801 Z0.049
G1 X4.0781 Z0.051
G1 X4.0766 Z0.0533
G1 X4.0757 Z0.056
G1 X4.0754 Z0.0587
G0 Z0.2625
G0 X4.1254
G1 Z0.1019 F30.
G1 Z0.0425
G1 X4.1251 Z0.0397 F6.1
G1 X4.1241 Z0.0371
G1 X4.1226 Z0.0347
G1 X4.1207 Z0.0327
G1 X4.1183 Z0.0312
G1 X4.1157 Z0.0303
G1 X4.1129 Z0.03
G1 X4.1004
G1 X3.8613
G1 X3.0866 Y6.828
G1 Y6.4481
G1 X5.1534
G1 X6.3079 Y7.6027
G1 X4.1004
G1 X4.0879
G1 X4.0851 Z0.0303
G1 X4.0825 Z0.0312
G1 X4.0801 Z0.0327
G1 X4.0781 Z0.0347
G1 X4.0766 Z0.0371
G1 X4.0757 Z0.0397
G1 X4.0754 Z0.0425
G0 Z0.2625
G0 X4.1254
G1 Z0.0856 F30.
G1 Z0.0262
G1 X4.1251 Z0.0235 F6.1
G1 X4.1241 Z0.0208
G1 X4.1226 Z0.0185
G1 X4.1207 Z0.0165
G1 X4.1183 Z0.015
G1 X4.1157 Z0.0141
G1 X4.1129 Z0.0137
G1 X4.1004
G1 X3.8613
G1 X3.0866 Y6.828
G1 Y6.4481
G1 X5.1534
G1 X6.3079 Y7.6027
G1 X4.1004
G1 X4.0879
G1 X4.0851 Z0.0141
G1 X4.0825 Z0.015
G1 X4.0801 Z0.0165
G1 X4.0781 Z0.0185
G1 X4.0766 Z0.0208
G1 X4.0757 Z0.0235
G1 X4.0754 Z0.0262
G0 Z0.2625
G0 X4.1254
G1 Z0.0694 F30.
G1 Z0.01
G1 X4.1251 Z0.0072 F6.1
G1 X4.1241 Z0.0046
G1 X4.1226 Z0.0022
G1 X4.1207 Z0.0002
G1 X4.1183 Z-0.0013
G1 X4.1157 Z-0.0022
G1 X4.1129 Z-0.0025
G1 X4.1004
G1 X3.8613
G1 X3.0866 Y6.828
G1 Y6.4481
G1 X5.1534
G1 X6.3079 Y7.6027
G1 X4.1004
G1 X4.0879
G1 X4.0851 Z-0.0022
G1 X4.0825 Z-0.0013
G1 X4.0801 Z0.0002
G1 X4.0781 Z0.0022
G1 X4.0766 Z0.0046
G1 X4.0757 Z0.0072
G1 X4.0754 Z0.01
G0 Z0.2625
G0 X4.1254
G1 Z0.0531 F30.
G1 Z-0.0063
G1 X4.1251 Z-0.009 F6.1
G1 X4.1241 Z-0.0117
G1 X4.1226 Z-0.014
G1 X4.1207 Z-0.016
G1 X4.1183 Z-0.0175
G1 X4.1157 Z-0.0184
G1 X4.1129 Z-0.0187
G1 X4.1004
G1 X3.8613
G1 X3.0866 Y6.828
G1 Y6.4481
G1 X5.1534
G1 X6.3079 Y7.6027
G1 X4.1004
G1 X4.0879
G1 X4.0851 Z-0.0184
G1 X4.0825 Z-0.0175
G1 X4.0801 Z-0.016
G1 X4.0781 Z-0.014
G1 X4.0766 Z-0.0117
G1 X4.0757 Z-0.009
G1 X4.0754 Z-0.0063
G0 Z0.2625
G0 X4.1254
G1 Z0.0369 F30.
G1 Z-0.0225
G1 X4.1251 Z-0.0253 F6.1
G1 X4.1241 Z-0.0279
G1 X4.1226 Z-0.0303
G1 X4.1207 Z-0.0323
G1 X4.1183 Z-0.0338
G1 X4.1157 Z-0.0347
G1 X4.1129 Z-0.035
G1 X4.1004
G1 X3.8613
G1 X3.0866 Y6.828
G1 Y6.4481
G1 X5.1534
G1 X6.3079 Y7.6027
G1 X4.1004
G1 X4.0879
G1 X4.0851 Z-0.0347
G1 X4.0825 Z-0.0338
G1 X4.0801 Z-0.0323
G1 X4.0781 Z-0.0303
G1 X4.0766 Z-0.0279
G1 X4.0757 Z-0.0253
G1 X4.0754 Z-0.0225
G0 Z0.2625
G0 X4.1254
G1 Z0.0206 F30.
G1 Z-0.0388
G1 X4.1251 Z-0.0415 F6.1
G1 X4.1241 Z-0.0442
G1 X4.1226 Z-0.0465
G1 X4.1207 Z-0.0485
G1 X4.1183 Z-0.05
G1 X4.1157 Z-0.0509
G1 X4.1129 Z-0.0512
G1 X4.1004
G1 X3.8613
G1 X3.0866 Y6.828
G1 Y6.4481
G1 X5.1534
G1 X6.3079 Y7.6027
G1 X4.1004
G1 X4.0879
G1 X4.0851 Z-0.0509
G1 X4.0825 Z-0.05
G1 X4.0801 Z-0.0485
G1 X4.0781 Z-0.0465
G1 X4.0766 Z-0.0442
G1 X4.0757 Z-0.0415
G1 X4.0754 Z-0.0388
G0 Z0.2625
G0 X4.1254
G1 Z0.0044 F30.
G1 Z-0.055
G1 X4.1251 Z-0.0578 F6.1
G1 X4.1241 Z-0.0604
G1 X4.1226 Z-0.0628
G1 X4.1207 Z-0.0648
G1 X4.1183 Z-0.0663
G1 X4.1157 Z-0.0672
G1 X4.1129 Z-0.0675
G1 X4.1004
G1 X3.8613
G1 X3.0866 Y6.828
G1 Y6.4481
G1 X5.1534
G1 X6.3079 Y7.6027
G1 X4.1004
G1 X4.0879
G1 X4.0851 Z-0.0672
G1 X4.0825 Z-0.0663
G1 X4.0801 Z-0.0648
G1 X4.0781 Z-0.0628
G1 X4.0766 Z-0.0604
G1 X4.0757 Z-0.0578
G1 X4.0754 Z-0.055
G0 Z0.2625
G0 X4.1254
G1 Z-0.0119 F30.
G1 Z-0.0713
G1 X4.1251 Z-0.074 F6.1
G1 X4.1241 Z-0.0767
G1 X4.1226 Z-0.079
G1 X4.1207 Z-0.081
G1 X4.1183 Z-0.0825
G1 X4.1157 Z-0.0834
G1 X4.1129 Z-0.0837
G1 X4.1004
G1 X3.8613
G1 X3.0866 Y6.828
G1 Y6.4481
G1 X5.1534
G1 X6.3079 Y7.6027
G1 X4.1004
G1 X4.0879
G1 X4.0851 Z-0.0834
G1 X4.0825 Z-0.0825
G1 X4.0801 Z-0.081
G1 X4.0781 Z-0.079
G1 X4.0766 Z-0.0767
G1 X4.0757 Z-0.074
G1 X4.0754 Z-0.0713
G0 Z0.2625
G0 X4.1254
G1 Z-0.0281 F30.
G1 Z-0.0813
G1 X4.1251 Z-0.084 F6.1
G1 X4.1241 Z-0.0867
G1 X4.1226 Z-0.089
G1 X4.1207 Z-0.091
G1 X4.1183 Z-0.0925
G1 X4.1157 Z-0.0934
G1 X4.1129 Z-0.0937
G1 X4.1004
G1 X3.8613
G1 X3.0866 Y6.828
G1 Y6.4481
G1 X5.1534
G1 X6.3079 Y7.6027
G1 X4.1004
G1 X4.0879
G1 X4.0851 Z-0.0934
G1 X4.0825 Z-0.0925
G1 X4.0801 Z-0.091
G1 X4.0781 Z-0.089
G1 X4.0766 Z-0.0867
G1 X4.0757 Z-0.084
G1 X4.0754 Z-0.0813
G0 Z0.2625
G0 X7.7981 Y6.9241
G1 Z0.1181 F30.
G1 Z0.0587
G1 Y6.9244 Z0.056 F6.1
G1 Y6.9254 Z0.0533
G1 Y6.9269 Z0.051
G1 Y6.9288 Z0.049
G1 Y6.9312 Z0.0475
G1 Y6.9338 Z0.0466
G1 Y6.9366 Z0.0462
G1 Y6.9491
G1 Y8.1134
G1 X6.0393 Y6.4481
G1 X7.7981
G1 Y6.9491
G1 Y6.9616
G1 Y6.9644 Z0.0466
G1 Y6.967 Z0.0475
G1 Y6.9694 Z0.049
G1 Y6.9714 Z0.051
G1 Y6.9729 Z0.0533
G1 Y6.9738 Z0.056
G1 Y6.9741 Z0.0587
G0 Z0.2625
G0 Y6.9241
G1 Z0.1019 F30.
G1 Z0.0425
G1 Y6.9244 Z0.0397 F6.1
G1 Y6.9254 Z0.0371
G1 Y6.9269 Z0.0347
G1 Y6.9288 Z0.0327
G1 Y6.9312 Z0.0312
G1 Y6.9338 Z0.0303
G1 Y6.9366 Z0.03
G1 Y6.9491
G1 Y8.1134
G1 X6.0393 Y6.4481
G1 X7.7981
G1 Y6.9491
G1 Y6.9616
G1 Y6.9644 Z0.0303
G1 Y6.967 Z0.0312
G1 Y6.9694 Z0.0327
G1 Y6.9714 Z0.0347
G1 Y6.9729 Z0.0371
G1 Y6.9738 Z0.0397
G1 Y6.9741 Z0.0425
G0 Z0.2625
G0 Y6.9241
G1 Z0.0856 F30.
G1 Z0.0262
G1 Y6.9244 Z0.0235 F6.1
G1 Y6.9254 Z0.0208
G1 Y6.9269 Z0.0185
G1 Y6.9288 Z0.0165
G1 Y6.9312 Z0.015
G1 Y6.9338 Z0.0141
G1 Y6.9366 Z0.0137
G1 Y6.9491
G1 Y8.1134
G1 X6.0393 Y6.4481
G1 X7.7981
G1 Y6.9491
G1 Y6.9616
G1 Y6.9644 Z0.0141
G1 Y6.967 Z0.015
G1 Y6.9694 Z0.0165
G1 Y6.9714 Z0.0185
G1 Y6.9729 Z0.0208
G1 Y6.9738 Z0.0235
G1 Y6.9741 Z0.0262
G0 Z0.2625
G0 Y6.9241
G1 Z0.0694 F30.
G1 Z0.01
G1 Y6.9244 Z0.0072 F6.1
G1 Y6.9254 Z0.0046
G1 Y6.9269 Z0.0022
G1 Y6.9288 Z0.0002
G1 Y6.9312 Z-0.0013
G1 Y6.9338 Z-0.0022
G1 Y6.9366 Z-0.0025
G1 Y6.9491
G1 Y8.1134
G1 X6.0393 Y6.4481
G1 X7.7981
G1 Y6.9491
G1 Y6.9616
G1 Y6.9644 Z-0.0022
G1 Y6.967 Z-0.0013
G1 Y6.9694 Z0.0002
G1 Y6.9714 Z0.0022
G1 Y6.9729 Z0.0046
G1 Y6.9738 Z0.0072
G1 Y6.9741 Z0.01
G0 Z0.2625
G0 Y6.9241
G1 Z0.0531 F30.
G1 Z-0.0063
G1 Y6.9244 Z-0.009 F6.1
G1 Y6.9254 Z-0.0117
G1 Y6.9269 Z-0.014
G1 Y6.9288 Z-0.016
G1 Y6.9312 Z-0.0175
G1 Y6.9338 Z-0.0184
G1 Y6.9366 Z-0.0187
G1 Y6.9491
G1 Y8.1134
G1 X6.0393 Y6.4481
G1 X7.7981
G1 Y6.9491
G1 Y6.9616
G1 Y6.9644 Z-0.0184
G1 Y6.967 Z-0.0175
G1 Y6.9694 Z-0.016
G1 Y6.9714 Z-0.014
G1 Y6.9729 Z-0.0117
G1 Y6.9738 Z-0.009
G1 Y6.9741 Z-0.0063
G0 Z0.2625
G0 Y6.9241
G1 Z0.0369 F30.
G1 Z-0.0225
G1 Y6.9244 Z-0.0253 F6.1
G1 Y6.9254 Z-0.0279
G1 Y6.9269 Z-0.0303
G1 Y6.9288 Z-0.0323
G1 Y6.9312 Z-0.0338
G1 Y6.9338 Z-0.0347
G1 Y6.9366 Z-0.035
G1 Y6.9491
G1 Y8.1134
G1 X6.0393 Y6.4481
G1 X7.7981
G1 Y6.9491
G1 Y6.9616
G1 Y6.9644 Z-0.0347
G1 Y6.967 Z-0.0338
G1 Y6.9694 Z-0.0323
G1 Y6.9714 Z-0.0303
G1 Y6.9729 Z-0.0279
G1 Y6.9738 Z-0.0253
G1 Y6.9741 Z-0.0225
G0 Z0.2625
G0 Y6.9241
G1 Z0.0206 F30.
G1 Z-0.0388
G1 Y6.9244 Z-0.0415 F6.1
G1 Y6.9254 Z-0.0442
G1 Y6.9269 Z-0.0465
G1 Y6.9288 Z-0.0485
G1 Y6.9312 Z-0.05
G1 Y6.9338 Z-0.0509
G1 Y6.9366 Z-0.0512
G1 Y6.9491
G1 Y8.1134
G1 X6.0393 Y6.4481
G1 X7.7981
G1 Y6.9491
G1 Y6.9616
G1 Y6.9644 Z-0.0509
G1 Y6.967 Z-0.05
G1 Y6.9694 Z-0.0485
G1 Y6.9714 Z-0.0465
G1 Y6.9729 Z-0.0442
G1 Y6.9738 Z-0.0415
G1 Y6.9741 Z-0.0388
G0 Z0.2625
G0 Y6.9241
G1 Z0.0044 F30.
G1 Z-0.055
G1 Y6.9244 Z-0.0578 F6.1
G1 Y6.9254 Z-0.0604
G1 Y6.9269 Z-0.0628
G1 Y6.9288 Z-0.0648
G1 Y6.9312 Z-0.0663
G1 Y6.9338 Z-0.0672
G1 Y6.9366 Z-0.0675
G1 Y6.9491
G1 Y8.1134
G1 X6.0393 Y6.4481
G1 X7.7981
G1 Y6.9491
G1 Y6.9616
G1 Y6.9644 Z-0.0672
G1 Y6.967 Z-0.0663
G1 Y6.9694 Z-0.0648
G1 Y6.9714 Z-0.0628
G1 Y6.9729 Z-0.0604
G1 Y6.9738 Z-0.0578
G1 Y6.9741 Z-0.055
G0 Z0.2625
G0 Y6.9241
G1 Z-0.0119 F30.
G1 Z-0.0713
G1 Y6.9244 Z-0.074 F6.1
G1 Y6.9254 Z-0.0767
G1 Y6.9269 Z-0.079
G1 Y6.9288 Z-0.081
G1 Y6.9312 Z-0.0825
G1 Y6.9338 Z-0.0834
G1 Y6.9366 Z-0.0837
G1 Y6.9491
G1 Y8.1134
G1 X6.0393 Y6.4481
G1 X7.7981
G1 Y6.9491
G1 Y6.9616
G1 Y6.9644 Z-0.0834
G1 Y6.967 Z-0.0825
G1 Y6.9694 Z-0.081
G1 Y6.9714 Z-0.079
G1 Y6.9729 Z-0.0767
G1 Y6.9738 Z-0.074
G1 Y6.9741 Z-0.0713
G0 Z0.2625
G0 Y6.9241
G1 Z-0.0281 F30.
G1 Z-0.0813
G1 Y6.9244 Z-0.084 F6.1
G1 Y6.9254 Z-0.0867
G1 Y6.9269 Z-0.089
G1 Y6.9288 Z-0.091
G1 Y6.9312 Z-0.0925
G1 Y6.9338 Z-0.0934
G1 Y6.9366 Z-0.0937
G1 Y6.9491
G1 Y8.1134
G1 X6.0393 Y6.4481
G1 X7.7981
G1 Y6.9491
G1 Y6.9616
G1 Y6.9644 Z-0.0934
G1 Y6.967 Z-0.0925
G1 Y6.9694 Z-0.091
G1 Y6.9714 Z-0.089
G1 Y6.9729 Z-0.0867
G1 Y6.9738 Z-0.084
G1 Y6.9741 Z-0.0813
G0 Z0.2625
G0 X9.3478 Y7.2468
G1 Z0.1181 F30.
G1 Z0.0587
G1 X9.3475 Y7.2471 Z0.056 F6.1
G1 X9.3469 Y7.2477 Z0.0533
G1 X9.3458 Y7.2488 Z0.051
G1 X9.3444 Y7.2502 Z0.049
G1 X9.3428 Y7.2519 Z0.0475
G1 X9.3409 Y7.2537 Z0.0466
G1 X9.3389 Y7.2557 Z0.0462
G1 X9.3301 Y7.2645
G1 X8.5137 Y8.0809
G1 Y6.4481
G1 X10.1465
G1 X9.3301 Y7.2645
G1 X9.3212 Y7.2734
G1 X9.3193 Y7.2753 Z0.0466
G1 X9.3174 Y7.2772 Z0.0475
G1 X9.3157 Y7.2789 Z0.049
G1 X9.3143 Y7.2803 Z0.051
G1 X9.3133 Y7.2813 Z0.0533
G1 X9.3126 Y7.282 Z0.056
G1 X9.3124 Y7.2822 Z0.0587
G0 Z0.2625
G0 X9.3478 Y7.2468
G1 Z0.1019 F30.
G1 Z0.0425
G1 X9.3475 Y7.2471 Z0.0397 F6.1
G1 X9.3469 Y7.2477 Z0.0371
G1 X9.3458 Y7.2488 Z0.0347
G1 X9.3444 Y7.2502 Z0.0327
G1 X9.3428 Y7.2519 Z0.0312
G1 X9.3409 Y7.2537 Z0.0303
G1 X9.3389 Y7.2557 Z0.03
G1 X9.3301 Y7.2645
G1 X8.5137 Y8.0809
G1 Y6.4481
G1 X10.1465
G1 X9.3301 Y7.2645
G1 X9.3212 Y7.2734
G1 X9.3193 Y7.2753 Z0.0303
G1 X9.3174 Y7.2772 Z0.0312
G1 X9.3157 Y7.2789 Z0.0327
G1 X9.3143 Y7.2803 Z0.0347
G1 X9.3133 Y7.2813 Z0.0371
G1 X9.3126 Y7.282 Z0.0397
G1 X9.3124 Y7.2822 Z0.0425
G0 Z0.2625
G0 X9.3478 Y7.2468
G1 Z0.0856 F30.
G1 Z0.0262
G1 X9.3475 Y7.2471 Z0.0235 F6.1
G1 X9.3469 Y7.2477 Z0.0208
G1 X9.3458 Y7.2488 Z0.0185
G1 X9.3444 Y7.2502 Z0.0165
G1 X9.3428 Y7.2519 Z0.015
G1 X9.3409 Y7.2537 Z0.0141
G1 X9.3389 Y7.2557 Z0.0137
G1 X9.3301 Y7.2645
G1 X8.5137 Y8.0809
G1 Y6.4481
G1 X10.1465
G1 X9.3301 Y7.2645
G1 X9.3212 Y7.2734
G1 X9.3193 Y7.2753 Z0.0141
G1 X9.3174 Y7.2772 Z0.015
G1 X9.3157 Y7.2789 Z0.0165
G1 X9.3143 Y7.2803 Z0.0185
G1 X9.3133 Y7.2813 Z0.0208
G1 X9.3126 Y7.282 Z0.0235
G1 X9.3124 Y7.2822 Z0.0262
G0 Z0.2625
G0 X9.3478 Y7.2468
G1 Z0.0694 F30.
G1 Z0.01
G1 X9.3475 Y7.2471 Z0.0072 F6.1
G1 X9.3469 Y7.2477 Z0.0046
G1 X9.3458 Y7.2488 Z0.0022
G1 X9.3444 Y7.2502 Z0.0002
G1 X9.3428 Y7.2519 Z-0.0013
G1 X9.3409 Y7.2537 Z-0.0022
G1 X9.3389 Y7.2557 Z-0.0025
G1 X9.3301 Y7.2645
G1 X8.5137 Y8.0809
G1 Y6.4481
G1 X10.1465
G1 X9.3301 Y7.2645
G1 X9.3212 Y7.2734
G1 X9.3193 Y7.2753 Z-0.0022
G1 X9.3174 Y7.2772 Z-0.0013
G1 X9.3157 Y7.2789 Z0.0002
G1 X9.3143 Y7.2803 Z0.0022
G1 X9.3133 Y7.2813 Z0.0046
G1 X9.3126 Y7.282 Z0.0072
G1 X9.3124 Y7.2822 Z0.01
G0 Z0.2625
G0 X9.3478 Y7.2468
G1 Z0.0531 F30.
G1 Z-0.0063
G1 X9.3475 Y7.2471 Z-0.009 F6.1
G1 X9.3469 Y7.2477 Z-0.0117
G1 X9.3458 Y7.2488 Z-0.014
G1 X9.3444 Y7.2502 Z-0.016
G1 X9.3428 Y7.2519 Z-0.0175
G1 X9.3409 Y7.2537 Z-0.0184
G1 X9.3389 Y7.2557 Z-0.0187
G1 X9.3301 Y7.2645
G1 X8.5137 Y8.0809
G1 Y6.4481
G1 X10.1465
G1 X9.3301 Y7.2645
G1 X9.3212 Y7.2734
G1 X9.3193 Y7.2753 Z-0.0184
G1 X9.3174 Y7.2772 Z-0.0175
G1 X9.3157 Y7.2789 Z-0.016
G1 X9.3143 Y7.2803 Z-0.014
G1 X9.3133 Y7.2813 Z-0.0117
G1 X9.3126 Y7.282 Z-0.009
G1 X9.3124 Y7.2822 Z-0.0063
G0 Z0.2625
G0 X9.3478 Y7.2468
G1 Z0.0369 F30.
G1 Z-0.0225
G1 X9.3475 Y7.2471 Z-0.0253 F6.1
G1 X9.3469 Y7.2477 Z-0.0279
G1 X9.3458 Y7.2488 Z-0.0303
G1 X9.3444 Y7.2502 Z-0.0323
G1 X9.3428 Y7.2519 Z-0.0338
G1 X9.3409 Y7.2537 Z-0.0347
G1 X9.3389 Y7.2557 Z-0.035
G1 X9.3301 Y7.2645
G1 X8.5137 Y8.0809
G1 Y6.4481
G1 X10.1465
G1 X9.3301 Y7.2645
G1 X9.3212 Y7.2734
G1 X9.3193 Y7.2753 Z-0.0347
G1 X9.3174 Y7.2772 Z-0.0338
G1 X9.3157 Y7.2789 Z-0.0323
G1 X9.3143 Y7.2803 Z-0.0303
G1 X9.3133 Y7.2813 Z-0.0279
G1 X9.3126 Y7.282 Z-0.0253
G1 X9.3124 Y7.2822 Z-0.0225
G0 Z0.2625
G0 X9.3478 Y7.2468
G1 Z0.0206 F30.
G1 Z-0.0388
G1 X9.3475 Y7.2471 Z-0.0415 F6.1
G1 X9.3469 Y7.2477 Z-0.0442
G1 X9.3458 Y7.2488 Z-0.0465
G1 X9.3444 Y7.2502 Z-0.0485
G1 X9.3428 Y7.2519 Z-0.05
G1 X9.3409 Y7.2537 Z-0.0509
G1 X9.3389 Y7.2557 Z-0.0512
G1 X9.3301 Y7.2645
G1 X8.5137 Y8.0809
G1 Y6.4481
G1 X10.1465
G1 X9.3301 Y7.2645
G1 X9.3212 Y7.2734
G1 X9.3193 Y7.2753 Z-0.0509
G1 X9.3174 Y7.2772 Z-0.05
G1 X9.3157 Y7.2789 Z-0.0485
G1 X9.3143 Y7.2803 Z-0.0465
G1 X9.3133 Y7.2813 Z-0.0442
G1 X9.3126 Y7.282 Z-0.0415
G1 X9.3124 Y7.2822 Z-0.0388
G0 Z0.2625
G0 X9.3478 Y7.2468
G1 Z0.0044 F30.
G1 Z-0.055
G1 X9.3475 Y7.2471 Z-0.0578 F6.1
G1 X9.3469 Y7.2477 Z-0.0604
G1 X9.3458 Y7.2488 Z-0.0628
G1 X9.3444 Y7.2502 Z-0.0648
G1 X9.3428 Y7.2519 Z-0.0663
G1 X9.3409 Y7.2537 Z-0.0672
G1 X9.3389 Y7.2557 Z-0.0675
G1 X9.3301 Y7.2645
G1 X8.5137 Y8.0809
G1 Y6.4481
G1 X10.1465
G1 X9.3301 Y7.2645
G1 X9.3212 Y7.2734
G1 X9.3193 Y7.2753 Z-0.0672
G1 X9.3174 Y7.2772 Z-0.0663
G1 X9.3157 Y7.2789 Z-0.0648
G1 X9.3143 Y7.2803 Z-0.0628
G1 X9.3133 Y7.2813 Z-0.0604
G1 X9.3126 Y7.282 Z-0.0578
G1 X9.3124 Y7.2822 Z-0.055
G0 Z0.2625
G0 X9.3478 Y7.2468
G1 Z-0.0119 F30.
G1 Z-0.0713
G1 X9.3475 Y7.2471 Z-0.074 F6.1
G1 X9.3469 Y7.2477 Z-0.0767
G1 X9.3458 Y7.2488 Z-0.079
G1 X9.3444 Y7.2502 Z-0.081
G1 X9.3428 Y7.2519 Z-0.0825
G1 X9.3409 Y7.2537 Z-0.0834
G1 X9.3389 Y7.2557 Z-0.0837
G1 X9.3301 Y7.2645
G1 X8.5137 Y8.0809
G1 Y6.4481
G1 X10.1465
G1 X9.3301 Y7.2645
G1 X9.3212 Y7.2734
G1 X9.3193 Y7.2753 Z-0.0834
G1 X9.3174 Y7.2772 Z-0.0825
G1 X9.3157 Y7.2789 Z-0.081
G1 X9.3143 Y7.2803 Z-0.079
G1 X9.3133 Y7.2813 Z-0.0767
G1 X9.3126 Y7.282 Z-0.074
G1 X9.3124 Y7.2822 Z-0.0713
G0 Z0.2625
G0 X9.3478 Y7.2468
G1 Z-0.0281 F30.
G1 Z-0.0813
G1 X9.3475 Y7.2471 Z-0.084 F6.1
G1 X9.3469 Y7.2477 Z-0.0867
G1 X9.3458 Y7.2488 Z-0.089
G1 X9.3444 Y7.2502 Z-0.091
G1 X9.3428 Y7.2519 Z-0.0925
G1 X9.3409 Y7.2537 Z-0.0934
G1 X9.3389 Y7.2557 Z-0.0937
G1 X9.3301 Y7.2645
G1 X8.5137 Y8.0809
G1 Y6.4481
G1 X10.1465
G1 X9.3301 Y7.2645
G1 X9.3212 Y7.2734
G1 X9.3193 Y7.2753 Z-0.0934
G1 X9.3174 Y7.2772 Z-0.0925
G1 X9.3157 Y7.2789 Z-0.091
G1 X9.3143 Y7.2803 Z-0.089
G1 X9.3133 Y7.2813 Z-0.0867
G1 X9.3126 Y7.282 Z-0.084
G1 X9.3124 Y7.2822 Z-0.0813
G0 Z0.2625
G0 X12.562 Y7.0004
G1 Z0.1181 F30.
G1 Z0.0587
G1 Y7.0007 Z0.056 F6.1
G1 Y7.0016 Z0.0533
G1 Y7.0031 Z0.051
G1 Y7.0051 Z0.049
G1 Y7.0075 Z0.0475
G1 Y7.0101 Z0.0466
G1 Y7.0129 Z0.0462
G1 Y7.0254
G1 Y7.6027
G1 X10.0039
G1 X11.1584 Y6.4481
G1 X12.562
G1 Y7.0254
G1 Y7.0379
G1 Y7.0407 Z0.0466
G1 Y7.0433 Z0.0475
G1 Y7.0457 Z0.049
G1 Y7.0477 Z0.051
G1 Y7.0492 Z0.0533
G1 Y7.0501 Z0.056
G1 Y7.0504 Z0.0587
G0 Z0.2625
G0 Y7.0004
G1 Z0.1019 F30.
G1 Z0.0425
G1 Y7.0007 Z0.0397 F6.1
G1 Y7.0016 Z0.0371
G1 Y7.0031 Z0.0347
G1 Y7.0051 Z0.0327
G1 Y7.0075 Z0.0312
G1 Y7.0101 Z0.0303
G1 Y7.0129 Z0.03
G1 Y7.0254
G1 Y7.6027
G1 X10.0039
G1 X11.1584 Y6.4481
G1 X12.562
G1 Y7.0254
G1 Y7.0379
G1 Y7.0407 Z0.0303
G1 Y7.0433 Z0.0312
G1 Y7.0457 Z0.0327
G1 Y7.0477 Z0.0347
G1 Y7.0492 Z0.0371
G1 Y7.0501 Z0.0397
G1 Y7.0504 Z0.0425
G0 Z0.2625
G0 Y7.0004
G1 Z0.0856 F30.
G1 Z0.0262
G1 Y7.0007 Z0.0235 F6.1
G1 Y7.0016 Z0.0208
G1 Y7.0031 Z0.0185
G1 Y7.0051 Z0.0165
G1 Y7.0075 Z0.015
G1 Y7.0101 Z0.0141
G1 Y7.0129 Z0.0137
G1 Y7.0254
G1 Y7.6027
G1 X10.0039
G1 X11.1584 Y6.4481
G1 X12.562
G1 Y7.0254
G1 Y7.0379
G1 Y7.0407 Z0.0141
G1 Y7.0433 Z0.015
G1 Y7.0457 Z0.0165
G1 Y7.0477 Z0.0185
G1 Y7.0492 Z0.0208
G1 Y7.0501 Z0.0235
G1 Y7.0504 Z0.0262
G0 Z0.2625
G0 Y7.0004
G1 Z0.0694 F30.
G1 Z0.01
G1 Y7.0007 Z0.0072 F6.1
G1 Y7.0016 Z0.0046
G1 Y7.0031 Z0.0022
G1 Y7.0051 Z0.0002
G1 Y7.0075 Z-0.0013
G1 Y7.0101 Z-0.0022
G1 Y7.0129 Z-0.0025
G1 Y7.0254
G1 Y7.6027
G1 X10.0039
G1 X11.1584 Y6.4481
G1 X12.562
G1 Y7.0254
G1 Y7.0379
G1 Y7.0407 Z-0.0022
G1 Y7.0433 Z-0.0013
G1 Y7.0457 Z0.0002
G1 Y7.0477 Z0.0022
G1 Y7.0492 Z0.0046
G1 Y7.0501 Z0.0072
G1 Y7.0504 Z0.01
G0 Z0.2625
G0 Y7.0004
G1 Z0.0531 F30.
G1 Z-0.0063
G1 Y7.0007 Z-0.009 F6.1
G1 Y7.0016 Z-0.0117
G1 Y7.0031 Z-0.014
G1 Y7.0051 Z-0.016
G1 Y7.0075 Z-0.0175
G1 Y7.0101 Z-0.0184
G1 Y7.0129 Z-0.0187
G1 Y7.0254
G1 Y7.6027
G1 X10.0039
G1 X11.1584 Y6.4481
G1 X12.562
G1 Y7.0254
G1 Y7.0379
G1 Y7.0407 Z-0.0184
G1 Y7.0433 Z-0.0175
G1 Y7.0457 Z-0.016
G1 Y7.0477 Z-0.014
G1 Y7.0492 Z-0.0117
G1 Y7.0501 Z-0.009
G1 Y7.0504 Z-0.0063
G0 Z0.2625
G0 Y7.0004
G1 Z0.0369 F30.
G1 Z-0.0225
G1 Y7.0007 Z-0.0253 F6.1
G1 Y7.0016 Z-0.0279
G1 Y7.0031 Z-0.0303
G1 Y7.0051 Z-0.0323
G1 Y7.0075 Z-0.0338
G1 Y7.0101 Z-0.0347
G1 Y7.0129 Z-0.035
G1 Y7.0254
G1 Y7.6027
G1 X10.0039
G1 X11.1584 Y6.4481
G1 X12.562
G1 Y7.0254
G1 Y7.0379
G1 Y7.0407 Z-0.0347
G1 Y7.0433 Z-0.0338
G1 Y7.0457 Z-0.0323
G1 Y7.0477 Z-0.0303
G1 Y7.0492 Z-0.0279
G1 Y7.0501 Z-0.0253
G1 Y7.0504 Z-0.0225
G0 Z0.2625
G0 Y7.0004
G1 Z0.0206 F30.
G1 Z-0.0388
G1 Y7.0007 Z-0.0415 F6.1
G1 Y7.0016 Z-0.0442
G1 Y7.0031 Z-0.0465
G1 Y7.0051 Z-0.0485
G1 Y7.0075 Z-0.05
G1 Y7.0101 Z-0.0509
G1 Y7.0129 Z-0.0512
G1 Y7.0254
G1 Y7.6027
G1 X10.0039
G1 X11.1584 Y6.4481
G1 X12.562
G1 Y7.0254
G1 Y7.0379
G1 Y7.0407 Z-0.0509
G1 Y7.0433 Z-0.05
G1 Y7.0457 Z-0.0485
G1 Y7.0477 Z-0.0465
G1 Y7.0492 Z-0.0442
G1 Y7.0501 Z-0.0415
G1 Y7.0504 Z-0.0388
G0 Z0.2625
G0 Y7.0004
G1 Z0.0044 F30.
G1 Z-0.055
G1 Y7.0007 Z-0.0578 F6.1
G1 Y7.0016 Z-0.0604
G1 Y7.0031 Z-0.0628
G1 Y7.0051 Z-0.0648
G1 Y7.0075 Z-0.0663
G1 Y7.0101 Z-0.0672
G1 Y7.0129 Z-0.0675
G1 Y7.0254
G1 Y7.6027
G1 X10.0039
G1 X11.1584 Y6.4481
G1 X12.562
G1 Y7.0254
G1 Y7.0379
G1 Y7.0407 Z-0.0672
G1 Y7.0433 Z-0.0663
G1 Y7.0457 Z-0.0648
G1 Y7.0477 Z-0.0628
G1 Y7.0492 Z-0.0604
G1 Y7.0501 Z-0.0578
G1 Y7.0504 Z-0.055
G0 Z0.2625
G0 Y7.0004
G1 Z-0.0119 F30.
G1 Z-0.0713
G1 Y7.0007 Z-0.074 F6.1
G1 Y7.0016 Z-0.0767
G1 Y7.0031 Z-0.079
G1 Y7.0051 Z-0.081
G1 Y7.0075 Z-0.0825
G1 Y7.0101 Z-0.0834
G1 Y7.0129 Z-0.0837
G1 Y7.0254
G1 Y7.6027
G1 X10.0039
G1 X11.1584 Y6.4481
G1 X12.562
G1 Y7.0254
G1 Y7.0379
G1 Y7.0407 Z-0.0834
G1 Y7.0433 Z-0.0825
G1 Y7.0457 Z-0.081
G1 Y7.0477 Z-0.079
G1 Y7.0492 Z-0.0767
G1 Y7.0501 Z-0.074
G1 Y7.0504 Z-0.0713
G0 Z0.2625
G0 Y7.0004
G1 Z-0.0281 F30.
G1 Z-0.0813
G1 Y7.0007 Z-0.084 F6.1
G1 Y7.0016 Z-0.0867
G1 Y7.0031 Z-0.089
G1 Y7.0051 Z-0.091
G1 Y7.0075 Z-0.0925
G1 Y7.0101 Z-0.0934
G1 Y7.0129 Z-0.0937
G1 Y7.0254
G1 Y7.6027
G1 X10.0039
G1 X11.1584 Y6.4481
G1 X12.562
G1 Y7.0254
G1 Y7.0379
G1 Y7.0407 Z-0.0934
G1 Y7.0433 Z-0.0925
G1 Y7.0457 Z-0.091
G1 Y7.0477 Z-0.089
G1 Y7.0492 Z-0.0867
G1 Y7.0501 Z-0.084
G1 Y7.0504 Z-0.0813
G0 Z0.2625
G0 X9.5524 Y9.4727
G1 Z0.1181 F30.
G1 Z0.0587
G1 X9.5521 Z0.056 F6.1
G1 X9.5512 Z0.0533
G1 X9.5497 Z0.051
G1 X9.5477 Z0.049
G1 X9.5454 Z0.0475
G1 X9.5427 Z0.0466
G1 X9.5399 Z0.0462
G1 X9.5274
G1 X8.5137
G1 Y9.0929
G1 X9.2883 Y8.3182
G1 X12.562
G1 Y8.7312
G1 X12.1383 Y9.4727
G1 X9.5274
G1 X9.5149
G1 X9.5122 Z0.0466
G1 X9.5095 Z0.0475
G1 X9.5071 Z0.049
G1 X9.5052 Z0.051
G1 X9.5037 Z0.0533
G1 X9.5028 Z0.056
G1 X9.5024 Z0.0587
G0 Z0.2625
G0 X9.5524
G1 Z0.1019 F30.
G1 Z0.0425
G1 X9.5521 Z0.0397 F6.1
G1 X9.5512 Z0.0371
G1 X9.5497 Z0.0347
G1 X9.5477 Z0.0327
G1 X9.5454 Z0.0312
G1 X9.5427 Z0.0303
G1 X9.5399 Z0.03
G1 X9.5274
G1 X8.5137
G1 Y9.0929
G1 X9.2883 Y8.3182
G1 X12.562
G1 Y8.7312
G1 X12.1383 Y9.4727
G1 X9.5274
G1 X9.5149
G1 X9.5122 Z0.0303
G1 X9.5095 Z0.0312
G1 X9.5071 Z0.0327
G1 X9.5052 Z0.0347
G1 X9.5037 Z0.0371
G1 X9.5028 Z0.0397
G1 X9.5024 Z0.0425
G0 Z0.2625
G0 X9.5524
G1 Z0.0856 F30.
G1 Z0.0262
G1 X9.5521 Z0.0235 F6.1
G1 X9.5512 Z0.0208
G1 X9.5497 Z0.0185
G1 X9.5477 Z0.0165
G1 X9.5454 Z0.015
G1 X9.5427 Z0.0141
G1 X9.5399 Z0.0137
G1 X9.5274
G1 X8.5137
G1 Y9.0929
G1 X9.2883 Y8.3182
G1 X12.562
G1 Y8.7312
G1 X12.1383 Y9.4727
G1 X9.5274
G1 X9.5149
G1 X9.5122 Z0.0141
G1 X9.5095 Z0.015
G1 X9.5071 Z0.0165
G1 X9.5052 Z0.0185
G1 X9.5037 Z0.0208
G1 X9.5028 Z0.0235
G1 X9.5024 Z0.0262
G0 Z0.2625
G0 X9.5524
G1 Z0.0694 F30.
G1 Z0.01
G1 X9.5521 Z0.0072 F6.1
G1 X9.5512 Z0.0046
G1 X9.5497 Z0.0022
G1 X9.5477 Z0.0002
G1 X9.5454 Z-0.0013
G1 X9.5427 Z-0.0022
G1 X9.5399 Z-0.0025
G1 X9.5274
G1 X8.5137
G1 Y9.0929
G1 X9.2883 Y8.3182
G1 X12.562
G1 Y8.7312
G1 X12.1383 Y9.4727
G1 X9.5274
G1 X9.5149
G1 X9.5122 Z-0.0022
G1 X9.5095 Z-0.0013
G1 X9.5071 Z0.0002
G1 X9.5052 Z0.0022
G1 X9.5037 Z0.0046
G1 X9.5028 Z0.0072
G1 X9.5024 Z0.01
G0 Z0.2625
G0 X9.5524
G1 Z0.0531 F30.
G1 Z-0.0063
G1 X9.5521 Z-0.009 F6.1
G1 X9.5512 Z-0.0117
G1 X9.5497 Z-0.014
G1 X9.5477 Z-0.016
G1 X9.5454 Z-0.0175
G1 X9.5427 Z-0.0184
G1 X9.5399 Z-0.0187
G1 X9.5274
G1 X8.5137
G1 Y9.0929
G1 X9.2883 Y8.3182
G1 X12.562
G1 Y8.7312
G1 X12.1383 Y9.4727
G1 X9.5274
G1 X9.5149
G1 X9.5122 Z-0.0184
G1 X9.5095 Z-0.0175
G1 X9.5071 Z-0.016
G1 X9.5052 Z-0.014
G1 X9.5037 Z-0.0117
G1 X9.5028 Z-0.009
G1 X9.5024 Z-0.0063
G0 Z0.2625
G0 X9.5524
G1 Z0.0369 F30.
G1 Z-0.0225
G1 X9.5521 Z-0.0253 F6.1
G1 X9.5512 Z-0.0279
G1 X9.5497 Z-0.0303
G1 X9.5477 Z-0.0323
G1 X9.5454 Z-0.0338
G1 X9.5427 Z-0.0347
G1 X9.5399 Z-0.035
G1 X9.5274
G1 X8.5137
G1 Y9.0929
G1 X9.2883 Y8.3182
G1 X12.562
G1 Y8.7312
G1 X12.1383 Y9.4727
G1 X9.5274
G1 X9.5149
G1 X9.5122 Z-0.0347
G1 X9.5095 Z-0.0338
G1 X9.5071 Z-0.0323
G1 X9.5052 Z-0.0303
G1 X9.5037 Z-0.0279
G1 X9.5028 Z-0.0253
G1 X9.5024 Z-0.0225
G0 Z0.2625
G0 X9.5524
G1 Z0.0206 F30.
G1 Z-0.0388
G1 X9.5521 Z-0.0415 F6.1
G1 X9.5512 Z-0.0442
G1 X9.5497 Z-0.0465
G1 X9.5477 Z-0.0485
G1 X9.5454 Z-0.05
G1 X9.5427 Z-0.0509
G1 X9.5399 Z-0.0512
G1 X9.5274
G1 X8.5137
G1 Y9.0929
G1 X9.2883 Y8.3182
G1 X12.562
G1 Y8.7312
G1 X12.1383 Y9.4727
G1 X9.5274
G1 X9.5149
G1 X9.5122 Z-0.0509
G1 X9.5095 Z-0.05
G1 X9.5071 Z-0.0485
G1 X9.5052 Z-0.0465
G1 X9.5037 Z-0.0442
G1 X9.5028 Z-0.0415
G1 X9.5024 Z-0.0388
G0 Z0.2625
G0 X9.5524
G1 Z0.0044 F30.
G1 Z-0.055
G1 X9.5521 Z-0.0578 F6.1
G1 X9.5512 Z-0.0604
G1 X9.5497 Z-0.0628
G1 X9.5477 Z-0.0648
G1 X9.5454 Z-0.0663
G1 X9.5427 Z-0.0672
G1 X9.5399 Z-0.0675
G1 X9.5274
G1 X8.5137
G1 Y9.0929
G1 X9.2883 Y8.3182
G1 X12.562
G1 Y8.7312
G1 X12.1383 Y9.4727
G1 X9.5274
G1 X9.5149
G1 X9.5122 Z-0.0672
G1 X9.5095 Z-0.0663
G1 X9.5071 Z-0.0648
G1 X9.5052 Z-0.0628
G1 X9.5037 Z-0.0604
G1 X9.5028 Z-0.0578
G1 X9.5024 Z-0.055
G0 Z0.2625
G0 X9.5524
G1 Z-0.0119 F30.
G1 Z-0.0713
G1 X9.5521 Z-0.074 F6.1
G1 X9.5512 Z-0.0767
G1 X9.5497 Z-0.079
G1 X9.5477 Z-0.081
G1 X9.5454 Z-0.0825
G1 X9.5427 Z-0.0834
G1 X9.5399 Z-0.0837
G1 X9.5274
G1 X8.5137
G1 Y9.0929
G1 X9.2883 Y8.3182
G1 X12.562
G1 Y8.7312
G1 X12.1383 Y9.4727
G1 X9.5274
G1 X9.5149
G1 X9.5122 Z-0.0834
G1 X9.5095 Z-0.0825
G1 X9.5071 Z-0.081
G1 X9.5052 Z-0.079
G1 X9.5037 Z-0.0767
G1 X9.5028 Z-0.074
G1 X9.5024 Z-0.0713
G0 Z0.2625
G0 X9.5524
G1 Z-0.0281 F30.
G1 Z-0.0813
G1 X9.5521 Z-0.084 F6.1
G1 X9.5512 Z-0.0867
G1 X9.5497 Z-0.089
G1 X9.5477 Z-0.091
G1 X9.5454 Z-0.0925
G1 X9.5427 Z-0.0934
G1 X9.5399 Z-0.0937
G1 X9.5274
G1 X8.5137
G1 Y9.0929
G1 X9.2883 Y8.3182
G1 X12.562
G1 Y8.7312
G1 X12.1383 Y9.4727
G1 X9.5274
G1 X9.5149
G1 X9.5122 Z-0.0934
G1 X9.5095 Z-0.0925
G1 X9.5071 Z-0.091
G1 X9.5052 Z-0.089
G1 X9.5037 Z-0.0867
G1 X9.5028 Z-0.084
G1 X9.5024 Z-0.0813
G0 Z0.2625
G0 X12.3169 Y4.1602
G1 Z0.1181 F30.
G1 Z0.0587
G1 X12.3167 Y4.1604 Z0.056 F6.1
G1 X12.3163 Y4.1612 Z0.0533
G1 X12.3155 Y4.1625 Z0.051
G1 X12.3145 Y4.1643 Z0.049
G1 X12.3134 Y4.1663 Z0.0475
G1 X12.312 Y4.1686 Z0.0466
G1 X12.3107 Y4.171 Z0.0462
G1 X12.3045 Y4.1819
G1 X12.1383 Y4.4727
G1 X8.5137
G1 Y4.0929
G1 X9.2883 Y3.3182
G1 X12.562
G1 Y3.7312
G1 X12.3045 Y4.1819
G1 X12.2983 Y4.1927
G1 X12.2969 Y4.1951 Z0.0466
G1 X12.2956 Y4.1974 Z0.0475
G1 X12.2944 Y4.1995 Z0.049
G1 X12.2934 Y4.2012 Z0.051
G1 X12.2927 Y4.2025 Z0.0533
G1 X12.2922 Y4.2033 Z0.056
G1 X12.2921 Y4.2036 Z0.0587
G0 Z0.2625
G0 X12.3169 Y4.1602
G1 Z0.1019 F30.
G1 Z0.0425
G1 X12.3167 Y4.1604 Z0.0397 F6.1
G1 X12.3163 Y4.1612 Z0.0371
G1 X12.3155 Y4.1625 Z0.0347
G1 X12.3145 Y4.1643 Z0.0327
G1 X12.3134 Y4.1663 Z0.0312
G1 X12.312 Y4.1686 Z0.0303
G1 X12.3107 Y4.171 Z0.03
G1 X12.3045 Y4.1819
G1 X12.1383 Y4.4727
G1 X8.5137
G1 Y4.0929
G1 X9.2883 Y3.3182
G1 X12.562
G1 Y3.7312
G1 X12.3045 Y4.1819
G1 X12.2983 Y4.1927
G1 X12.2969 Y4.1951 Z0.0303
G1 X12.2956 Y4.1974 Z0.0312
G1 X12.2944 Y4.1995 Z0.0327
G1 X12.2934 Y4.2012 Z0.0347
G1 X12.2927 Y4.2025 Z0.0371
G1 X12.2922 Y4.2033 Z0.0397
G1 X12.2921 Y4.2036 Z0.0425
G0 Z0.2625
G0 X12.3169 Y4.1602
G1 Z0.0856 F30.
G1 Z0.0262
G1 X12.3167 Y4.1604 Z0.0235 F6.1
G1 X12.3163 Y4.1612 Z0.0208
G1 X12.3155 Y4.1625 Z0.0185
G1 X12.3145 Y4.1643 Z0.0165
G1 X12.3134 Y4.1663 Z0.015
G1 X12.312 Y4.1686 Z0.0141
G1 X12.3107 Y4.171 Z0.0137
G1 X12.3045 Y4.1819
G1 X12.1383 Y4.4727
G1 X8.5137
G1 Y4.0929
G1 X9.2883 Y3.3182
G1 X12.562
G1 Y3.7312
G1 X12.3045 Y4.1819
G1 X12.2983 Y4.1927
G1 X12.2969 Y4.1951 Z0.0141
G1 X12.2956 Y4.1974 Z0.015
G1 X12.2944 Y4.1995 Z0.0165
G1 X12.2934 Y4.2012 Z0.0185
G1 X12.2927 Y4.2025 Z0.0208
G1 X12.2922 Y4.2033 Z0.0235
G1 X12.2921 Y4.2036 Z0.0262
G0 Z0.2625
G0 X12.3169 Y4.1602
G1 Z0.0694 F30.
G1 Z0.01
G1 X12.3167 Y4.1604 Z0.0072 F6.1
G1 X12.3163 Y4.1612 Z0.0046
G1 X12.3155 Y4.1625 Z0.0022
G1 X12.3145 Y4.1643 Z0.0002
G1 X12.3134 Y4.1663 Z-0.0013
G1 X12.312 Y4.1686 Z-0.0022
G1 X12.3107 Y4.171 Z-0.0025
G1 X12.3045 Y4.1819
G1 X12.1383 Y4.4727
G1 X8.5137
G1 Y4.0929
G1 X9.2883 Y3.3182
G1 X12.562
G1 Y3.7312
G1 X12.3045 Y4.1819
G1 X12.2983 Y4.1927
G1 X12.2969 Y4.1951 Z-0.0022
G1 X12.2956 Y4.1974 Z-0.0013
G1 X12.2944 Y4.1995 Z0.0002
G1 X12.2934 Y4.2012 Z0.0022
G1 X12.2927 Y4.2025 Z0.0046
G1 X12.2922 Y4.2033 Z0.0072
G1 X12.2921 Y4.2036 Z0.01
G0 Z0.2625
G0 X12.3169 Y4.1602
G1 Z0.0531 F30.
G1 Z-0.0063
G1 X12.3167 Y4.1604 Z-0.009 F6.1
G1 X12.3163 Y4.1612 Z-0.0117
G1 X12.3155 Y4.1625 Z-0.014
G1 X12.3145 Y4.1643 Z-0.016
G1 X12.3134 Y4.1663 Z-0.0175
G1 X12.312 Y4.1686 Z-0.0184
G1 X12.3107 Y4.171 Z-0.0187
G1 X12.3045 Y4.1819
G1 X12.1383 Y4.4727
G1 X8.5137
G1 Y4.0929
G1 X9.2883 Y3.3182
G1 X12.562
G1 Y3.7312
G1 X12.3045 Y4.1819
G1 X12.2983 Y4.1927
G1 X12.2969 Y4.1951 Z-0.0184
G1 X12.2956 Y4.1974 Z-0.0175
G1 X12.2944 Y4.1995 Z-0.016
G1 X12.2934 Y4.2012 Z-0.014
G1 X12.2927 Y4.2025 Z-0.0117
G1 X12.2922 Y4.2033 Z-0.009
G1 X12.2921 Y4.2036 Z-0.0063
G0 Z0.2625
G0 X12.3169 Y4.1602
G1 Z0.0369 F30.
G1 Z-0.0225
G1 X12.3167 Y4.1604 Z-0.0253 F6.1
G1 X12.3163 Y4.1612 Z-0.0279
G1 X12.3155 Y4.1625 Z-0.0303
G1 X12.3145 Y4.1643 Z-0.0323
G1 X12.3134 Y4.1663 Z-0.0338
G1 X12.312 Y4.1686 Z-0.0347
G1 X12.3107 Y4.171 Z-0.035
G1 X12.3045 Y4.1819
G1 X12.1383 Y4.4727
G1 X8.5137
G1 Y4.0929
G1 X9.2883 Y3.3182
G1 X12.562
G1 Y3.7312
G1 X12.3045 Y4.1819
G1 X12.2983 Y4.1927
G1 X12.2969 Y4.1951 Z-0.0347
G1 X12.2956 Y4.1974 Z-0.0338
G1 X12.2944 Y4.1995 Z-0.0323
G1 X12.2934 Y4.2012 Z-0.0303
G1 X12.2927 Y4.2025 Z-0.0279
G1 X12.2922 Y4.2033 Z-0.0253
G1 X12.2921 Y4.2036 Z-0.0225
G0 Z0.2625
G0 X12.3169 Y4.1602
G1 Z0.0206 F30.
G1 Z-0.0388
G1 X12.3167 Y4.1604 Z-0.0415 F6.1
G1 X12.3163 Y4.1612 Z-0.0442
G1 X12.3155 Y4.1625 Z-0.0465
G1 X12.3145 Y4.1643 Z-0.0485
G1 X12.3134 Y4.1663 Z-0.05
G1 X12.312 Y4.1686 Z-0.0509
G1 X12.3107 Y4.171 Z-0.0512
G1 X12.3045 Y4.1819
G1 X12.1383 Y4.4727
G1 X8.5137
G1 Y4.0929
G1 X9.2883 Y3.3182
G1 X12.562
G1 Y3.7312
G1 X12.3045 Y4.1819
G1 X12.2983 Y4.1927
G1 X12.2969 Y4.1951 Z-0.0509
G1 X12.2956 Y4.1974 Z-0.05
G1 X12.2944 Y4.1995 Z-0.0485
G1 X12.2934 Y4.2012 Z-0.0465
G1 X12.2927 Y4.2025 Z-0.0442
G1 X12.2922 Y4.2033 Z-0.0415
G1 X12.2921 Y4.2036 Z-0.0388
G0 Z0.2625
G0 X12.3169 Y4.1602
G1 Z0.0044 F30.
G1 Z-0.055
G1 X12.3167 Y4.1604 Z-0.0578 F6.1
G1 X12.3163 Y4.1612 Z-0.0604
G1 X12.3155 Y4.1625 Z-0.0628
G1 X12.3145 Y4.1643 Z-0.0648
G1 X12.3134 Y4.1663 Z-0.0663
G1 X12.312 Y4.1686 Z-0.0672
G1 X12.3107 Y4.171 Z-0.0675
G1 X12.3045 Y4.1819
G1 X12.1383 Y4.4727
G1 X8.5137
G1 Y4.0929
G1 X9.2883 Y3.3182
G1 X12.562
G1 Y3.7312
G1 X12.3045 Y4.1819
G1 X12.2983 Y4.1927
G1 X12.2969 Y4.1951 Z-0.0672
G1 X12.2956 Y4.1974 Z-0.0663
G1 X12.2944 Y4.1995 Z-0.0648
G1 X12.2934 Y4.2012 Z-0.0628
G1 X12.2927 Y4.2025 Z-0.0604
G1 X12.2922 Y4.2033 Z-0.0578
G1 X12.2921 Y4.2036 Z-0.055
G0 Z0.2625
G0 X12.3169 Y4.1602
G1 Z-0.0119 F30.
G1 Z-0.0713
G1 X12.3167 Y4.1604 Z-0.074 F6.1
G1 X12.3163 Y4.1612 Z-0.0767
G1 X12.3155 Y4.1625 Z-0.079
G1 X12.3145 Y4.1643 Z-0.081
G1 X12.3134 Y4.1663 Z-0.0825
G1 X12.312 Y4.1686 Z-0.0834
G1 X12.3107 Y4.171 Z-0.0837
G1 X12.3045 Y4.1819
G1 X12.1383 Y4.4727
G1 X8.5137
G1 Y4.0929
G1 X9.2883 Y3.3182
G1 X12.562
G1 Y3.7312
G1 X12.3045 Y4.1819
G1 X12.2983 Y4.1927
G1 X12.2969 Y4.1951 Z-0.0834
G1 X12.2956 Y4.1974 Z-0.0825
G1 X12.2944 Y4.1995 Z-0.081
G1 X12.2934 Y4.2012 Z-0.079
G1 X12.2927 Y4.2025 Z-0.0767
G1 X12.2922 Y4.2033 Z-0.074
G1 X12.2921 Y4.2036 Z-0.0713
G0 Z0.2625
G0 X12.3169 Y4.1602
G1 Z-0.0281 F30.
G1 Z-0.0813
G1 X12.3167 Y4.1604 Z-0.084 F6.1
G1 X12.3163 Y4.1612 Z-0.0867
G1 X12.3155 Y4.1625 Z-0.089
G1 X12.3145 Y4.1643 Z-0.091
G1 X12.3134 Y4.1663 Z-0.0925
G1 X12.312 Y4.1686 Z-0.0934
G1 X12.3107 Y4.171 Z-0.0937
G1 X12.3045 Y4.1819
G1 X12.1383 Y4.4727
G1 X8.5137
G1 Y4.0929
G1 X9.2883 Y3.3182
G1 X12.562
G1 Y3.7312
G1 X12.3045 Y4.1819
G1 X12.2983 Y4.1927
G1 X12.2969 Y4.1951 Z-0.0934
G1 X12.2956 Y4.1974 Z-0.0925
G1 X12.2944 Y4.1995 Z-0.091
G1 X12.2934 Y4.2012 Z-0.089
G1 X12.2927 Y4.2025 Z-0.0867
G1 X12.2922 Y4.2033 Z-0.084
G1 X12.2921 Y4.2036 Z-0.0813
G0 Z0.2625
G0 X11.4225 Y2.6026
G1 Z0.1181 F30.
G1 Z0.0587
G1 X11.4222 Z0.056 F6.1
G1 X11.4213 Z0.0533
G1 X11.4198 Z0.051
G1 X11.4178 Z0.049
G1 X11.4154 Z0.0475
G1 X11.4128 Z0.0466
G1 X11.41 Z0.0462
G1 X11.3975
G1 X10.0039
G1 X11.1584 Y1.4481
G1 X12.562
G1 Y2.6026
G1 X11.3975
G1 X11.385
G1 X11.3822 Z0.0466
G1 X11.3796 Z0.0475
G1 X11.3772 Z0.049
G1 X11.3752 Z0.051
G1 X11.3738 Z0.0533
G1 X11.3728 Z0.056
G1 X11.3725 Z0.0587
G0 Z0.2625
G0 X11.4225
G1 Z0.1019 F30.
G1 Z0.0425
G1 X11.4222 Z0.0397 F6.1
G1 X11.4213 Z0.0371
G1 X11.4198 Z0.0347
G1 X11.4178 Z0.0327
G1 X11.4154 Z0.0312
G1 X11.4128 Z0.0303
G1 X11.41 Z0.03
G1 X11.3975
G1 X10.0039
G1 X11.1584 Y1.4481
G1 X12.562
G1 Y2.6026
G1 X11.3975
G1 X11.385
G1 X11.3822 Z0.0303
G1 X11.3796 Z0.0312
G1 X11.3772 Z0.0327
G1 X11.3752 Z0.0347
G1 X11.3738 Z0.0371
G1 X11.3728 Z0.0397
G1 X11.3725 Z0.0425
G0 Z0.2625
G0 X11.4225
G1 Z0.0856 F30.
G1 Z0.0262
G1 X11.4222 Z0.0235 F6.1
G1 X11.4213 Z0.0208
G1 X11.4198 Z0.0185
G1 X11.4178 Z0.0165
G1 X11.4154 Z0.015
G1 X11.4128 Z0.0141
G1 X11.41 Z0.0137
G1 X11.3975
G1 X10.0039
G1 X11.1584 Y1.4481
G1 X12.562
G1 Y2.6026
G1 X11.3975
G1 X11.385
G1 X11.3822 Z0.0141
G1 X11.3796 Z0.015
G1 X11.3772 Z0.0165
G1 X11.3752 Z0.0185
G1 X11.3738 Z0.0208
G1 X11.3728 Z0.0235
G1 X11.3725 Z0.0262
G0 Z0.2625
G0 X11.4225
G1 Z0.0694 F30.
G1 Z0.01
G1 X11.4222 Z0.0072 F6.1
G1 X11.4213 Z0.0046
G1 X11.4198 Z0.0022
G1 X11.4178 Z0.0002
G1 X11.4154 Z-0.0013
G1 X11.4128 Z-0.0022
G1 X11.41 Z-0.0025
G1 X11.3975
G1 X10.0039
G1 X11.1584 Y1.4481
G1 X12.562
G1 Y2.6026
G1 X11.3975
G1 X11.385
G1 X11.3822 Z-0.0022
G1 X11.3796 Z-0.0013
G1 X11.3772 Z0.0002
G1 X11.3752 Z0.0022
G1 X11.3738 Z0.0046
G1 X11.3728 Z0.0072
G1 X11.3725 Z0.01
G0 Z0.2625
G0 X11.4225
G1 Z0.0531 F30.
G1 Z-0.0063
G1 X11.4222 Z-0.009 F6.1
G1 X11.4213 Z-0.0117
G1 X11.4198 Z-0.014
G1 X11.4178 Z-0.016
G1 X11.4154 Z-0.0175
G1 X11.4128 Z-0.0184
G1 X11.41 Z-0.0187
G1 X11.3975
G1 X10.0039
G1 X11.1584 Y1.4481
G1 X12.562
G1 Y2.6026
G1 X11.3975
G1 X11.385
G1 X11.3822 Z-0.0184
G1 X11.3796 Z-0.0175
G1 X11.3772 Z-0.016
G1 X11.3752 Z-0.014
G1 X11.3738 Z-0.0117
G1 X11.3728 Z-0.009
G1 X11.3725 Z-0.0063
G0 Z0.2625
G0 X11.4225
G1 Z0.0369 F30.
G1 Z-0.0225
G1 X11.4222 Z-0.0253 F6.1
G1 X11.4213 Z-0.0279
G1 X11.4198 Z-0.0303
G1 X11.4178 Z-0.0323
G1 X11.4154 Z-0.0338
G1 X11.4128 Z-0.0347
G1 X11.41 Z-0.035
G1 X11.3975
G1 X10.0039
G1 X11.1584 Y1.4481
G1 X12.562
G1 Y2.6026
G1 X11.3975
G1 X11.385
G1 X11.3822 Z-0.0347
G1 X11.3796 Z-0.0338
G1 X11.3772 Z-0.0323
G1 X11.3752 Z-0.0303
G1 X11.3738 Z-0.0279
G1 X11.3728 Z-0.0253
G1 X11.3725 Z-0.0225
G0 Z0.2625
G0 X11.4225
G1 Z0.0206 F30.
G1 Z-0.0388
G1 X11.4222 Z-0.0415 F6.1
G1 X11.4213 Z-0.0442
G1 X11.4198 Z-0.0465
G1 X11.4178 Z-0.0485
G1 X11.4154 Z-0.05
G1 X11.4128 Z-0.0509
G1 X11.41 Z-0.0512
G1 X11.3975
G1 X10.0039
G1 X11.1584 Y1.4481
G1 X12.562
G1 Y2.6026
G1 X11.3975
G1 X11.385
G1 X11.3822 Z-0.0509
G1 X11.3796 Z-0.05
G1 X11.3772 Z-0.0485
G1 X11.3752 Z-0.0465
G1 X11.3738 Z-0.0442
G1 X11.3728 Z-0.0415
G1 X11.3725 Z-0.0388
G0 Z0.2625
G0 X11.4225
G1 Z0.0044 F30.
G1 Z-0.055
G1 X11.4222 Z-0.0578 F6.1
G1 X11.4213 Z-0.0604
G1 X11.4198 Z-0.0628
G1 X11.4178 Z-0.0648
G1 X11.4154 Z-0.0663
G1 X11.4128 Z-0.0672
G1 X11.41 Z-0.0675
G1 X11.3975
G1 X10.0039
G1 X11.1584 Y1.4481
G1 X12.562
G1 Y2.6026
G1 X11.3975
G1 X11.385
G1 X11.3822 Z-0.0672
G1 X11.3796 Z-0.0663
G1 X11.3772 Z-0.0648
G1 X11.3752 Z-0.0628
G1 X11.3738 Z-0.0604
G1 X11.3728 Z-0.0578
G1 X11.3725 Z-0.055
G0 Z0.2625
G0 X11.4225
G1 Z-0.0119 F30.
G1 Z-0.0713
G1 X11.4222 Z-0.074 F6.1
G1 X11.4213 Z-0.0767
G1 X11.4198 Z-0.079
G1 X11.4178 Z-0.081
G1 X11.4154 Z-0.0825
G1 X11.4128 Z-0.0834
G1 X11.41 Z-0.0837
G1 X11.3975
G1 X10.0039
G1 X11.1584 Y1.4481
G1 X12.562
G1 Y2.6026
G1 X11.3975
G1 X11.385
G1 X11.3822 Z-0.0834
G1 X11.3796 Z-0.0825
G1 X11.3772 Z-0.081
G1 X11.3752 Z-0.079
G1 X11.3738 Z-0.0767
G1 X11.3728 Z-0.074
G1 X11.3725 Z-0.0713
G0 Z0.2625
G0 X11.4225
G1 Z-0.0281 F30.
G1 Z-0.0813
G1 X11.4222 Z-0.084 F6.1
G1 X11.4213 Z-0.0867
G1 X11.4198 Z-0.089
G1 X11.4178 Z-0.091
G1 X11.4154 Z-0.0925
G1 X11.4128 Z-0.0934
G1 X11.41 Z-0.0937
G1 X11.3975
G1 X10.0039
G1 X11.1584 Y1.4481
G1 X12.562
G1 Y2.6026
G1 X11.3975
G1 X11.385
G1 X11.3822 Z-0.0934
G1 X11.3796 Z-0.0925
G1 X11.3772 Z-0.091
G1 X11.3752 Z-0.089
G1 X11.3738 Z-0.0867
G1 X11.3728 Z-0.084
G1 X11.3725 Z-0.0813
G0 Z0.2625
G0 X9.3478 Y2.2468
G1 Z0.1181 F30.
G1 Z0.0587
G1 X9.3475 Y2.2471 Z0.056 F6.1
G1 X9.3469 Y2.2477 Z0.0533
G1 X9.3458 Y2.2488 Z0.051
G1 X9.3444 Y2.2502 Z0.049
G1 X9.3428 Y2.2518 Z0.0475
G1 X9.3409 Y2.2537 Z0.0466
G1 X9.3389 Y2.2557 Z0.0462
G1 X9.3301 Y2.2645
G1 X8.5137 Y3.0809
G1 Y1.4481
G1 X10.1465
G1 X9.3301 Y2.2645
G1 X9.3212 Y2.2734
G1 X9.3193 Y2.2753 Z0.0466
G1 X9.3174 Y2.2772 Z0.0475
G1 X9.3157 Y2.2789 Z0.049
G1 X9.3143 Y2.2803 Z0.051
G1 X9.3133 Y2.2813 Z0.0533
G1 X9.3126 Y2.282 Z0.056
G1 X9.3124 Y2.2822 Z0.0587
G0 Z0.2625
G0 X9.3478 Y2.2468
G1 Z0.1019 F30.
G1 Z0.0425
G1 X9.3475 Y2.2471 Z0.0397 F6.1
G1 X9.3469 Y2.2477 Z0.0371
G1 X9.3458 Y2.2488 Z0.0347
G1 X9.3444 Y2.2502 Z0.0327
G1 X9.3428 Y2.2518 Z0.0312
G1 X9.3409 Y2.2537 Z0.0303
G1 X9.3389 Y2.2557 Z0.03
G1 X9.3301 Y2.2645
G1 X8.5137 Y3.0809
G1 Y1.4481
G1 X10.1465
G1 X9.3301 Y2.2645
G1 X9.3212 Y2.2734
G1 X9.3193 Y2.2753 Z0.0303
G1 X9.3174 Y2.2772 Z0.0312
G1 X9.3157 Y2.2789 Z0.0327
G1 X9.3143 Y2.2803 Z0.0347
G1 X9.3133 Y2.2813 Z0.0371
G1 X9.3126 Y2.282 Z0.0397
G1 X9.3124 Y2.2822 Z0.0425
G0 Z0.2625
G0 X9.3478 Y2.2468
G1 Z0.0856 F30.
G1 Z0.0262
G1 X9.3475 Y2.2471 Z0.0235 F6.1
G1 X9.3469 Y2.2477 Z0.0208
G1 X9.3458 Y2.2488 Z0.0185
G1 X9.3444 Y2.2502 Z0.0165
G1 X9.3428 Y2.2518 Z0.015
G1 X9.3409 Y2.2537 Z0.0141
G1 X9.3389 Y2.2557 Z0.0137
G1 X9.3301 Y2.2645
G1 X8.5137 Y3.0809
G1 Y1.4481
G1 X10.1465
G1 X9.3301 Y2.2645
G1 X9.3212 Y2.2734
G1 X9.3193 Y2.2753 Z0.0141
G1 X9.3174 Y2.2772 Z0.015
G1 X9.3157 Y2.2789 Z0.0165
G1 X9.3143 Y2.2803 Z0.0185
G1 X9.3133 Y2.2813 Z0.0208
G1 X9.3126 Y2.282 Z0.0235
G1 X9.3124 Y2.2822 Z0.0262
G0 Z0.2625
G0 X9.3478 Y2.2468
G1 Z0.0694 F30.
G1 Z0.01
G1 X9.3475 Y2.2471 Z0.0072 F6.1
G1 X9.3469 Y2.2477 Z0.0046
G1 X9.3458 Y2.2488 Z0.0022
G1 X9.3444 Y2.2502 Z0.0002
G1 X9.3428 Y2.2518 Z-0.0013
G1 X9.3409 Y2.2537 Z-0.0022
G1 X9.3389 Y2.2557 Z-0.0025
G1 X9.3301 Y2.2645
G1 X8.5137 Y3.0809
G1 Y1.4481
G1 X10.1465
G1 X9.3301 Y2.2645
G1 X9.3212 Y2.2734
G1 X9.3193 Y2.2753 Z-0.0022
G1 X9.3174 Y2.2772 Z-0.0013
G1 X9.3157 Y2.2789 Z0.0002
G1 X9.3143 Y2.2803 Z0.0022
G1 X9.3133 Y2.2813 Z0.0046
G1 X9.3126 Y2.282 Z0.0072
G1 X9.3124 Y2.2822 Z0.01
G0 Z0.2625
G0 X9.3478 Y2.2468
G1 Z0.0531 F30.
G1 Z-0.0063
G1 X9.3475 Y2.2471 Z-0.009 F6.1
G1 X9.3469 Y2.2477 Z-0.0117
G1 X9.3458 Y2.2488 Z-0.014
G1 X9.3444 Y2.2502 Z-0.016
G1 X9.3428 Y2.2518 Z-0.0175
G1 X9.3409 Y2.2537 Z-0.0184
G1 X9.3389 Y2.2557 Z-0.0187
G1 X9.3301 Y2.2645
G1 X8.5137 Y3.0809
G1 Y1.4481
G1 X10.1465
G1 X9.3301 Y2.2645
G1 X9.3212 Y2.2734
G1 X9.3193 Y2.2753 Z-0.0184
G1 X9.3174 Y2.2772 Z-0.0175
G1 X9.3157 Y2.2789 Z-0.016
G1 X9.3143 Y2.2803 Z-0.014
G1 X9.3133 Y2.2813 Z-0.0117
G1 X9.3126 Y2.282 Z-0.009
G1 X9.3124 Y2.2822 Z-0.0063
G0 Z0.2625
G0 X9.3478 Y2.2468
G1 Z0.0369 F30.
G1 Z-0.0225
G1 X9.3475 Y2.2471 Z-0.0253 F6.1
G1 X9.3469 Y2.2477 Z-0.0279
G1 X9.3458 Y2.2488 Z-0.0303
G1 X9.3444 Y2.2502 Z-0.0323
G1 X9.3428 Y2.2518 Z-0.0338
G1 X9.3409 Y2.2537 Z-0.0347
G1 X9.3389 Y2.2557 Z-0.035
G1 X9.3301 Y2.2645
G1 X8.5137 Y3.0809
G1 Y1.4481
G1 X10.1465
G1 X9.3301 Y2.2645
G1 X9.3212 Y2.2734
G1 X9.3193 Y2.2753 Z-0.0347
G1 X9.3174 Y2.2772 Z-0.0338
G1 X9.3157 Y2.2789 Z-0.0323
G1 X9.3143 Y2.2803 Z-0.0303
G1 X9.3133 Y2.2813 Z-0.0279
G1 X9.3126 Y2.282 Z-0.0253
G1 X9.3124 Y2.2822 Z-0.0225
G0 Z0.2625
G0 X9.3478 Y2.2468
G1 Z0.0206 F30.
G1 Z-0.0388
G1 X9.3475 Y2.2471 Z-0.0415 F6.1
G1 X9.3469 Y2.2477 Z-0.0442
G1 X9.3458 Y2.2488 Z-0.0465
G1 X9.3444 Y2.2502 Z-0.0485
G1 X9.3428 Y2.2518 Z-0.05
G1 X9.3409 Y2.2537 Z-0.0509
G1 X9.3389 Y2.2557 Z-0.0512
G1 X9.3301 Y2.2645
G1 X8.5137 Y3.0809
G1 Y1.4481
G1 X10.1465
G1 X9.3301 Y2.2645
G1 X9.3212 Y2.2734
G1 X9.3193 Y2.2753 Z-0.0509
G1 X9.3174 Y2.2772 Z-0.05
G1 X9.3157 Y2.2789 Z-0.0485
G1 X9.3143 Y2.2803 Z-0.0465
G1 X9.3133 Y2.2813 Z-0.0442
G1 X9.3126 Y2.282 Z-0.0415
G1 X9.3124 Y2.2822 Z-0.0388
G0 Z0.2625
G0 X9.3478 Y2.2468
G1 Z0.0044 F30.
G1 Z-0.055
G1 X9.3475 Y2.2471 Z-0.0578 F6.1
G1 X9.3469 Y2.2477 Z-0.0604
G1 X9.3458 Y2.2488 Z-0.0628
G1 X9.3444 Y2.2502 Z-0.0648
G1 X9.3428 Y2.2518 Z-0.0663
G1 X9.3409 Y2.2537 Z-0.0672
G1 X9.3389 Y2.2557 Z-0.0675
G1 X9.3301 Y2.2645
G1 X8.5137 Y3.0809
G1 Y1.4481
G1 X10.1465
G1 X9.3301 Y2.2645
G1 X9.3212 Y2.2734
G1 X9.3193 Y2.2753 Z-0.0672
G1 X9.3174 Y2.2772 Z-0.0663
G1 X9.3157 Y2.2789 Z-0.0648
G1 X9.3143 Y2.2803 Z-0.0628
G1 X9.3133 Y2.2813 Z-0.0604
G1 X9.3126 Y2.282 Z-0.0578
G1 X9.3124 Y2.2822 Z-0.055
G0 Z0.2625
G0 X9.3478 Y2.2468
G1 Z-0.0119 F30.
G1 Z-0.0713
G1 X9.3475 Y2.2471 Z-0.074 F6.1
G1 X9.3469 Y2.2477 Z-0.0767
G1 X9.3458 Y2.2488 Z-0.079
G1 X9.3444 Y2.2502 Z-0.081
G1 X9.3428 Y2.2518 Z-0.0825
G1 X9.3409 Y2.2537 Z-0.0834
G1 X9.3389 Y2.2557 Z-0.0837
G1 X9.3301 Y2.2645
G1 X8.5137 Y3.0809
G1 Y1.4481
G1 X10.1465
G1 X9.3301 Y2.2645
G1 X9.3212 Y2.2734
G1 X9.3193 Y2.2753 Z-0.0834
G1 X9.3174 Y2.2772 Z-0.0825
G1 X9.3157 Y2.2789 Z-0.081
G1 X9.3143 Y2.2803 Z-0.079
G1 X9.3133 Y2.2813 Z-0.0767
G1 X9.3126 Y2.282 Z-0.074
G1 X9.3124 Y2.2822 Z-0.0713
G0 Z0.2625
G0 X9.3478 Y2.2468
G1 Z-0.0281 F30.
G1 Z-0.0813
G1 X9.3475 Y2.2471 Z-0.084 F6.1
G1 X9.3469 Y2.2477 Z-0.0867
G1 X9.3458 Y2.2488 Z-0.089
G1 X9.3444 Y2.2502 Z-0.091
G1 X9.3428 Y2.2518 Z-0.0925
G1 X9.3409 Y2.2537 Z-0.0934
G1 X9.3389 Y2.2557 Z-0.0937
G1 X9.3301 Y2.2645
G1 X8.5137 Y3.0809
G1 Y1.4481
G1 X10.1465
G1 X9.3301 Y2.2645
G1 X9.3212 Y2.2734
G1 X9.3193 Y2.2753 Z-0.0934
G1 X9.3174 Y2.2772 Z-0.0925
G1 X9.3157 Y2.2789 Z-0.091
G1 X9.3143 Y2.2803 Z-0.089
G1 X9.3133 Y2.2813 Z-0.0867
G1 X9.3126 Y2.282 Z-0.084
G1 X9.3124 Y2.2822 Z-0.0813
G0 Z0.2625
G0 X7.7981 Y1.9241
G1 Z0.1181 F30.
G1 Z0.0587
G1 Y1.9244 Z0.056 F6.1
G1 Y1.9254 Z0.0533
G1 Y1.9268 Z0.051
G1 Y1.9288 Z0.049
G1 Y1.9312 Z0.0475
G1 Y1.9338 Z0.0466
G1 Y1.9366 Z0.0462
G1 Y1.9491
G1 Y3.1134
G1 X6.0393 Y1.4481
G1 X7.7981
G1 Y1.9491
G1 Y1.9616
G1 Y1.9644 Z0.0466
G1 Y1.967 Z0.0475
G1 Y1.9694 Z0.049
G1 Y1.9714 Z0.051
G1 Y1.9729 Z0.0533
G1 Y1.9738 Z0.056
G1 Y1.9741 Z0.0587
G0 Z0.2625
G0 Y1.9241
G1 Z0.1019 F30.
G1 Z0.0425
G1 Y1.9244 Z0.0397 F6.1
G1 Y1.9254 Z0.0371
G1 Y1.9268 Z0.0347
G1 Y1.9288 Z0.0327
G1 Y1.9312 Z0.0312
G1 Y1.9338 Z0.0303
G1 Y1.9366 Z0.03
G1 Y1.9491
G1 Y3.1134
G1 X6.0393 Y1.4481
G1 X7.7981
G1 Y1.9491
G1 Y1.9616
G1 Y1.9644 Z0.0303
G1 Y1.967 Z0.0312
G1 Y1.9694 Z0.0327
G1 Y1.9714 Z0.0347
G1 Y1.9729 Z0.0371
G1 Y1.9738 Z0.0397
G1 Y1.9741 Z0.0425
G0 Z0.2625
G0 Y1.9241
G1 Z0.0856 F30.
G1 Z0.0262
G1 Y1.9244 Z0.0235 F6.1
G1 Y1.9254 Z0.0208
G1 Y1.9268 Z0.0185
G1 Y1.9288 Z0.0165
G1 Y1.9312 Z0.015
G1 Y1.9338 Z0.0141
G1 Y1.9366 Z0.0137
G1 Y1.9491
G1 Y3.1134
G1 X6.0393 Y1.4481
G1 X7.7981
G1 Y1.9491
G1 Y1.9616
G1 Y1.9644 Z0.0141
G1 Y1.967 Z0.015
G1 Y1.9694 Z0.0165
G1 Y1.9714 Z0.0185
G1 Y1.9729 Z0.0208
G1 Y1.9738 Z0.0235
G1 Y1.9741 Z0.0262
G0 Z0.2625
G0 Y1.9241
G1 Z0.0694 F30.
G1 Z0.01
G1 Y1.9244 Z0.0072 F6.1
G1 Y1.9254 Z0.0046
G1 Y1.9268 Z0.0022
G1 Y1.9288 Z0.0002
G1 Y1.9312 Z-0.0013
G1 Y1.9338 Z-0.0022
G1 Y1.9366 Z-0.0025
G1 Y1.9491
G1 Y3.1134
G1 X6.0393 Y1.4481
G1 X7.7981
G1 Y1.9491
G1 Y1.9616
G1 Y1.9644 Z-0.0022
G1 Y1.967 Z-0.0013
G1 Y1.9694 Z0.0002
G1 Y1.9714 Z0.0022
G1 Y1.9729 Z0.0046
G1 Y1.9738 Z0.0072
G1 Y1.9741 Z0.01
G0 Z0.2625
G0 Y1.9241
G1 Z0.0531 F30.
G1 Z-0.0063
G1 Y1.9244 Z-0.009 F6.1
G1 Y1.9254 Z-0.0117
G1 Y1.9268 Z-0.014
G1 Y1.9288 Z-0.016
G1 Y1.9312 Z-0.0175
G1 Y1.9338 Z-0.0184
G1 Y1.9366 Z-0.0187
G1 Y1.9491
G1 Y3.1134
G1 X6.0393 Y1.4481
G1 X7.7981
G1 Y1.9491
G1 Y1.9616
G1 Y1.9644 Z-0.0184
G1 Y1.967 Z-0.0175
G1 Y1.9694 Z-0.016
G1 Y1.9714 Z-0.014
G1 Y1.9729 Z-0.0117
G1 Y1.9738 Z-0.009
G1 Y1.9741 Z-0.0063
G0 Z0.2625
G0 Y1.9241
G1 Z0.0369 F30.
G1 Z-0.0225
G1 Y1.9244 Z-0.0253 F6.1
G1 Y1.9254 Z-0.0279
G1 Y1.9268 Z-0.0303
G1 Y1.9288 Z-0.0323
G1 Y1.9312 Z-0.0338
G1 Y1.9338 Z-0.0347
G1 Y1.9366 Z-0.035
G1 Y1.9491
G1 Y3.1134
G1 X6.0393 Y1.4481
G1 X7.7981
G1 Y1.9491
G1 Y1.9616
G1 Y1.9644 Z-0.0347
G1 Y1.967 Z-0.0338
G1 Y1.9694 Z-0.0323
G1 Y1.9714 Z-0.0303
G1 Y1.9729 Z-0.0279
G1 Y1.9738 Z-0.0253
G1 Y1.9741 Z-0.0225
G0 Z0.2625
G0 Y1.9241
G1 Z0.0206 F30.
G1 Z-0.0388
G1 Y1.9244 Z-0.0415 F6.1
G1 Y1.9254 Z-0.0442
G1 Y1.9268 Z-0.0465
G1 Y1.9288 Z-0.0485
G1 Y1.9312 Z-0.05
G1 Y1.9338 Z-0.0509
G1 Y1.9366 Z-0.0512
G1 Y1.9491
G1 Y3.1134
G1 X6.0393 Y1.4481
G1 X7.7981
G1 Y1.9491
G1 Y1.9616
G1 Y1.9644 Z-0.0509
G1 Y1.967 Z-0.05
G1 Y1.9694 Z-0.0485
G1 Y1.9714 Z-0.0465
G1 Y1.9729 Z-0.0442
G1 Y1.9738 Z-0.0415
G1 Y1.9741 Z-0.0388
G0 Z0.2625
G0 Y1.9241
G1 Z0.0044 F30.
G1 Z-0.055
G1 Y1.9244 Z-0.0578 F6.1
G1 Y1.9254 Z-0.0604
G1 Y1.9268 Z-0.0628
G1 Y1.9288 Z-0.0648
G1 Y1.9312 Z-0.0663
G1 Y1.9338 Z-0.0672
G1 Y1.9366 Z-0.0675
G1 Y1.9491
G1 Y3.1134
G1 X6.0393 Y1.4481
G1 X7.7981
G1 Y1.9491
G1 Y1.9616
G1 Y1.9644 Z-0.0672
G1 Y1.967 Z-0.0663
G1 Y1.9694 Z-0.0648
G1 Y1.9714 Z-0.0628
G1 Y1.9729 Z-0.0604
G1 Y1.9738 Z-0.0578
G1 Y1.9741 Z-0.055
G0 Z0.2625
G0 Y1.9241
G1 Z-0.0119 F30.
G1 Z-0.0713
G1 Y1.9244 Z-0.074 F6.1
G1 Y1.9254 Z-0.0767
G1 Y1.9268 Z-0.079
G1 Y1.9288 Z-0.081
G1 Y1.9312 Z-0.0825
G1 Y1.9338 Z-0.0834
G1 Y1.9366 Z-0.0837
G1 Y1.9491
G1 Y3.1134
G1 X6.0393 Y1.4481
G1 X7.7981
G1 Y1.9491
G1 Y1.9616
G1 Y1.9644 Z-0.0834
G1 Y1.967 Z-0.0825
G1 Y1.9694 Z-0.081
G1 Y1.9714 Z-0.079
G1 Y1.9729 Z-0.0767
G1 Y1.9738 Z-0.074
G1 Y1.9741 Z-0.0713
G0 Z0.2625
G0 Y1.9241
G1 Z-0.0281 F30.
G1 Z-0.0813
G1 Y1.9244 Z-0.084 F6.1
G1 Y1.9254 Z-0.0867
G1 Y1.9268 Z-0.089
G1 Y1.9288 Z-0.091
G1 Y1.9312 Z-0.0925
G1 Y1.9338 Z-0.0934
G1 Y1.9366 Z-0.0937
G1 Y1.9491
G1 Y3.1134
G1 X6.0393 Y1.4481
G1 X7.7981
G1 Y1.9491
G1 Y1.9616
G1 Y1.9644 Z-0.0934
G1 Y1.967 Z-0.0925
G1 Y1.9694 Z-0.091
G1 Y1.9714 Z-0.089
G1 Y1.9729 Z-0.0867
G1 Y1.9738 Z-0.084
G1 Y1.9741 Z-0.0813
G0 Z0.2625
G0 X5.9454 Y3.3182
G1 Z0.1181 F30.
G1 Z0.0587
G1 X5.9457 Z0.056 F6.1
G1 X5.9467 Z0.0533
G1 X5.9482 Z0.051
G1 X5.9501 Z0.049
G1 X5.9525 Z0.0475
G1 X5.9552 Z0.0466
G1 X5.9579 Z0.0462
G1 X5.9704
G1 X7.0234
G1 X7.7981 Y4.0929
G1 Y4.4727
G1 X5.7313
G1 X4.5768 Y3.3182
G1 X5.9704
G1 X5.9829
G1 X5.9857 Z0.0466
G1 X5.9884 Z0.0475
G1 X5.9907 Z0.049
G1 X5.9927 Z0.051
G1 X5.9942 Z0.0533
G1 X5.9951 Z0.056
G1 X5.9954 Z0.0587
G0 Z0.2625
G0 X5.9454
G1 Z0.1019 F30.
G1 Z0.0425
G1 X5.9457 Z0.0397 F6.1
G1 X5.9467 Z0.0371
G1 X5.9482 Z0.0347
G1 X5.9501 Z0.0327
G1 X5.9525 Z0.0312
G1 X5.9552 Z0.0303
G1 X5.9579 Z0.03
G1 X5.9704
G1 X7.0234
G1 X7.7981 Y4.0929
G1 Y4.4727
G1 X5.7313
G1 X4.5768 Y3.3182
G1 X5.9704
G1 X5.9829
G1 X5.9857 Z0.0303
G1 X5.9884 Z0.0312
G1 X5.9907 Z0.0327
G1 X5.9927 Z0.0347
G1 X5.9942 Z0.0371
G1 X5.9951 Z0.0397
G1 X5.9954 Z0.0425
G0 Z0.2625
G0 X5.9454
G1 Z0.0856 F30.
G1 Z0.0262
G1 X5.9457 Z0.0235 F6.1
G1 X5.9467 Z0.0208
G1 X5.9482 Z0.0185
G1 X5.9501 Z0.0165
G1 X5.9525 Z0.015
G1 X5.9552 Z0.0141
G1 X5.9579 Z0.0137
G1 X5.9704
G1 X7.0234
G1 X7.7981 Y4.0929
G1 Y4.4727
G1 X5.7313
G1 X4.5768 Y3.3182
G1 X5.9704
G1 X5.9829
G1 X5.9857 Z0.0141
G1 X5.9884 Z0.015
G1 X5.9907 Z0.0165
G1 X5.9927 Z0.0185
G1 X5.9942 Z0.0208
G1 X5.9951 Z0.0235
G1 X5.9954 Z0.0262
G0 Z0.2625
G0 X5.9454
G1 Z0.0694 F30.
G1 Z0.01
G1 X5.9457 Z0.0072 F6.1
G1 X5.9467 Z0.0046
G1 X5.9482 Z0.0022
G1 X5.9501 Z0.0002
G1 X5.9525 Z-0.0013
G1 X5.9552 Z-0.0022
G1 X5.9579 Z-0.0025
G1 X5.9704
G1 X7.0234
G1 X7.7981 Y4.0929
G1 Y4.4727
G1 X5.7313
G1 X4.5768 Y3.3182
G1 X5.9704
G1 X5.9829
G1 X5.9857 Z-0.0022
G1 X5.9884 Z-0.0013
G1 X5.9907 Z0.0002
G1 X5.9927 Z0.0022
G1 X5.9942 Z0.0046
G1 X5.9951 Z0.0072
G1 X5.9954 Z0.01
G0 Z0.2625
G0 X5.9454
G1 Z0.0531 F30.
G1 Z-0.0063
G1 X5.9457 Z-0.009 F6.1
G1 X5.9467 Z-0.0117
G1 X5.9482 Z-0.014
G1 X5.9501 Z-0.016
G1 X5.9525 Z-0.0175
G1 X5.9552 Z-0.0184
G1 X5.9579 Z-0.0187
G1 X5.9704
G1 X7.0234
G1 X7.7981 Y4.0929
G1 Y4.4727
G1 X5.7313
G1 X4.5768 Y3.3182
G1 X5.9704
G1 X5.9829
G1 X5.9857 Z-0.0184
G1 X5.9884 Z-0.0175
G1 X5.9907 Z-0.016
G1 X5.9927 Z-0.014
G1 X5.9942 Z-0.0117
G1 X5.9951 Z-0.009
G1 X5.9954 Z-0.0063
G0 Z0.2625
G0 X5.9454
G1 Z0.0369 F30.
G1 Z-0.0225
G1 X5.9457 Z-0.0253 F6.1
G1 X5.9467 Z-0.0279
G1 X5.9482 Z-0.0303
G1 X5.9501 Z-0.0323
G1 X5.9525 Z-0.0338
G1 X5.9552 Z-0.0347
G1 X5.9579 Z-0.035
G1 X5.9704
G1 X7.0234
G1 X7.7981 Y4.0929
G1 Y4.4727
G1 X5.7313
G1 X4.5768 Y3.3182
G1 X5.9704
G1 X5.9829
G1 X5.9857 Z-0.0347
G1 X5.9884 Z-0.0338
G1 X5.9907 Z-0.0323
G1 X5.9927 Z-0.0303
G1 X5.9942 Z-0.0279
G1 X5.9951 Z-0.0253
G1 X5.9954 Z-0.0225
G0 Z0.2625
G0 X5.9454
G1 Z0.0206 F30.
G1 Z-0.0388
G1 X5.9457 Z-0.0415 F6.1
G1 X5.9467 Z-0.0442
G1 X5.9482 Z-0.0465
G1 X5.9501 Z-0.0485
G1 X5.9525 Z-0.05
G1 X5.9552 Z-0.0509
G1 X5.9579 Z-0.0512
G1 X5.9704
G1 X7.0234
G1 X7.7981 Y4.0929
G1 Y4.4727
G1 X5.7313
G1 X4.5768 Y3.3182
G1 X5.9704
G1 X5.9829
G1 X5.9857 Z-0.0509
G1 X5.9884 Z-0.05
G1 X5.9907 Z-0.0485
G1 X5.9927 Z-0.0465
G1 X5.9942 Z-0.0442
G1 X5.9951 Z-0.0415
G1 X5.9954 Z-0.0388
G0 Z0.2625
G0 X5.9454
G1 Z0.0044 F30.
G1 Z-0.055
G1 X5.9457 Z-0.0578 F6.1
G1 X5.9467 Z-0.0604
G1 X5.9482 Z-0.0628
G1 X5.9501 Z-0.0648
G1 X5.9525 Z-0.0663
G1 X5.9552 Z-0.0672
G1 X5.9579 Z-0.0675
G1 X5.9704
G1 X7.0234
G1 X7.7981 Y4.0929
G1 Y4.4727
G1 X5.7313
G1 X4.5768 Y3.3182
G1 X5.9704
G1 X5.9829
G1 X5.9857 Z-0.0672
G1 X5.9884 Z-0.0663
G1 X5.9907 Z-0.0648
G1 X5.9927 Z-0.0628
G1 X5.9942 Z-0.0604
G1 X5.9951 Z-0.0578
G1 X5.9954 Z-0.055
G0 Z0.2625
G0 X5.9454
G1 Z-0.0119 F30.
G1 Z-0.0713
G1 X5.9457 Z-0.074 F6.1
G1 X5.9467 Z-0.0767
G1 X5.9482 Z-0.079
G1 X5.9501 Z-0.081
G1 X5.9525 Z-0.0825
G1 X5.9552 Z-0.0834
G1 X5.9579 Z-0.0837
G1 X5.9704
G1 X7.0234
G1 X7.7981 Y4.0929
G1 Y4.4727
G1 X5.7313
G1 X4.5768 Y3.3182
G1 X5.9704
G1 X5.9829
G1 X5.9857 Z-0.0834
G1 X5.9884 Z-0.0825
G1 X5.9907 Z-0.081
G1 X5.9927 Z-0.079
G1 X5.9942 Z-0.0767
G1 X5.9951 Z-0.074
G1 X5.9954 Z-0.0713
G0 Z0.2625
G0 X5.9454
G1 Z-0.0281 F30.
G1 Z-0.0813
G1 X5.9457 Z-0.084 F6.1
G1 X5.9467 Z-0.0867
G1 X5.9482 Z-0.089
G1 X5.9501 Z-0.091
G1 X5.9525 Z-0.0925
G1 X5.9552 Z-0.0934
G1 X5.9579 Z-0.0937
G1 X5.9704
G1 X7.0234
G1 X7.7981 Y4.0929
G1 Y4.4727
G1 X5.7313
G1 X4.5768 Y3.3182
G1 X5.9704
G1 X5.9829
G1 X5.9857 Z-0.0934
G1 X5.9884 Z-0.0925
G1 X5.9907 Z-0.091
G1 X5.9927 Z-0.089
G1 X5.9942 Z-0.0867
G1 X5.9951 Z-0.084
G1 X5.9954 Z-0.0813
G0 Z0.2625
G0 X5.3048 Y1.5995
G1 Z0.1181 F30.
G1 Z0.0587
G1 X5.305 Y1.5997 Z0.056 F6.1
G1 X5.3056 Y1.6004 Z0.0533
G1 X5.3067 Y1.6014 Z0.051
G1 X5.3081 Y1.6028 Z0.049
G1 X5.3098 Y1.6045 Z0.0475
G1 X5.3116 Y1.6064 Z0.0466
G1 X5.3136 Y1.6084 Z0.0462
G1 X5.3224 Y1.6172
G1 X6.3079 Y2.6026
G1 X3.8613
G1 X3.0866 Y1.828
G1 Y1.4481
G1 X5.1534
G1 X5.3224 Y1.6172
G1 X5.3313 Y1.626
G1 X5.3332 Y1.628 Z0.0466
G1 X5.3351 Y1.6299 Z0.0475
G1 X5.3368 Y1.6315 Z0.049
G1 X5.3382 Y1.6329 Z0.051
G1 X5.3392 Y1.634 Z0.0533
G1 X5.3399 Y1.6347 Z0.056
G1 X5.3401 Y1.6349 Z0.0587
G0 Z0.2625
G0 X5.3048 Y1.5995
G1 Z0.1019 F30.
G1 Z0.0425
G1 X5.305 Y1.5997 Z0.0397 F6.1
G1 X5.3056 Y1.6004 Z0.0371
G1 X5.3067 Y1.6014 Z0.0347
G1 X5.3081 Y1.6028 Z0.0327
G1 X5.3098 Y1.6045 Z0.0312
G1 X5.3116 Y1.6064 Z0.0303
G1 X5.3136 Y1.6084 Z0.03
G1 X5.3224 Y1.6172
G1 X6.3079 Y2.6026
G1 X3.8613
G1 X3.0866 Y1.828
G1 Y1.4481
G1 X5.1534
G1 X5.3224 Y1.6172
G1 X5.3313 Y1.626
G1 X5.3332 Y1.628 Z0.0303
G1 X5.3351 Y1.6299 Z0.0312
G1 X5.3368 Y1.6315 Z0.0327
G1 X5.3382 Y1.6329 Z0.0347
G1 X5.3392 Y1.634 Z0.0371
G1 X5.3399 Y1.6347 Z0.0397
G1 X5.3401 Y1.6349 Z0.0425
G0 Z0.2625
G0 X5.3048 Y1.5995
G1 Z0.0856 F30.
G1 Z0.0262
G1 X5.305 Y1.5997 Z0.0235 F6.1
G1 X5.3056 Y1.6004 Z0.0208
G1 X5.3067 Y1.6014 Z0.0185
G1 X5.3081 Y1.6028 Z0.0165
G1 X5.3098 Y1.6045 Z0.015
G1 X5.3116 Y1.6064 Z0.0141
G1 X5.3136 Y1.6084 Z0.0137
G1 X5.3224 Y1.6172
G1 X6.3079 Y2.6026
G1 X3.8613
G1 X3.0866 Y1.828
G1 Y1.4481
G1 X5.1534
G1 X5.3224 Y1.6172
G1 X5.3313 Y1.626
G1 X5.3332 Y1.628 Z0.0141
G1 X5.3351 Y1.6299 Z0.015
G1 X5.3368 Y1.6315 Z0.0165
G1 X5.3382 Y1.6329 Z0.0185
G1 X5.3392 Y1.634 Z0.0208
G1 X5.3399 Y1.6347 Z0.0235
G1 X5.3401 Y1.6349 Z0.0262
G0 Z0.2625
G0 X5.3048 Y1.5995
G1 Z0.0694 F30.
G1 Z0.01
G1 X5.305 Y1.5997 Z0.0072 F6.1
G1 X5.3056 Y1.6004 Z0.0046
G1 X5.3067 Y1.6014 Z0.0022
G1 X5.3081 Y1.6028 Z0.0002
G1 X5.3098 Y1.6045 Z-0.0013
G1 X5.3116 Y1.6064 Z-0.0022
G1 X5.3136 Y1.6084 Z-0.0025
G1 X5.3224 Y1.6172
G1 X6.3079 Y2.6026
G1 X3.8613
G1 X3.0866 Y1.828
G1 Y1.4481
G1 X5.1534
G1 X5.3224 Y1.6172
G1 X5.3313 Y1.626
G1 X5.3332 Y1.628 Z-0.0022
G1 X5.3351 Y1.6299 Z-0.0013
G1 X5.3368 Y1.6315 Z0.0002
G1 X5.3382 Y1.6329 Z0.0022
G1 X5.3392 Y1.634 Z0.0046
G1 X5.3399 Y1.6347 Z0.0072
G1 X5.3401 Y1.6349 Z0.01
G0 Z0.2625
G0 X5.3048 Y1.5995
G1 Z0.0531 F30.
G1 Z-0.0063
G1 X5.305 Y1.5997 Z-0.009 F6.1
G1 X5.3056 Y1.6004 Z-0.0117
G1 X5.3067 Y1.6014 Z-0.014
G1 X5.3081 Y1.6028 Z-0.016
G1 X5.3098 Y1.6045 Z-0.0175
G1 X5.3116 Y1.6064 Z-0.0184
G1 X5.3136 Y1.6084 Z-0.0187
G1 X5.3224 Y1.6172
G1 X6.3079 Y2.6026
G1 X3.8613
G1 X3.0866 Y1.828
G1 Y1.4481
G1 X5.1534
G1 X5.3224 Y1.6172
G1 X5.3313 Y1.626
G1 X5.3332 Y1.628 Z-0.0184
G1 X5.3351 Y1.6299 Z-0.0175
G1 X5.3368 Y1.6315 Z-0.016
G1 X5.3382 Y1.6329 Z-0.014
G1 X5.3392 Y1.634 Z-0.0117
G1 X5.3399 Y1.6347 Z-0.009
G1 X5.3401 Y1.6349 Z-0.0063
G0 Z0.2625
G0 X5.3048 Y1.5995
G1 Z0.0369 F30.
G1 Z-0.0225
G1 X5.305 Y1.5997 Z-0.0253 F6.1
G1 X5.3056 Y1.6004 Z-0.0279
G1 X5.3067 Y1.6014 Z-0.0303
G1 X5.3081 Y1.6028 Z-0.0323
G1 X5.3098 Y1.6045 Z-0.0338
G1 X5.3116 Y1.6064 Z-0.0347
G1 X5.3136 Y1.6084 Z-0.035
G1 X5.3224 Y1.6172
G1 X6.3079 Y2.6026
G1 X3.8613
G1 X3.0866 Y1.828
G1 Y1.4481
G1 X5.1534
G1 X5.3224 Y1.6172
G1 X5.3313 Y1.626
G1 X5.3332 Y1.628 Z-0.0347
G1 X5.3351 Y1.6299 Z-0.0338
G1 X5.3368 Y1.6315 Z-0.0323
G1 X5.3382 Y1.6329 Z-0.0303
G1 X5.3392 Y1.634 Z-0.0279
G1 X5.3399 Y1.6347 Z-0.0253
G1 X5.3401 Y1.6349 Z-0.0225
G0 Z0.2625
G0 X5.3048 Y1.5995
G1 Z0.0206 F30.
G1 Z-0.0388
G1 X5.305 Y1.5997 Z-0.0415 F6.1
G1 X5.3056 Y1.6004 Z-0.0442
G1 X5.3067 Y1.6014 Z-0.0465
G1 X5.3081 Y1.6028 Z-0.0485
G1 X5.3098 Y1.6045 Z-0.05
G1 X5.3116 Y1.6064 Z-0.0509
G1 X5.3136 Y1.6084 Z-0.0512
G1 X5.3224 Y1.6172
G1 X6.3079 Y2.6026
G1 X3.8613
G1 X3.0866 Y1.828
G1 Y1.4481
G1 X5.1534
G1 X5.3224 Y1.6172
G1 X5.3313 Y1.626
G1 X5.3332 Y1.628 Z-0.0509
G1 X5.3351 Y1.6299 Z-0.05
G1 X5.3368 Y1.6315 Z-0.0485
G1 X5.3382 Y1.6329 Z-0.0465
G1 X5.3392 Y1.634 Z-0.0442
G1 X5.3399 Y1.6347 Z-0.0415
G1 X5.3401 Y1.6349 Z-0.0388
G0 Z0.2625
G0 X5.3048 Y1.5995
G1 Z0.0044 F30.
G1 Z-0.055
G1 X5.305 Y1.5997 Z-0.0578 F6.1
G1 X5.3056 Y1.6004 Z-0.0604
G1 X5.3067 Y1.6014 Z-0.0628
G1 X5.3081 Y1.6028 Z-0.0648
G1 X5.3098 Y1.6045 Z-0.0663
G1 X5.3116 Y1.6064 Z-0.0672
G1 X5.3136 Y1.6084 Z-0.0675
G1 X5.3224 Y1.6172
G1 X6.3079 Y2.6026
G1 X3.8613
G1 X3.0866 Y1.828
G1 Y1.4481
G1 X5.1534
G1 X5.3224 Y1.6172
G1 X5.3313 Y1.626
G1 X5.3332 Y1.628 Z-0.0672
G1 X5.3351 Y1.6299 Z-0.0663
G1 X5.3368 Y1.6315 Z-0.0648
G1 X5.3382 Y1.6329 Z-0.0628
G1 X5.3392 Y1.634 Z-0.0604
G1 X5.3399 Y1.6347 Z-0.0578
G1 X5.3401 Y1.6349 Z-0.055
G0 Z0.2625
G0 X5.3048 Y1.5995
G1 Z-0.0119 F30.
G1 Z-0.0713
G1 X5.305 Y1.5997 Z-0.074 F6.1
G1 X5.3056 Y1.6004 Z-0.0767
G1 X5.3067 Y1.6014 Z-0.079
G1 X5.3081 Y1.6028 Z-0.081
G1 X5.3098 Y1.6045 Z-0.0825
G1 X5.3116 Y1.6064 Z-0.0834
G1 X5.3136 Y1.6084 Z-0.0837
G1 X5.3224 Y1.6172
G1 X6.3079 Y2.6026
G1 X3.8613
G1 X3.0866 Y1.828
G1 Y1.4481
G1 X5.1534
G1 X5.3224 Y1.6172
G1 X5.3313 Y1.626
G1 X5.3332 Y1.628 Z-0.0834
G1 X5.3351 Y1.6299 Z-0.0825
G1 X5.3368 Y1.6315 Z-0.081
G1 X5.3382 Y1.6329 Z-0.079
G1 X5.3392 Y1.634 Z-0.0767
G1 X5.3399 Y1.6347 Z-0.074
G1 X5.3401 Y1.6349 Z-0.0713
G0 Z0.2625
G0 X5.3048 Y1.5995
G1 Z-0.0281 F30.
G1 Z-0.0813
G1 X5.305 Y1.5997 Z-0.084 F6.1
G1 X5.3056 Y1.6004 Z-0.0867
G1 X5.3067 Y1.6014 Z-0.089
G1 X5.3081 Y1.6028 Z-0.091
G1 X5.3098 Y1.6045 Z-0.0925
G1 X5.3116 Y1.6064 Z-0.0934
G1 X5.3136 Y1.6084 Z-0.0937
G1 X5.3224 Y1.6172
G1 X6.3079 Y2.6026
G1 X3.8613
G1 X3.0866 Y1.828
G1 Y1.4481
G1 X5.1534
G1 X5.3224 Y1.6172
G1 X5.3313 Y1.626
G1 X5.3332 Y1.628 Z-0.0934
G1 X5.3351 Y1.6299 Z-0.0925
G1 X5.3368 Y1.6315 Z-0.091
G1 X5.3382 Y1.6329 Z-0.089
G1 X5.3392 Y1.634 Z-0.0867
G1 X5.3399 Y1.6347 Z-0.084
G1 X5.3401 Y1.6349 Z-0.0813
G0 Z0.2625
G0 X3.8853 Y3.6387
G1 Z0.1181 F30.
G1 Z0.0587
G1 X3.8855 Y3.6389 Z0.056 F6.1
G1 X3.8862 Y3.6395 Z0.0533
G1 X3.8872 Y3.6406 Z0.051
G1 X3.8886 Y3.642 Z0.049
G1 X3.8903 Y3.6437 Z0.0475
G1 X3.8922 Y3.6455 Z0.0466
G1 X3.8942 Y3.6475 Z0.0462
G1 X3.903 Y3.6563
G1 X4.7194 Y4.4727
G1 X3.0866
G1 Y2.8399
G1 X3.903 Y3.6563
G1 X3.9118 Y3.6652
G1 X3.9138 Y3.6671 Z0.0466
G1 X3.9157 Y3.669 Z0.0475
G1 X3.9173 Y3.6707 Z0.049
G1 X3.9187 Y3.6721 Z0.051
G1 X3.9198 Y3.6731 Z0.0533
G1 X3.9205 Y3.6738 Z0.056
G1 X3.9207 Y3.674 Z0.0587
G0 Z0.2625
G0 X3.8853 Y3.6387
G1 Z0.1019 F30.
G1 Z0.0425
G1 X3.8855 Y3.6389 Z0.0397 F6.1
G1 X3.8862 Y3.6395 Z0.0371
G1 X3.8872 Y3.6406 Z0.0347
G1 X3.8886 Y3.642 Z0.0327
G1 X3.8903 Y3.6437 Z0.0312
G1 X3.8922 Y3.6455 Z0.0303
G1 X3.8942 Y3.6475 Z0.03
G1 X3.903 Y3.6563
G1 X4.7194 Y4.4727
G1 X3.0866
G1 Y2.8399
G1 X3.903 Y3.6563
G1 X3.9118 Y3.6652
G1 X3.9138 Y3.6671 Z0.0303
G1 X3.9157 Y3.669 Z0.0312
G1 X3.9173 Y3.6707 Z0.0327
G1 X3.9187 Y3.6721 Z0.0347
G1 X3.9198 Y3.6731 Z0.0371
G1 X3.9205 Y3.6738 Z0.0397
G1 X3.9207 Y3.674 Z0.0425
G0 Z0.2625
G0 X3.8853 Y3.6387
G1 Z0.0856 F30.
G1 Z0.0262
G1 X3.8855 Y3.6389 Z0.0235 F6.1
G1 X3.8862 Y3.6395 Z0.0208
G1 X3.8872 Y3.6406 Z0.0185
G1 X3.8886 Y3.642 Z0.0165
G1 X3.8903 Y3.6437 Z0.015
G1 X3.8922 Y3.6455 Z0.0141
G1 X3.8942 Y3.6475 Z0.0137
G1 X3.903 Y3.6563
G1 X4.7194 Y4.4727
G1 X3.0866
G1 Y2.8399
G1 X3.903 Y3.6563
G1 X3.9118 Y3.6652
G1 X3.9138 Y3.6671 Z0.0141
G1 X3.9157 Y3.669 Z0.015
G1 X3.9173 Y3.6707 Z0.0165
G1 X3.9187 Y3.6721 Z0.0185
G1 X3.9198 Y3.6731 Z0.0208
G1 X3.9205 Y3.6738 Z0.0235
G1 X3.9207 Y3.674 Z0.0262
G0 Z0.2625
G0 X3.8853 Y3.6387
G1 Z0.0694 F30.
G1 Z0.01
G1 X3.8855 Y3.6389 Z0.0072 F6.1
G1 X3.8862 Y3.6395 Z0.0046
G1 X3.8872 Y3.6406 Z0.0022
G1 X3.8886 Y3.642 Z0.0002
G1 X3.8903 Y3.6437 Z-0.0013
G1 X3.8922 Y3.6455 Z-0.0022
G1 X3.8942 Y3.6475 Z-0.0025
G1 X3.903 Y3.6563
G1 X4.7194 Y4.4727
G1 X3.0866
G1 Y2.8399
G1 X3.903 Y3.6563
G1 X3.9118 Y3.6652
G1 X3.9138 Y3.6671 Z-0.0022
G1 X3.9157 Y3.669 Z-0.0013
G1 X3.9173 Y3.6707 Z0.0002
G1 X3.9187 Y3.6721 Z0.0022
G1 X3.9198 Y3.6731 Z0.0046
G1 X3.9205 Y3.6738 Z0.0072
G1 X3.9207 Y3.674 Z0.01
G0 Z0.2625
G0 X3.8853 Y3.6387
G1 Z0.0531 F30.
G1 Z-0.0063
G1 X3.8855 Y3.6389 Z-0.009 F6.1
G1 X3.8862 Y3.6395 Z-0.0117
G1 X3.8872 Y3.6406 Z-0.014
G1 X3.8886 Y3.642 Z-0.016
G1 X3.8903 Y3.6437 Z-0.0175
G1 X3.8922 Y3.6455 Z-0.0184
G1 X3.8942 Y3.6475 Z-0.0187
G1 X3.903 Y3.6563
G1 X4.7194 Y4.4727
G1 X3.0866
G1 Y2.8399
G1 X3.903 Y3.6563
G1 X3.9118 Y3.6652
G1 X3.9138 Y3.6671 Z-0.0184
G1 X3.9157 Y3.669 Z-0.0175
G1 X3.9173 Y3.6707 Z-0.016
G1 X3.9187 Y3.6721 Z-0.014
G1 X3.9198 Y3.6731 Z-0.0117
G1 X3.9205 Y3.6738 Z-0.009
G1 X3.9207 Y3.674 Z-0.0063
G0 Z0.2625
G0 X3.8853 Y3.6387
G1 Z0.0369 F30.
G1 Z-0.0225
G1 X3.8855 Y3.6389 Z-0.0253 F6.1
G1 X3.8862 Y3.6395 Z-0.0279
G1 X3.8872 Y3.6406 Z-0.0303
G1 X3.8886 Y3.642 Z-0.0323
G1 X3.8903 Y3.6437 Z-0.0338
G1 X3.8922 Y3.6455 Z-0.0347
G1 X3.8942 Y3.6475 Z-0.035
G1 X3.903 Y3.6563
G1 X4.7194 Y4.4727
G1 X3.0866
G1 Y2.8399
G1 X3.903 Y3.6563
G1 X3.9118 Y3.6652
G1 X3.9138 Y3.6671 Z-0.0347
G1 X3.9157 Y3.669 Z-0.0338
G1 X3.9173 Y3.6707 Z-0.0323
G1 X3.9187 Y3.6721 Z-0.0303
G1 X3.9198 Y3.6731 Z-0.0279
G1 X3.9205 Y3.6738 Z-0.0253
G1 X3.9207 Y3.674 Z-0.0225
G0 Z0.2625
G0 X3.8853 Y3.6387
G1 Z0.0206 F30.
G1 Z-0.0388
G1 X3.8855 Y3.6389 Z-0.0415 F6.1
G1 X3.8862 Y3.6395 Z-0.0442
G1 X3.8872 Y3.6406 Z-0.0465
G1 X3.8886 Y3.642 Z-0.0485
G1 X3.8903 Y3.6437 Z-0.05
G1 X3.8922 Y3.6455 Z-0.0509
G1 X3.8942 Y3.6475 Z-0.0512
G1 X3.903 Y3.6563
G1 X4.7194 Y4.4727
G1 X3.0866
G1 Y2.8399
G1 X3.903 Y3.6563
G1 X3.9118 Y3.6652
G1 X3.9138 Y3.6671 Z-0.0509
G1 X3.9157 Y3.669 Z-0.05
G1 X3.9173 Y3.6707 Z-0.0485
G1 X3.9187 Y3.6721 Z-0.0465
G1 X3.9198 Y3.6731 Z-0.0442
G1 X3.9205 Y3.6738 Z-0.0415
G1 X3.9207 Y3.674 Z-0.0388
G0 Z0.2625
G0 X3.8853 Y3.6387
G1 Z0.0044 F30.
G1 Z-0.055
G1 X3.8855 Y3.6389 Z-0.0578 F6.1
G1 X3.8862 Y3.6395 Z-0.0604
G1 X3.8872 Y3.6406 Z-0.0628
G1 X3.8886 Y3.642 Z-0.0648
G1 X3.8903 Y3.6437 Z-0.0663
G1 X3.8922 Y3.6455 Z-0.0672
G1 X3.8942 Y3.6475 Z-0.0675
G1 X3.903 Y3.6563
G1 X4.7194 Y4.4727
G1 X3.0866
G1 Y2.8399
G1 X3.903 Y3.6563
G1 X3.9118 Y3.6652
G1 X3.9138 Y3.6671 Z-0.0672
G1 X3.9157 Y3.669 Z-0.0663
G1 X3.9173 Y3.6707 Z-0.0648
G1 X3.9187 Y3.6721 Z-0.0628
G1 X3.9198 Y3.6731 Z-0.0604
G1 X3.9205 Y3.6738 Z-0.0578
G1 X3.9207 Y3.674 Z-0.055
G0 Z0.2625
G0 X3.8853 Y3.6387
G1 Z-0.0119 F30.
G1 Z-0.0713
G1 X3.8855 Y3.6389 Z-0.074 F6.1
G1 X3.8862 Y3.6395 Z-0.0767
G1 X3.8872 Y3.6406 Z-0.079
G1 X3.8886 Y3.642 Z-0.081
G1 X3.8903 Y3.6437 Z-0.0825
G1 X3.8922 Y3.6455 Z-0.0834
G1 X3.8942 Y3.6475 Z-0.0837
G1 X3.903 Y3.6563
G1 X4.7194 Y4.4727
G1 X3.0866
G1 Y2.8399
G1 X3.903 Y3.6563
G1 X3.9118 Y3.6652
G1 X3.9138 Y3.6671 Z-0.0834
G1 X3.9157 Y3.669 Z-0.0825
G1 X3.9173 Y3.6707 Z-0.081
G1 X3.9187 Y3.6721 Z-0.079
G1 X3.9198 Y3.6731 Z-0.0767
G1 X3.9205 Y3.6738 Z-0.074
G1 X3.9207 Y3.674 Z-0.0713
G0 Z0.2625
G0 X3.8853 Y3.6387
G1 Z-0.0281 F30.
G1 Z-0.0813
G1 X3.8855 Y3.6389 Z-0.084 F6.1
G1 X3.8862 Y3.6395 Z-0.0867
G1 X3.8872 Y3.6406 Z-0.089
G1 X3.8886 Y3.642 Z-0.091
G1 X3.8903 Y3.6437 Z-0.0925
G1 X3.8922 Y3.6455 Z-0.0934
G1 X3.8942 Y3.6475 Z-0.0937
G1 X3.903 Y3.6563
G1 X4.7194 Y4.4727
G1 X3.0866
G1 Y2.8399
G1 X3.903 Y3.6563
G1 X3.9118 Y3.6652
G1 X3.9138 Y3.6671 Z-0.0934
G1 X3.9157 Y3.669 Z-0.0925
G1 X3.9173 Y3.6707 Z-0.091
G1 X3.9187 Y3.6721 Z-0.089
G1 X3.9198 Y3.6731 Z-0.0867
G1 X3.9205 Y3.6738 Z-0.084
G1 X3.9207 Y3.674 Z-0.0813
G0 Z0.2625
G0 X2.371 Y3.9695
G1 Z0.1181 F30.
G1 Z0.0587
G1 Y3.9698 Z0.056 F6.1
G1 Y3.9707 Z0.0533
G1 Y3.9722 Z0.051
G1 Y3.9742 Z0.049
G1 Y3.9766 Z0.0475
G1 Y3.9792 Z0.0466
G1 Y3.982 Z0.0462
G1 Y3.9945
G1 Y4.4727
G1 X0.7382
G1 X2.371 Y2.8399
G1 Y3.9945
G1 Y4.007
G1 Y4.0098 Z0.0466
G1 Y4.0124 Z0.0475
G1 Y4.0148 Z0.049
G1 Y4.0168 Z0.051
G1 Y4.0183 Z0.0533
G1 Y4.0192 Z0.056
G1 Y4.0195 Z0.0587
G0 Z0.2625
G0 Y3.9695
G1 Z0.1019 F30.
G1 Z0.0425
G1 Y3.9698 Z0.0397 F6.1
G1 Y3.9707 Z0.0371
G1 Y3.9722 Z0.0347
G1 Y3.9742 Z0.0327
G1 Y3.9766 Z0.0312
G1 Y3.9792 Z0.0303
G1 Y3.982 Z0.03
G1 Y3.9945
G1 Y4.4727
G1 X0.7382
G1 X2.371 Y2.8399
G1 Y3.9945
G1 Y4.007
G1 Y4.0098 Z0.0303
G1 Y4.0124 Z0.0312
G1 Y4.0148 Z0.0327
G1 Y4.0168 Z0.0347
G1 Y4.0183 Z0.0371
G1 Y4.0192 Z0.0397
G1 Y4.0195 Z0.0425
G0 Z0.2625
G0 Y3.9695
G1 Z0.0856 F30.
G1 Z0.0262
G1 Y3.9698 Z0.0235 F6.1
G1 Y3.9707 Z0.0208
G1 Y3.9722 Z0.0185
G1 Y3.9742 Z0.0165
G1 Y3.9766 Z0.015
G1 Y3.9792 Z0.0141
G1 Y3.982 Z0.0137
G1 Y3.9945
G1 Y4.4727
G1 X0.7382
G1 X2.371 Y2.8399
G1 Y3.9945
G1 Y4.007
G1 Y4.0098 Z0.0141
G1 Y4.0124 Z0.015
G1 Y4.0148 Z0.0165
G1 Y4.0168 Z0.0185
G1 Y4.0183 Z0.0208
G1 Y4.0192 Z0.0235
G1 Y4.0195 Z0.0262
G0 Z0.2625
G0 Y3.9695
G1 Z0.0694 F30.
G1 Z0.01
G1 Y3.9698 Z0.0072 F6.1
G1 Y3.9707 Z0.0046
G1 Y3.9722 Z0.0022
G1 Y3.9742 Z0.0002
G1 Y3.9766 Z-0.0013
G1 Y3.9792 Z-0.0022
G1 Y3.982 Z-0.0025
G1 Y3.9945
G1 Y4.4727
G1 X0.7382
G1 X2.371 Y2.8399
G1 Y3.9945
G1 Y4.007
G1 Y4.0098 Z-0.0022
G1 Y4.0124 Z-0.0013
G1 Y4.0148 Z0.0002
G1 Y4.0168 Z0.0022
G1 Y4.0183 Z0.0046
G1 Y4.0192 Z0.0072
G1 Y4.0195 Z0.01
G0 Z0.2625
G0 Y3.9695
G1 Z0.0531 F30.
G1 Z-0.0063
G1 Y3.9698 Z-0.009 F6.1
G1 Y3.9707 Z-0.0117
G1 Y3.9722 Z-0.014
G1 Y3.9742 Z-0.016
G1 Y3.9766 Z-0.0175
G1 Y3.9792 Z-0.0184
G1 Y3.982 Z-0.0187
G1 Y3.9945
G1 Y4.4727
G1 X0.7382
G1 X2.371 Y2.8399
G1 Y3.9945
G1 Y4.007
G1 Y4.0098 Z-0.0184
G1 Y4.0124 Z-0.0175
G1 Y4.0148 Z-0.016
G1 Y4.0168 Z-0.014
G1 Y4.0183 Z-0.0117
G1 Y4.0192 Z-0.009
G1 Y4.0195 Z-0.0063
G0 Z0.2625
G0 Y3.9695
G1 Z0.0369 F30.
G1 Z-0.0225
G1 Y3.9698 Z-0.0253 F6.1
G1 Y3.9707 Z-0.0279
G1 Y3.9722 Z-0.0303
G1 Y3.9742 Z-0.0323
G1 Y3.9766 Z-0.0338
G1 Y3.9792 Z-0.0347
G1 Y3.982 Z-0.035
G1 Y3.9945
G1 Y4.4727
G1 X0.7382
G1 X2.371 Y2.8399
G1 Y3.9945
G1 Y4.007
G1 Y4.0098 Z-0.0347
G1 Y4.0124 Z-0.0338
G1 Y4.0148 Z-0.0323
G1 Y4.0168 Z-0.0303
G1 Y4.0183 Z-0.0279
G1 Y4.0192 Z-0.0253
G1 Y4.0195 Z-0.0225
G0 Z0.2625
G0 Y3.9695
G1 Z0.0206 F30.
G1 Z-0.0388
G1 Y3.9698 Z-0.0415 F6.1
G1 Y3.9707 Z-0.0442
G1 Y3.9722 Z-0.0465
G1 Y3.9742 Z-0.0485
G1 Y3.9766 Z-0.05
G1 Y3.9792 Z-0.0509
G1 Y3.982 Z-0.0512
G1 Y3.9945
G1 Y4.4727
G1 X0.7382
G1 X2.371 Y2.8399
G1 Y3.9945
G1 Y4.007
G1 Y4.0098 Z-0.0509
G1 Y4.0124 Z-0.05
G1 Y4.0148 Z-0.0485
G1 Y4.0168 Z-0.0465
G1 Y4.0183 Z-0.0442
G1 Y4.0192 Z-0.0415
G1 Y4.0195 Z-0.0388
G0 Z0.2625
G0 Y3.9695
G1 Z0.0044 F30.
G1 Z-0.055
G1 Y3.9698 Z-0.0578 F6.1
G1 Y3.9707 Z-0.0604
G1 Y3.9722 Z-0.0628
G1 Y3.9742 Z-0.0648
G1 Y3.9766 Z-0.0663
G1 Y3.9792 Z-0.0672
G1 Y3.982 Z-0.0675
G1 Y3.9945
G1 Y4.4727
G1 X0.7382
G1 X2.371 Y2.8399
G1 Y3.9945
G1 Y4.007
G1 Y4.0098 Z-0.0672
G1 Y4.0124 Z-0.0663
G1 Y4.0148 Z-0.0648
G1 Y4.0168 Z-0.0628
G1 Y4.0183 Z-0.0604
G1 Y4.0192 Z-0.0578
G1 Y4.0195 Z-0.055
G0 Z0.2625
G0 Y3.9695
G1 Z-0.0119 F30.
G1 Z-0.0713
G1 Y3.9698 Z-0.074 F6.1
G1 Y3.9707 Z-0.0767
G1 Y3.9722 Z-0.079
G1 Y3.9742 Z-0.081
G1 Y3.9766 Z-0.0825
G1 Y3.9792 Z-0.0834
G1 Y3.982 Z-0.0837
G1 Y3.9945
G1 Y4.4727
G1 X0.7382
G1 X2.371 Y2.8399
G1 Y3.9945
G1 Y4.007
G1 Y4.0098 Z-0.0834
G1 Y4.0124 Z-0.0825
G1 Y4.0148 Z-0.081
G1 Y4.0168 Z-0.079
G1 Y4.0183 Z-0.0767
G1 Y4.0192 Z-0.074
G1 Y4.0195 Z-0.0713
G0 Z0.2625
G0 Y3.9695
G1 Z-0.0281 F30.
G1 Z-0.0813
G1 Y3.9698 Z-0.084 F6.1
G1 Y3.9707 Z-0.0867
G1 Y3.9722 Z-0.089
G1 Y3.9742 Z-0.091
G1 Y3.9766 Z-0.0925
G1 Y3.9792 Z-0.0934
G1 Y3.982 Z-0.0937
G1 Y3.9945
G1 Y4.4727
G1 X0.7382
G1 X2.371 Y2.8399
G1 Y3.9945
G1 Y4.007
G1 Y4.0098 Z-0.0934
G1 Y4.0124 Z-0.0925
G1 Y4.0148 Z-0.091
G1 Y4.0168 Z-0.089
G1 Y4.0183 Z-0.0867
G1 Y4.0192 Z-0.084
G1 Y4.0195 Z-0.0813
G0 Z0.2625
G0 X1.7831 Y2.4159
G1 Z0.1181 F30.
G1 Z0.0587
G1 X1.7829 Y2.4161 Z0.056 F6.1
G1 X1.7822 Y2.4168 Z0.0533
G1 X1.7812 Y2.4178 Z0.051
G1 X1.7798 Y2.4192 Z0.049
G1 X1.7781 Y2.4209 Z0.0475
G1 X1.7762 Y2.4228 Z0.0466
G1 X1.7743 Y2.4247 Z0.0462
G1 X1.7654 Y2.4336
G1 X1.5964 Y2.6026
G1 X-2.1319
G1 Y1.4481
G1 X2.371
G1 Y1.828
G1 X1.7654 Y2.4336
G1 X1.7566 Y2.4424
G1 X1.7546 Y2.4444 Z0.0466
G1 X1.7528 Y2.4462 Z0.0475
G1 X1.7511 Y2.4479 Z0.049
G1 X1.7497 Y2.4493 Z0.051
G1 X1.7486 Y2.4504 Z0.0533
G1 X1.748 Y2.451 Z0.056
G1 X1.7478 Y2.4513 Z0.0587
G0 Z0.2625
G0 X1.7831 Y2.4159
G1 Z0.1019 F30.
G1 Z0.0425
G1 X1.7829 Y2.4161 Z0.0397 F6.1
G1 X1.7822 Y2.4168 Z0.0371
G1 X1.7812 Y2.4178 Z0.0347
G1 X1.7798 Y2.4192 Z0.0327
G1 X1.7781 Y2.4209 Z0.0312
G1 X1.7762 Y2.4228 Z0.0303
G1 X1.7743 Y2.4247 Z0.03
G1 X1.7654 Y2.4336
G1 X1.5964 Y2.6026
G1 X-2.1319
G1 Y1.4481
G1 X2.371
G1 Y1.828
G1 X1.7654 Y2.4336
G1 X1.7566 Y2.4424
G1 X1.7546 Y2.4444 Z0.0303
G1 X1.7528 Y2.4462 Z0.0312
G1 X1.7511 Y2.4479 Z0.0327
G1 X1.7497 Y2.4493 Z0.0347
G1 X1.7486 Y2.4504 Z0.0371
G1 X1.748 Y2.451 Z0.0397
G1 X1.7478 Y2.4513 Z0.0425
G0 Z0.2625
G0 X1.7831 Y2.4159
G1 Z0.0856 F30.
G1 Z0.0262
G1 X1.7829 Y2.4161 Z0.0235 F6.1
G1 X1.7822 Y2.4168 Z0.0208
G1 X1.7812 Y2.4178 Z0.0185
G1 X1.7798 Y2.4192 Z0.0165
G1 X1.7781 Y2.4209 Z0.015
G1 X1.7762 Y2.4228 Z0.0141
G1 X1.7743 Y2.4247 Z0.0137
G1 X1.7654 Y2.4336
G1 X1.5964 Y2.6026
G1 X-2.1319
G1 Y1.4481
G1 X2.371
G1 Y1.828
G1 X1.7654 Y2.4336
G1 X1.7566 Y2.4424
G1 X1.7546 Y2.4444 Z0.0141
G1 X1.7528 Y2.4462 Z0.015
G1 X1.7511 Y2.4479 Z0.0165
G1 X1.7497 Y2.4493 Z0.0185
G1 X1.7486 Y2.4504 Z0.0208
G1 X1.748 Y2.451 Z0.0235
G1 X1.7478 Y2.4513 Z0.0262
G0 Z0.2625
G0 X1.7831 Y2.4159
G1 Z0.0694 F30.
G1 Z0.01
G1 X1.7829 Y2.4161 Z0.0072 F6.1
G1 X1.7822 Y2.4168 Z0.0046
G1 X1.7812 Y2.4178 Z0.0022
G1 X1.7798 Y2.4192 Z0.0002
G1 X1.7781 Y2.4209 Z-0.0013
G1 X1.7762 Y2.4228 Z-0.0022
G1 X1.7743 Y2.4247 Z-0.0025
G1 X1.7654 Y2.4336
G1 X1.5964 Y2.6026
G1 X-2.1319
G1 Y1.4481
G1 X2.371
G1 Y1.828
G1 X1.7654 Y2.4336
G1 X1.7566 Y2.4424
G1 X1.7546 Y2.4444 Z-0.0022
G1 X1.7528 Y2.4462 Z-0.0013
G1 X1.7511 Y2.4479 Z0.0002
G1 X1.7497 Y2.4493 Z0.0022
G1 X1.7486 Y2.4504 Z0.0046
G1 X1.748 Y2.451 Z0.0072
G1 X1.7478 Y2.4513 Z0.01
G0 Z0.2625
G0 X1.7831 Y2.4159
G1 Z0.0531 F30.
G1 Z-0.0063
G1 X1.7829 Y2.4161 Z-0.009 F6.1
G1 X1.7822 Y2.4168 Z-0.0117
G1 X1.7812 Y2.4178 Z-0.014
G1 X1.7798 Y2.4192 Z-0.016
G1 X1.7781 Y2.4209 Z-0.0175
G1 X1.7762 Y2.4228 Z-0.0184
G1 X1.7743 Y2.4247 Z-0.0187
G1 X1.7654 Y2.4336
G1 X1.5964 Y2.6026
G1 X-2.1319
G1 Y1.4481
G1 X2.371
G1 Y1.828
G1 X1.7654 Y2.4336
G1 X1.7566 Y2.4424
G1 X1.7546 Y2.4444 Z-0.0184
G1 X1.7528 Y2.4462 Z-0.0175
G1 X1.7511 Y2.4479 Z-0.016
G1 X1.7497 Y2.4493 Z-0.014
G1 X1.7486 Y2.4504 Z-0.0117
G1 X1.748 Y2.451 Z-0.009
G1 X1.7478 Y2.4513 Z-0.0063
G0 Z0.2625
G0 X1.7831 Y2.4159
G1 Z0.0369 F30.
G1 Z-0.0225
G1 X1.7829 Y2.4161 Z-0.0253 F6.1
G1 X1.7822 Y2.4168 Z-0.0279
G1 X1.7812 Y2.4178 Z-0.0303
G1 X1.7798 Y2.4192 Z-0.0323
G1 X1.7781 Y2.4209 Z-0.0338
G1 X1.7762 Y2.4228 Z-0.0347
G1 X1.7743 Y2.4247 Z-0.035
G1 X1.7654 Y2.4336
G1 X1.5964 Y2.6026
G1 X-2.1319
G1 Y1.4481
G1 X2.371
G1 Y1.828
G1 X1.7654 Y2.4336
G1 X1.7566 Y2.4424
G1 X1.7546 Y2.4444 Z-0.0347
G1 X1.7528 Y2.4462 Z-0.0338
G1 X1.7511 Y2.4479 Z-0.0323
G1 X1.7497 Y2.4493 Z-0.0303
G1 X1.7486 Y2.4504 Z-0.0279
G1 X1.748 Y2.451 Z-0.0253
G1 X1.7478 Y2.4513 Z-0.0225
G0 Z0.2625
G0 X1.7831 Y2.4159
G1 Z0.0206 F30.
G1 Z-0.0388
G1 X1.7829 Y2.4161 Z-0.0415 F6.1
G1 X1.7822 Y2.4168 Z-0.0442
G1 X1.7812 Y2.4178 Z-0.0465
G1 X1.7798 Y2.4192 Z-0.0485
G1 X1.7781 Y2.4209 Z-0.05
G1 X1.7762 Y2.4228 Z-0.0509
G1 X1.7743 Y2.4247 Z-0.0512
G1 X1.7654 Y2.4336
G1 X1.5964 Y2.6026
G1 X-2.1319
G1 Y1.4481
G1 X2.371
G1 Y1.828
G1 X1.7654 Y2.4336
G1 X1.7566 Y2.4424
G1 X1.7546 Y2.4444 Z-0.0509
G1 X1.7528 Y2.4462 Z-0.05
G1 X1.7511 Y2.4479 Z-0.0485
G1 X1.7497 Y2.4493 Z-0.0465
G1 X1.7486 Y2.4504 Z-0.0442
G1 X1.748 Y2.451 Z-0.0415
G1 X1.7478 Y2.4513 Z-0.0388
G0 Z0.2625
G0 X1.7831 Y2.4159
G1 Z0.0044 F30.
G1 Z-0.055
G1 X1.7829 Y2.4161 Z-0.0578 F6.1
G1 X1.7822 Y2.4168 Z-0.0604
G1 X1.7812 Y2.4178 Z-0.0628
G1 X1.7798 Y2.4192 Z-0.0648
G1 X1.7781 Y2.4209 Z-0.0663
G1 X1.7762 Y2.4228 Z-0.0672
G1 X1.7743 Y2.4247 Z-0.0675
G1 X1.7654 Y2.4336
G1 X1.5964 Y2.6026
G1 X-2.1319
G1 Y1.4481
G1 X2.371
G1 Y1.828
G1 X1.7654 Y2.4336
G1 X1.7566 Y2.4424
G1 X1.7546 Y2.4444 Z-0.0672
G1 X1.7528 Y2.4462 Z-0.0663
G1 X1.7511 Y2.4479 Z-0.0648
G1 X1.7497 Y2.4493 Z-0.0628
G1 X1.7486 Y2.4504 Z-0.0604
G1 X1.748 Y2.451 Z-0.0578
G1 X1.7478 Y2.4513 Z-0.055
G0 Z0.2625
G0 X1.7831 Y2.4159
G1 Z-0.0119 F30.
G1 Z-0.0713
G1 X1.7829 Y2.4161 Z-0.074 F6.1
G1 X1.7822 Y2.4168 Z-0.0767
G1 X1.7812 Y2.4178 Z-0.079
G1 X1.7798 Y2.4192 Z-0.081
G1 X1.7781 Y2.4209 Z-0.0825
G1 X1.7762 Y2.4228 Z-0.0834
G1 X1.7743 Y2.4247 Z-0.0837
G1 X1.7654 Y2.4336
G1 X1.5964 Y2.6026
G1 X-2.1319
G1 Y1.4481
G1 X2.371
G1 Y1.828
G1 X1.7654 Y2.4336
G1 X1.7566 Y2.4424
G1 X1.7546 Y2.4444 Z-0.0834
G1 X1.7528 Y2.4462 Z-0.0825
G1 X1.7511 Y2.4479 Z-0.081
G1 X1.7497 Y2.4493 Z-0.079
G1 X1.7486 Y2.4504 Z-0.0767
G1 X1.748 Y2.451 Z-0.074
G1 X1.7478 Y2.4513 Z-0.0713
G0 Z0.2625
G0 X1.7831 Y2.4159
G1 Z-0.0281 F30.
G1 Z-0.0813
G1 X1.7829 Y2.4161 Z-0.084 F6.1
G1 X1.7822 Y2.4168 Z-0.0867
G1 X1.7812 Y2.4178 Z-0.089
G1 X1.7798 Y2.4192 Z-0.091
G1 X1.7781 Y2.4209 Z-0.0925
G1 X1.7762 Y2.4228 Z-0.0934
G1 X1.7743 Y2.4247 Z-0.0937
G1 X1.7654 Y2.4336
G1 X1.5964 Y2.6026
G1 X-2.1319
G1 Y1.4481
G1 X2.371
G1 Y1.828
G1 X1.7654 Y2.4336
G1 X1.7566 Y2.4424
G1 X1.7546 Y2.4444 Z-0.0934
G1 X1.7528 Y2.4462 Z-0.0925
G1 X1.7511 Y2.4479 Z-0.091
G1 X1.7497 Y2.4493 Z-0.089
G1 X1.7486 Y2.4504 Z-0.0867
G1 X1.748 Y2.451 Z-0.084
G1 X1.7478 Y2.4513 Z-0.0813
G0 Z0.2625
G0 X-1.3983 Y3.3182
G1 Z0.1181 F30.
G1 Z0.0587
G1 X-1.398 Z0.056 F6.1
G1 X-1.3971 Z0.0533
G1 X-1.3956 Z0.051
G1 X-1.3936 Z0.049
G1 X-1.3913 Z0.0475
G1 X-1.3886 Z0.0466
G1 X-1.3858 Z0.0462
G1 X-1.3733
G1 X0.8808
G1 X-0.2737 Y4.4727
G1 X-1.7084
G1 X-2.1319 Y3.7312
G1 Y3.3182
G1 X-1.3733
G1 X-1.3608
G1 X-1.3581 Z0.0466
G1 X-1.3554 Z0.0475
G1 X-1.353 Z0.049
G1 X-1.3511 Z0.051
G1 X-1.3496 Z0.0533
G1 X-1.3486 Z0.056
G1 X-1.3483 Z0.0587
G0 Z0.2625
G0 X-1.3983
G1 Z0.1019 F30.
G1 Z0.0425
G1 X-1.398 Z0.0397 F6.1
G1 X-1.3971 Z0.0371
G1 X-1.3956 Z0.0347
G1 X-1.3936 Z0.0327
G1 X-1.3913 Z0.0312
G1 X-1.3886 Z0.0303
G1 X-1.3858 Z0.03
G1 X-1.3733
G1 X0.8808
G1 X-0.2737 Y4.4727
G1 X-1.7084
G1 X-2.1319 Y3.7312
G1 Y3.3182
G1 X-1.3733
G1 X-1.3608
G1 X-1.3581 Z0.0303
G1 X-1.3554 Z0.0312
G1 X-1.353 Z0.0327
G1 X-1.3511 Z0.0347
G1 X-1.3496 Z0.0371
G1 X-1.3486 Z0.0397
G1 X-1.3483 Z0.0425
G0 Z0.2625
G0 X-1.3983
G1 Z0.0856 F30.
G1 Z0.0262
G1 X-1.398 Z0.0235 F6.1
G1 X-1.3971 Z0.0208
G1 X-1.3956 Z0.0185
G1 X-1.3936 Z0.0165
G1 X-1.3913 Z0.015
G1 X-1.3886 Z0.0141
G1 X-1.3858 Z0.0137
G1 X-1.3733
G1 X0.8808
G1 X-0.2737 Y4.4727
G1 X-1.7084
G1 X-2.1319 Y3.7312
G1 Y3.3182
G1 X-1.3733
G1 X-1.3608
G1 X-1.3581 Z0.0141
G1 X-1.3554 Z0.015
G1 X-1.353 Z0.0165
G1 X-1.3511 Z0.0185
G1 X-1.3496 Z0.0208
G1 X-1.3486 Z0.0235
G1 X-1.3483 Z0.0262
G0 Z0.2625
G0 X-1.3983
G1 Z0.0694 F30.
G1 Z0.01
G1 X-1.398 Z0.0072 F6.1
G1 X-1.3971 Z0.0046
G1 X-1.3956 Z0.0022
G1 X-1.3936 Z0.0002
G1 X-1.3913 Z-0.0013
G1 X-1.3886 Z-0.0022
G1 X-1.3858 Z-0.0025
G1 X-1.3733
G1 X0.8808
G1 X-0.2737 Y4.4727
G1 X-1.7084
G1 X-2.1319 Y3.7312
G1 Y3.3182
G1 X-1.3733
G1 X-1.3608
G1 X-1.3581 Z-0.0022
G1 X-1.3554 Z-0.0013
G1 X-1.353 Z0.0002
G1 X-1.3511 Z0.0022
G1 X-1.3496 Z0.0046
G1 X-1.3486 Z0.0072
G1 X-1.3483 Z0.01
G0 Z0.2625
G0 X-1.3983
G1 Z0.0531 F30.
G1 Z-0.0063
G1 X-1.398 Z-0.009 F6.1
G1 X-1.3971 Z-0.0117
G1 X-1.3956 Z-0.014
G1 X-1.3936 Z-0.016
G1 X-1.3913 Z-0.0175
G1 X-1.3886 Z-0.0184
G1 X-1.3858 Z-0.0187
G1 X-1.3733
G1 X0.8808
G1 X-0.2737 Y4.4727
G1 X-1.7084
G1 X-2.1319 Y3.7312
G1 Y3.3182
G1 X-1.3733
G1 X-1.3608
G1 X-1.3581 Z-0.0184
G1 X-1.3554 Z-0.0175
G1 X-1.353 Z-0.016
G1 X-1.3511 Z-0.014
G1 X-1.3496 Z-0.0117
G1 X-1.3486 Z-0.009
G1 X-1.3483 Z-0.0063
G0 Z0.2625
G0 X-1.3983
G1 Z0.0369 F30.
G1 Z-0.0225
