(1001)
(T1  D=0.125 CR=0 - ZMIN=-0.1563 - FLAT END MILL)
G0 G40 G90 G17
G20

(2D CONTOUR2)
T1 M6
M3 S2440
G0 X16.3082 Y-9.9809
G0 Z0.6
G0 Z0.2
G1 Z0.0556 F30.
G1 Z-0.0038
G1 X16.308 Y-9.9806 Z-0.0065 F6.1
G1 X16.3076 Y-9.9798 Z-0.0092
G1 X16.307 Y-9.9785 Z-0.0115
G1 X16.3061 Y-9.9767 Z-0.0135
G1 X16.3051 Y-9.9746 Z-0.015
G1 X16.3039 Y-9.9722 Z-0.0159
G1 X16.3027 Y-9.9697 Z-0.0163
G1 X16.2971 Y-9.9585
G3 X16.2804 Y-9.9528 I-0.0112 J-0.0055
G2 X16.2528 Y-9.9592 I-0.0276 J0.0561
G1 X0.5036
G2 X0.4494 Y-9.9279 I0 J0.0625
G1 X0.3239 Y-9.7105
G2 X0.3155 Y-9.6792 I0.0541 J0.0313
G1 Y-6.9439
G2 X0.3237 Y-6.9129 I0.0625 J0
G1 X1.1107 Y-5.535
G2 X1.165 Y-5.5035 I0.0543 J-0.031
G1 X15.5906
G2 X15.6449 Y-5.535 I0 J-0.0625
G1 X16.4323 Y-6.9129
G2 X16.4405 Y-6.9439 I-0.0543 J-0.031
G1 Y-9.6799
G2 X16.4321 Y-9.7111 I-0.0625 J0
G1 X16.307 Y-9.9279
G2 X16.2804 Y-9.9528 I-0.0541 J0.0312
G3 X16.2747 Y-9.9695 I0.0055 J-0.0112
G1 X16.2802 Y-9.9807
G1 X16.2815 Y-9.9832 Z-0.0159
G1 X16.2826 Y-9.9856 Z-0.015
G1 X16.2837 Y-9.9877 Z-0.0135
G1 X16.2845 Y-9.9895 Z-0.0115
G1 X16.2852 Y-9.9908 Z-0.0092
G1 X16.2856 Y-9.9917 Z-0.0065
G1 X16.2857 Y-9.9919 Z-0.0038
G0 Z0.2
G0 X16.3082 Y-9.9809
G1 Z0.0394 F30.
G1 Z-0.02
G1 X16.308 Y-9.9806 Z-0.0228 F6.1
G1 X16.3076 Y-9.9798 Z-0.0254
G1 X16.307 Y-9.9785 Z-0.0278
G1 X16.3061 Y-9.9767 Z-0.0298
G1 X16.3051 Y-9.9746 Z-0.0313
G1 X16.3039 Y-9.9722 Z-0.0322
G1 X16.3027 Y-9.9697 Z-0.0325
G1 X16.2971 Y-9.9585
G3 X16.2804 Y-9.9528 I-0.0112 J-0.0055
G2 X16.2528 Y-9.9592 I-0.0276 J0.0561
G1 X0.5036
G2 X0.4494 Y-9.9279 I0 J0.0625
G1 X0.3239 Y-9.7105
G2 X0.3155 Y-9.6792 I0.0541 J0.0313
G1 Y-6.9439
G2 X0.3237 Y-6.9129 I0.0625 J0
G1 X1.1107 Y-5.535
G2 X1.165 Y-5.5035 I0.0543 J-0.031
G1 X15.5906
G2 X15.6449 Y-5.535 I0 J-0.0625
G1 X16.4323 Y-6.9129
G2 X16.4405 Y-6.9439 I-0.0543 J-0.031
G1 Y-9.6799
G2 X16.4321 Y-9.7111 I-0.0625 J0
G1 X16.307 Y-9.9279
G2 X16.2804 Y-9.9528 I-0.0541 J0.0312
G3 X16.2747 Y-9.9695 I0.0055 J-0.0112
G1 X16.2802 Y-9.9807
G1 X16.2815 Y-9.9832 Z-0.0322
G1 X16.2826 Y-9.9856 Z-0.0313
G1 X16.2837 Y-9.9877 Z-0.0298
G1 X16.2845 Y-9.9895 Z-0.0278
G1 X16.2852 Y-9.9908 Z-0.0254
G1 X16.2856 Y-9.9917 Z-0.0228
G1 X16.2857 Y-9.9919 Z-0.02
G0 Z0.2
G0 X16.3082 Y-9.9809
G1 Z0.0231 F30.
G1 Z-0.0363
G1 X16.308 Y-9.9806 Z-0.039 F6.1
G1 X16.3076 Y-9.9798 Z-0.0417
G1 X16.307 Y-9.9785 Z-0.044
G1 X16.3061 Y-9.9767 Z-0.046
G1 X16.3051 Y-9.9746 Z-0.0475
G1 X16.3039 Y-9.9722 Z-0.0484
G1 X16.3027 Y-9.9697 Z-0.0488
G1 X16.2971 Y-9.9585
G3 X16.2804 Y-9.9528 I-0.0112 J-0.0055
G2 X16.2528 Y-9.9592 I-0.0276 J0.0561
G1 X0.5036
G2 X0.4494 Y-9.9279 I0 J0.0625
G1 X0.3239 Y-9.7105
G2 X0.3155 Y-9.6792 I0.0541 J0.0313
G1 Y-6.9439
G2 X0.3237 Y-6.9129 I0.0625 J0
G1 X1.1107 Y-5.535
G2 X1.165 Y-5.5035 I0.0543 J-0.031
G1 X15.5906
G2 X15.6449 Y-5.535 I0 J-0.0625
G1 X16.4323 Y-6.9129
G2 X16.4405 Y-6.9439 I-0.0543 J-0.031
G1 Y-9.6799
G2 X16.4321 Y-9.7111 I-0.0625 J0
G1 X16.307 Y-9.9279
G2 X16.2804 Y-9.9528 I-0.0541 J0.0312
G3 X16.2747 Y-9.9695 I0.0055 J-0.0112
G1 X16.2802 Y-9.9807
G1 X16.2815 Y-9.9832 Z-0.0484
G1 X16.2826 Y-9.9856 Z-0.0475
G1 X16.2837 Y-9.9877 Z-0.046
G1 X16.2845 Y-9.9895 Z-0.044
G1 X16.2852 Y-9.9908 Z-0.0417
G1 X16.2856 Y-9.9917 Z-0.039
G1 X16.2857 Y-9.9919 Z-0.0363
G0 Z0.2
G0 X16.3082 Y-9.9809
G1 Z0.0069 F30.
G1 Z-0.0525
G1 X16.308 Y-9.9806 Z-0.0553 F6.1
G1 X16.3076 Y-9.9798 Z-0.0579
G1 X16.307 Y-9.9785 Z-0.0603
G1 X16.3061 Y-9.9767 Z-0.0623
G1 X16.3051 Y-9.9746 Z-0.0638
G1 X16.3039 Y-9.9722 Z-0.0647
G1 X16.3027 Y-9.9697 Z-0.065
G1 X16.2971 Y-9.9585
G3 X16.2804 Y-9.9528 I-0.0112 J-0.0055
G2 X16.2528 Y-9.9592 I-0.0276 J0.0561
G1 X13.753
G1 Z-0.0563
G1 X13.503
G1 Z-0.065 F30.
G1 X8.5032 F6.1
G1 Z-0.0563
G1 X8.2532
G1 Z-0.065 F30.
G1 X3.2534 F6.1
G1 Z-0.0563
G1 X3.0034
G1 Z-0.065 F30.
G1 X0.5036 F6.1
G2 X0.4494 Y-9.9279 I0 J0.0625
G1 X0.3239 Y-9.7105
G2 X0.3155 Y-9.6792 I0.0541 J0.0313
G1 Y-6.9439
G2 X0.3237 Y-6.9129 I0.0625 J0
G1 X1.1107 Y-5.535
G2 X1.165 Y-5.5035 I0.0543 J-0.031
G1 X4.6464
G1 Z-0.0563
G1 X4.8964
G1 Z-0.065 F30.
G1 X11.8592 F6.1
G1 Z-0.0563
G1 X12.1092
G1 Z-0.065 F30.
G1 X15.5906 F6.1
G2 X15.6449 Y-5.535 I0 J-0.0625
G1 X16.4323 Y-6.9129
G2 X16.4405 Y-6.9439 I-0.0543 J-0.031
G1 Y-9.6799
G2 X16.4321 Y-9.7111 I-0.0625 J0
G1 X16.307 Y-9.9279
G2 X16.2804 Y-9.9528 I-0.0541 J0.0312
G3 X16.2747 Y-9.9695 I0.0055 J-0.0112
G1 X16.2802 Y-9.9807
G1 X16.2815 Y-9.9832 Z-0.0647
G1 X16.2826 Y-9.9856 Z-0.0638
G1 X16.2837 Y-9.9877 Z-0.0623
G1 X16.2845 Y-9.9895 Z-0.0603
G1 X16.2852 Y-9.9908 Z-0.0579
G1 X16.2856 Y-9.9917 Z-0.0553
G1 X16.2857 Y-9.9919 Z-0.0525
G0 Z0.2
G0 X16.3082 Y-9.9809
G1 Z-0.0094 F30.
G1 Z-0.0688
G1 X16.308 Y-9.9806 Z-0.0715 F6.1
G1 X16.3076 Y-9.9798 Z-0.0742
G1 X16.307 Y-9.9785 Z-0.0765
G1 X16.3061 Y-9.9767 Z-0.0785
G1 X16.3051 Y-9.9746 Z-0.08
G1 X16.3039 Y-9.9722 Z-0.0809
G1 X16.3027 Y-9.9697 Z-0.0813
G1 X16.2971 Y-9.9585
G3 X16.2804 Y-9.9528 I-0.0112 J-0.0055
G2 X16.2528 Y-9.9592 I-0.0276 J0.0561
G1 X13.753
G1 Z-0.0563
G1 X13.503
G1 Z-0.0813 F30.
G1 X8.5032 F6.1
G1 Z-0.0563
G1 X8.2532
G1 Z-0.0813 F30.
G1 X3.2534 F6.1
G1 Z-0.0563
G1 X3.0034
G1 Z-0.0813 F30.
G1 X0.5036 F6.1
G2 X0.4494 Y-9.9279 I0 J0.0625
G1 X0.3239 Y-9.7105
G2 X0.3155 Y-9.6792 I0.0541 J0.0313
G1 Y-6.9439
G2 X0.3237 Y-6.9129 I0.0625 J0
G1 X1.1107 Y-5.535
G2 X1.165 Y-5.5035 I0.0543 J-0.031
G1 X4.6464
G1 Z-0.0563
G1 X4.8964
G1 Z-0.0813 F30.
G1 X11.8592 F6.1
G1 Z-0.0563
G1 X12.1092
G1 Z-0.0813 F30.
G1 X15.5906 F6.1
G2 X15.6449 Y-5.535 I0 J-0.0625
G1 X16.4323 Y-6.9129
G2 X16.4405 Y-6.9439 I-0.0543 J-0.031
G1 Y-9.6799
G2 X16.4321 Y-9.7111 I-0.0625 J0
G1 X16.307 Y-9.9279
G2 X16.2804 Y-9.9528 I-0.0541 J0.0312
G3 X16.2747 Y-9.9695 I0.0055 J-0.0112
G1 X16.2802 Y-9.9807
G1 X16.2815 Y-9.9832 Z-0.0809
G1 X16.2826 Y-9.9856 Z-0.08
G1 X16.2837 Y-9.9877 Z-0.0785
G1 X16.2845 Y-9.9895 Z-0.0765
G1 X16.2852 Y-9.9908 Z-0.0742
G1 X16.2856 Y-9.9917 Z-0.0715
G1 X16.2857 Y-9.9919 Z-0.0688
G0 Z0.2
G0 X16.3082 Y-9.9809
G1 Z-0.0256 F30.
G1 Z-0.085
G1 X16.308 Y-9.9806 Z-0.0878 F6.1
G1 X16.3076 Y-9.9798 Z-0.0904
G1 X16.307 Y-9.9785 Z-0.0928
G1 X16.3061 Y-9.9767 Z-0.0948
G1 X16.3051 Y-9.9746 Z-0.0963
G1 X16.3039 Y-9.9722 Z-0.0972
G1 X16.3027 Y-9.9697 Z-0.0975
G1 X16.2971 Y-9.9585
G3 X16.2804 Y-9.9528 I-0.0112 J-0.0055
G2 X16.2528 Y-9.9592 I-0.0276 J0.0561
G1 X13.753
G1 Z-0.0563
G1 X13.503
G1 Z-0.0975 F30.
G1 X8.5032 F6.1
G1 Z-0.0563
G1 X8.2532
G1 Z-0.0975 F30.
G1 X3.2534 F6.1
G1 Z-0.0563
G1 X3.0034
G1 Z-0.0975 F30.
G1 X0.5036 F6.1
G2 X0.4494 Y-9.9279 I0 J0.0625
G1 X0.3239 Y-9.7105
G2 X0.3155 Y-9.6792 I0.0541 J0.0313
G1 Y-6.9439
G2 X0.3237 Y-6.9129 I0.0625 J0
G1 X1.1107 Y-5.535
G2 X1.165 Y-5.5035 I0.0543 J-0.031
G1 X4.6464
G1 Z-0.0563
G1 X4.8964
G1 Z-0.0975 F30.
G1 X11.8592 F6.1
G1 Z-0.0563
G1 X12.1092
G1 Z-0.0975 F30.
G1 X15.5906 F6.1
G2 X15.6449 Y-5.535 I0 J-0.0625
G1 X16.4323 Y-6.9129
G2 X16.4405 Y-6.9439 I-0.0543 J-0.031
G1 Y-9.6799
G2 X16.4321 Y-9.7111 I-0.0625 J0
G1 X16.307 Y-9.9279
G2 X16.2804 Y-9.9528 I-0.0541 J0.0312
G3 X16.2747 Y-9.9695 I0.0055 J-0.0112
G1 X16.2802 Y-9.9807
G1 X16.2815 Y-9.9832 Z-0.0972
G1 X16.2826 Y-9.9856 Z-0.0963
G1 X16.2837 Y-9.9877 Z-0.0948
G1 X16.2845 Y-9.9895 Z-0.0928
G1 X16.2852 Y-9.9908 Z-0.0904
G1 X16.2856 Y-9.9917 Z-0.0878
G1 X16.2857 Y-9.9919 Z-0.085
G0 Z0.2
G0 X16.3082 Y-9.9809
G1 Z-0.0419 F30.
G1 Z-0.1013
G1 X16.308 Y-9.9806 Z-0.104 F6.1
G1 X16.3076 Y-9.9798 Z-0.1067
G1 X16.307 Y-9.9785 Z-0.109
G1 X16.3061 Y-9.9767 Z-0.111
G1 X16.3051 Y-9.9746 Z-0.1125
G1 X16.3039 Y-9.9722 Z-0.1134
G1 X16.3027 Y-9.9697 Z-0.1138
G1 X16.2971 Y-9.9585
G3 X16.2804 Y-9.9528 I-0.0112 J-0.0055
G2 X16.2528 Y-9.9592 I-0.0276 J0.0561
G1 X13.753
G1 Z-0.0563
G1 X13.503
G1 Z-0.1138 F30.
G1 X8.5032 F6.1
G1 Z-0.0563
G1 X8.2532
G1 Z-0.1138 F30.
G1 X3.2534 F6.1
G1 Z-0.0563
G1 X3.0034
G1 Z-0.1138 F30.
G1 X0.5036 F6.1
G2 X0.4494 Y-9.9279 I0 J0.0625
G1 X0.3239 Y-9.7105
G2 X0.3155 Y-9.6792 I0.0541 J0.0313
G1 Y-6.9439
G2 X0.3237 Y-6.9129 I0.0625 J0
G1 X1.1107 Y-5.535
G2 X1.165 Y-5.5035 I0.0543 J-0.031
G1 X4.6464
G1 Z-0.0563
G1 X4.8964
G1 Z-0.1138 F30.
G1 X11.8592 F6.1
G1 Z-0.0563
G1 X12.1092
G1 Z-0.1138 F30.
G1 X15.5906 F6.1
G2 X15.6449 Y-5.535 I0 J-0.0625
G1 X16.4323 Y-6.9129
G2 X16.4405 Y-6.9439 I-0.0543 J-0.031
G1 Y-9.6799
G2 X16.4321 Y-9.7111 I-0.0625 J0
G1 X16.307 Y-9.9279
G2 X16.2804 Y-9.9528 I-0.0541 J0.0312
G3 X16.2747 Y-9.9695 I0.0055 J-0.0112
G1 X16.2802 Y-9.9807
G1 X16.2815 Y-9.9832 Z-0.1134
G1 X16.2826 Y-9.9856 Z-0.1125
G1 X16.2837 Y-9.9877 Z-0.111
G1 X16.2845 Y-9.9895 Z-0.109
G1 X16.2852 Y-9.9908 Z-0.1067
G1 X16.2856 Y-9.9917 Z-0.104
G1 X16.2857 Y-9.9919 Z-0.1013
G0 Z0.2
G0 X16.3082 Y-9.9809
G1 Z-0.0581 F30.
G1 Z-0.1175
G1 X16.308 Y-9.9806 Z-0.1203 F6.1
G1 X16.3076 Y-9.9798 Z-0.1229
G1 X16.307 Y-9.9785 Z-0.1253
G1 X16.3061 Y-9.9767 Z-0.1273
G1 X16.3051 Y-9.9746 Z-0.1288
G1 X16.3039 Y-9.9722 Z-0.1297
G1 X16.3027 Y-9.9697 Z-0.13
G1 X16.2971 Y-9.9585
G3 X16.2804 Y-9.9528 I-0.0112 J-0.0055
G2 X16.2528 Y-9.9592 I-0.0276 J0.0561
G1 X13.753
G1 Z-0.0563
G1 X13.503
G1 Z-0.13 F30.
G1 X8.5032 F6.1
G1 Z-0.0563
G1 X8.2532
G1 Z-0.13 F30.
G1 X3.2534 F6.1
G1 Z-0.0563
G1 X3.0034
G1 Z-0.13 F30.
G1 X0.5036 F6.1
G2 X0.4494 Y-9.9279 I0 J0.0625
G1 X0.3239 Y-9.7105
G2 X0.3155 Y-9.6792 I0.0541 J0.0313
G1 Y-6.9439
G2 X0.3237 Y-6.9129 I0.0625 J0
G1 X1.1107 Y-5.535
G2 X1.165 Y-5.5035 I0.0543 J-0.031
G1 X4.6464
G1 Z-0.0563
G1 X4.8964
G1 Z-0.13 F30.
G1 X11.8592 F6.1
G1 Z-0.0563
G1 X12.1092
G1 Z-0.13 F30.
G1 X15.5906 F6.1
G2 X15.6449 Y-5.535 I0 J-0.0625
G1 X16.4323 Y-6.9129
G2 X16.4405 Y-6.9439 I-0.0543 J-0.031
G1 Y-9.6799
G2 X16.4321 Y-9.7111 I-0.0625 J0
G1 X16.307 Y-9.9279
G2 X16.2804 Y-9.9528 I-0.0541 J0.0312
G3 X16.2747 Y-9.9695 I0.0055 J-0.0112
G1 X16.2802 Y-9.9807
G1 X16.2815 Y-9.9832 Z-0.1297
G1 X16.2826 Y-9.9856 Z-0.1288
G1 X16.2837 Y-9.9877 Z-0.1273
G1 X16.2845 Y-9.9895 Z-0.1253
G1 X16.2852 Y-9.9908 Z-0.1229
G1 X16.2856 Y-9.9917 Z-0.1203
G1 X16.2857 Y-9.9919 Z-0.1175
G0 Z0.2
G0 X16.3082 Y-9.9809
G1 Z-0.0744 F30.
G1 Z-0.1338
G1 X16.308 Y-9.9806 Z-0.1365 F6.1
G1 X16.3076 Y-9.9798 Z-0.1392
G1 X16.307 Y-9.9785 Z-0.1415
G1 X16.3061 Y-9.9767 Z-0.1435
G1 X16.3051 Y-9.9746 Z-0.145
G1 X16.3039 Y-9.9722 Z-0.1459
G1 X16.3027 Y-9.9697 Z-0.1463
G1 X16.2971 Y-9.9585
G3 X16.2804 Y-9.9528 I-0.0112 J-0.0055
G2 X16.2528 Y-9.9592 I-0.0276 J0.0561
G1 X13.753
G1 Z-0.0563
G1 X13.503
G1 Z-0.1463 F30.
G1 X8.5032 F6.1
G1 Z-0.0563
G1 X8.2532
G1 Z-0.1463 F30.
G1 X3.2534 F6.1
G1 Z-0.0563
G1 X3.0034
G1 Z-0.1463 F30.
G1 X0.5036 F6.1
G2 X0.4494 Y-9.9279 I0 J0.0625
G1 X0.3239 Y-9.7105
G2 X0.3155 Y-9.6792 I0.0541 J0.0313
G1 Y-6.9439
G2 X0.3237 Y-6.9129 I0.0625 J0
G1 X1.1107 Y-5.535
G2 X1.165 Y-5.5035 I0.0543 J-0.031
G1 X4.6464
G1 Z-0.0563
G1 X4.8964
G1 Z-0.1463 F30.
G1 X11.8592 F6.1
G1 Z-0.0563
G1 X12.1092
G1 Z-0.1463 F30.
G1 X15.5906 F6.1
G2 X15.6449 Y-5.535 I0 J-0.0625
G1 X16.4323 Y-6.9129
G2 X16.4405 Y-6.9439 I-0.0543 J-0.031
G1 Y-9.6799
G2 X16.4321 Y-9.7111 I-0.0625 J0
G1 X16.307 Y-9.9279
G2 X16.2804 Y-9.9528 I-0.0541 J0.0312
G3 X16.2747 Y-9.9695 I0.0055 J-0.0112
G1 X16.2802 Y-9.9807
G1 X16.2815 Y-9.9832 Z-0.1459
G1 X16.2826 Y-9.9856 Z-0.145
G1 X16.2837 Y-9.9877 Z-0.1435
G1 X16.2845 Y-9.9895 Z-0.1415
G1 X16.2852 Y-9.9908 Z-0.1392
G1 X16.2856 Y-9.9917 Z-0.1365
G1 X16.2857 Y-9.9919 Z-0.1338
G0 Z0.2
G0 X16.3082 Y-9.9809
G1 Z-0.0906 F30.
G1 Z-0.1438
G1 X16.308 Y-9.9806 Z-0.1465 F6.1
G1 X16.3076 Y-9.9798 Z-0.1492
G1 X16.307 Y-9.9785 Z-0.1515
G1 X16.3061 Y-9.9767 Z-0.1535
G1 X16.3051 Y-9.9746 Z-0.155
G1 X16.3039 Y-9.9722 Z-0.1559
G1 X16.3027 Y-9.9697 Z-0.1563
G1 X16.2971 Y-9.9585
G3 X16.2804 Y-9.9528 I-0.0112 J-0.0055
G2 X16.2528 Y-9.9592 I-0.0276 J0.0561
G1 X13.753
G1 Z-0.0563
G1 X13.503
G1 Z-0.1563 F30.
G1 X8.5032 F6.1
G1 Z-0.0563
G1 X8.2532
G1 Z-0.1563 F30.
G1 X3.2534 F6.1
G1 Z-0.0563
G1 X3.0034
G1 Z-0.1563 F30.
G1 X0.5036 F6.1
G2 X0.4494 Y-9.9279 I0 J0.0625
G1 X0.3239 Y-9.7105
G2 X0.3155 Y-9.6792 I0.0541 J0.0313
G1 Y-6.9439
G2 X0.3237 Y-6.9129 I0.0625 J0
G1 X1.1107 Y-5.535
G2 X1.165 Y-5.5035 I0.0543 J-0.031
G1 X4.6464
G1 Z-0.0563
G1 X4.8964
G1 Z-0.1563 F30.
G1 X11.8592 F6.1
G1 Z-0.0563
G1 X12.1092
G1 Z-0.1563 F30.
G1 X15.5906 F6.1
G2 X15.6449 Y-5.535 I0 J-0.0625
G1 X16.4323 Y-6.9129
G2 X16.4405 Y-6.9439 I-0.0543 J-0.031
G1 Y-9.6799
G2 X16.4321 Y-9.7111 I-0.0625 J0
G1 X16.307 Y-9.9279
G2 X16.2804 Y-9.9528 I-0.0541 J0.0312
G3 X16.2747 Y-9.9695 I0.0055 J-0.0112
G1 X16.2802 Y-9.9807
G1 X16.2815 Y-9.9832 Z-0.1559
G1 X16.2826 Y-9.9856 Z-0.155
G1 X16.2837 Y-9.9877 Z-0.1535
G1 X16.2845 Y-9.9895 Z-0.1515
G1 X16.2852 Y-9.9908 Z-0.1492
G1 X16.2856 Y-9.9917 Z-0.1465
G1 X16.2857 Y-9.9919 Z-0.1438
G0 Z0.2
G0 X15.9813 Y-10.9856
G1 Z0.0556 F30.
G1 Z-0.0038
G1 X15.981 Y-10.9858 Z-0.0065 F6.1
G1 X15.9802 Y-10.9863 Z-0.0092
G1 X15.9789 Y-10.987 Z-0.0115
G1 X15.9772 Y-10.988 Z-0.0135
G1 X15.9751 Y-10.9892 Z-0.015
G1 X15.9728 Y-10.9905 Z-0.0159
G1 X15.9704 Y-10.9919 Z-0.0163
G1 X15.9596 Y-10.9981
G3 X15.9537 Y-11.0056 I0.0062 J-0.0109
G3 X15.9549 Y-11.0151 I0.0121 J-0.0033
G1 X16.4352 Y-11.8556
G2 X16.4434 Y-11.8866 I-0.0543 J-0.031
G1 Y-14.3726
G2 X16.4413 Y-14.3887 I-0.0625 J0
G1 X16.3161 Y-14.8556
G2 X16.2557 Y-14.9019 I-0.0604 J0.0162
G1 X0.5065
G2 X0.4524 Y-14.8706 I0 J0.0625
G1 X0.3268 Y-14.6531
G2 X0.3184 Y-14.6219 I0.0541 J0.0313
G1 Y-11.8866
G2 X0.3267 Y-11.8556 I0.0625 J0
G1 X1.1137 Y-10.4777
G2 X1.1679 Y-10.4462 I0.0543 J-0.031
G1 X15.5935
G2 X15.6478 Y-10.4777 I0 J-0.0625
G1 X15.9549 Y-11.0151
G3 X15.972 Y-11.0198 I0.0109 J0.0062
G1 X15.9828 Y-11.0136
G1 X15.9852 Y-11.0122 Z-0.0159
G1 X15.9875 Y-11.0109 Z-0.015
G1 X15.9896 Y-11.0097 Z-0.0135
G1 X15.9913 Y-11.0087 Z-0.0115
G1 X15.9926 Y-11.008 Z-0.0092
G1 X15.9934 Y-11.0075 Z-0.0065
G1 X15.9937 Y-11.0074 Z-0.0038
G0 Z0.2
G0 X15.9813 Y-10.9856
G1 Z0.0394 F30.
G1 Z-0.02
G1 X15.981 Y-10.9858 Z-0.0228 F6.1
G1 X15.9802 Y-10.9863 Z-0.0254
G1 X15.9789 Y-10.987 Z-0.0278
G1 X15.9772 Y-10.988 Z-0.0298
G1 X15.9751 Y-10.9892 Z-0.0313
G1 X15.9728 Y-10.9905 Z-0.0322
G1 X15.9704 Y-10.9919 Z-0.0325
G1 X15.9596 Y-10.9981
G3 X15.9537 Y-11.0056 I0.0062 J-0.0109
G3 X15.9549 Y-11.0151 I0.0121 J-0.0033
G1 X16.4352 Y-11.8556
G2 X16.4434 Y-11.8866 I-0.0543 J-0.031
G1 Y-14.3726
G2 X16.4413 Y-14.3887 I-0.0625 J0
G1 X16.3161 Y-14.8556
G2 X16.2557 Y-14.9019 I-0.0604 J0.0162
G1 X0.5065
G2 X0.4524 Y-14.8706 I0 J0.0625
G1 X0.3268 Y-14.6531
G2 X0.3184 Y-14.6219 I0.0541 J0.0313
G1 Y-11.8866
G2 X0.3267 Y-11.8556 I0.0625 J0
G1 X1.1137 Y-10.4777
G2 X1.1679 Y-10.4462 I0.0543 J-0.031
G1 X15.5935
G2 X15.6478 Y-10.4777 I0 J-0.0625
G1 X15.9549 Y-11.0151
G3 X15.972 Y-11.0198 I0.0109 J0.0062
G1 X15.9828 Y-11.0136
G1 X15.9852 Y-11.0122 Z-0.0322
G1 X15.9875 Y-11.0109 Z-0.0313
G1 X15.9896 Y-11.0097 Z-0.0298
G1 X15.9913 Y-11.0087 Z-0.0278
G1 X15.9926 Y-11.008 Z-0.0254
G1 X15.9934 Y-11.0075 Z-0.0228
G1 X15.9937 Y-11.0074 Z-0.02
G0 Z0.2
G0 X15.9813 Y-10.9856
G1 Z0.0231 F30.
G1 Z-0.0363
G1 X15.981 Y-10.9858 Z-0.039 F6.1
G1 X15.9802 Y-10.9863 Z-0.0417
G1 X15.9789 Y-10.987 Z-0.044
G1 X15.9772 Y-10.988 Z-0.046
G1 X15.9751 Y-10.9892 Z-0.0475
G1 X15.9728 Y-10.9905 Z-0.0484
G1 X15.9704 Y-10.9919 Z-0.0488
G1 X15.9596 Y-10.9981
G3 X15.9537 Y-11.0056 I0.0062 J-0.0109
G3 X15.9549 Y-11.0151 I0.0121 J-0.0033
G1 X16.4352 Y-11.8556
G2 X16.4434 Y-11.8866 I-0.0543 J-0.031
G1 Y-14.3726
G2 X16.4413 Y-14.3887 I-0.0625 J0
G1 X16.3161 Y-14.8556
G2 X16.2557 Y-14.9019 I-0.0604 J0.0162
G1 X0.5065
G2 X0.4524 Y-14.8706 I0 J0.0625
G1 X0.3268 Y-14.6531
G2 X0.3184 Y-14.6219 I0.0541 J0.0313
G1 Y-11.8866
G2 X0.3267 Y-11.8556 I0.0625 J0
G1 X1.1137 Y-10.4777
G2 X1.1679 Y-10.4462 I0.0543 J-0.031
G1 X15.5935
G2 X15.6478 Y-10.4777 I0 J-0.0625
G1 X15.9549 Y-11.0151
G3 X15.972 Y-11.0198 I0.0109 J0.0062
G1 X15.9828 Y-11.0136
G1 X15.9852 Y-11.0122 Z-0.0484
G1 X15.9875 Y-11.0109 Z-0.0475
G1 X15.9896 Y-11.0097 Z-0.046
G1 X15.9913 Y-11.0087 Z-0.044
G1 X15.9926 Y-11.008 Z-0.0417
G1 X15.9934 Y-11.0075 Z-0.039
G1 X15.9937 Y-11.0074 Z-0.0363
G0 Z0.2
G0 X15.9813 Y-10.9856
G1 Z0.0069 F30.
G1 Z-0.0525
G1 X15.981 Y-10.9858 Z-0.0553 F6.1
G1 X15.9802 Y-10.9863 Z-0.0579
G1 X15.9789 Y-10.987 Z-0.0603
G1 X15.9772 Y-10.988 Z-0.0623
G1 X15.9751 Y-10.9892 Z-0.0638
G1 X15.9728 Y-10.9905 Z-0.0647
G1 X15.9704 Y-10.9919 Z-0.065
G1 X15.9596 Y-10.9981
G3 X15.9537 Y-11.0056 I0.0062 J-0.0109
G3 X15.9549 Y-11.0151 I0.0121 J-0.0033
G1 X16.4352 Y-11.8556
G2 X16.4434 Y-11.8866 I-0.0543 J-0.031
G1 Y-14.3726
G2 X16.4413 Y-14.3887 I-0.0625 J0
G1 X16.3161 Y-14.8556
G2 X16.2557 Y-14.9019 I-0.0604 J0.0162
G1 X13.7559
G1 Z-0.0563
G1 X13.5059
G1 Z-0.065 F30.
G1 X8.5061 F6.1
G1 Z-0.0563
G1 X8.2561
G1 Z-0.065 F30.
G1 X3.2564 F6.1
G1 Z-0.0563
G1 X3.0064
G1 Z-0.065 F30.
G1 X0.5065 F6.1
G2 X0.4524 Y-14.8706 I0 J0.0625
G1 X0.3268 Y-14.6531
G2 X0.3184 Y-14.6219 I0.0541 J0.0313
G1 Y-11.8866
G2 X0.3267 Y-11.8556 I0.0625 J0
G1 X1.1137 Y-10.4777
G2 X1.1679 Y-10.4462 I0.0543 J-0.031
G1 X4.6493
G1 Z-0.0563
G1 X4.8993
G1 Z-0.065 F30.
G1 X11.8621 F6.1
G1 Z-0.0563
G1 X12.1121
G1 Z-0.065 F30.
G1 X15.5935 F6.1
G2 X15.6478 Y-10.4777 I0 J-0.0625
G1 X15.9549 Y-11.0151
G3 X15.972 Y-11.0198 I0.0109 J0.0062
G1 X15.9828 Y-11.0136
G1 X15.9852 Y-11.0122 Z-0.0647
G1 X15.9875 Y-11.0109 Z-0.0638
G1 X15.9896 Y-11.0097 Z-0.0623
G1 X15.9913 Y-11.0087 Z-0.0603
G1 X15.9926 Y-11.008 Z-0.0579
G1 X15.9934 Y-11.0075 Z-0.0553
G1 X15.9937 Y-11.0074 Z-0.0525
G0 Z0.2
G0 X15.9813 Y-10.9856
G1 Z-0.0094 F30.
G1 Z-0.0688
G1 X15.981 Y-10.9858 Z-0.0715 F6.1
G1 X15.9802 Y-10.9863 Z-0.0742
G1 X15.9789 Y-10.987 Z-0.0765
G1 X15.9772 Y-10.988 Z-0.0785
G1 X15.9751 Y-10.9892 Z-0.08
G1 X15.9728 Y-10.9905 Z-0.0809
G1 X15.9704 Y-10.9919 Z-0.0813
G1 X15.9596 Y-10.9981
G3 X15.9537 Y-11.0056 I0.0062 J-0.0109
G3 X15.9549 Y-11.0151 I0.0121 J-0.0033
G1 X16.4352 Y-11.8556
G2 X16.4434 Y-11.8866 I-0.0543 J-0.031
G1 Y-14.3726
G2 X16.4413 Y-14.3887 I-0.0625 J0
G1 X16.3161 Y-14.8556
G2 X16.2557 Y-14.9019 I-0.0604 J0.0162
G1 X13.7559
G1 Z-0.0563
G1 X13.5059
G1 Z-0.0813 F30.
G1 X8.5061 F6.1
G1 Z-0.0563
G1 X8.2561
G1 Z-0.0813 F30.
G1 X3.2564 F6.1
G1 Z-0.0563
G1 X3.0064
G1 Z-0.0813 F30.
G1 X0.5065 F6.1
G2 X0.4524 Y-14.8706 I0 J0.0625
G1 X0.3268 Y-14.6531
G2 X0.3184 Y-14.6219 I0.0541 J0.0313
G1 Y-11.8866
G2 X0.3267 Y-11.8556 I0.0625 J0
G1 X1.1137 Y-10.4777
G2 X1.1679 Y-10.4462 I0.0543 J-0.031
G1 X4.6493
G1 Z-0.0563
G1 X4.8993
G1 Z-0.0813 F30.
G1 X11.8621 F6.1
G1 Z-0.0563
G1 X12.1121
G1 Z-0.0813 F30.
G1 X15.5935 F6.1
G2 X15.6478 Y-10.4777 I0 J-0.0625
G1 X15.9549 Y-11.0151
G3 X15.972 Y-11.0198 I0.0109 J0.0062
G1 X15.9828 Y-11.0136
G1 X15.9852 Y-11.0122 Z-0.0809
G1 X15.9875 Y-11.0109 Z-0.08
G1 X15.9896 Y-11.0097 Z-0.0785
G1 X15.9913 Y-11.0087 Z-0.0765
G1 X15.9926 Y-11.008 Z-0.0742
G1 X15.9934 Y-11.0075 Z-0.0715
G1 X15.9937 Y-11.0074 Z-0.0688
G0 Z0.2
G0 X15.9813 Y-10.9856
G1 Z-0.0256 F30.
G1 Z-0.085
G1 X15.981 Y-10.9858 Z-0.0878 F6.1
G1 X15.9802 Y-10.9863 Z-0.0904
G1 X15.9789 Y-10.987 Z-0.0928
G1 X15.9772 Y-10.988 Z-0.0948
G1 X15.9751 Y-10.9892 Z-0.0963
G1 X15.9728 Y-10.9905 Z-0.0972
G1 X15.9704 Y-10.9919 Z-0.0975
G1 X15.9596 Y-10.9981
G3 X15.9537 Y-11.0056 I0.0062 J-0.0109
G3 X15.9549 Y-11.0151 I0.0121 J-0.0033
G1 X16.4352 Y-11.8556
G2 X16.4434 Y-11.8866 I-0.0543 J-0.031
G1 Y-14.3726
G2 X16.4413 Y-14.3887 I-0.0625 J0
G1 X16.3161 Y-14.8556
G2 X16.2557 Y-14.9019 I-0.0604 J0.0162
G1 X13.7559
G1 Z-0.0563
G1 X13.5059
G1 Z-0.0975 F30.
G1 X8.5061 F6.1
G1 Z-0.0563
G1 X8.2561
G1 Z-0.0975 F30.
G1 X3.2564 F6.1
G1 Z-0.0563
G1 X3.0064
G1 Z-0.0975 F30.
G1 X0.5065 F6.1
G2 X0.4524 Y-14.8706 I0 J0.0625
G1 X0.3268 Y-14.6531
G2 X0.3184 Y-14.6219 I0.0541 J0.0313
G1 Y-11.8866
G2 X0.3267 Y-11.8556 I0.0625 J0
G1 X1.1137 Y-10.4777
G2 X1.1679 Y-10.4462 I0.0543 J-0.031
G1 X4.6493
G1 Z-0.0563
G1 X4.8993
G1 Z-0.0975 F30.
G1 X11.8621 F6.1
G1 Z-0.0563
G1 X12.1121
G1 Z-0.0975 F30.
G1 X15.5935 F6.1
G2 X15.6478 Y-10.4777 I0 J-0.0625
G1 X15.9549 Y-11.0151
G3 X15.972 Y-11.0198 I0.0109 J0.0062
G1 X15.9828 Y-11.0136
G1 X15.9852 Y-11.0122 Z-0.0972
G1 X15.9875 Y-11.0109 Z-0.0963
G1 X15.9896 Y-11.0097 Z-0.0948
G1 X15.9913 Y-11.0087 Z-0.0928
G1 X15.9926 Y-11.008 Z-0.0904
G1 X15.9934 Y-11.0075 Z-0.0878
G1 X15.9937 Y-11.0074 Z-0.085
G0 Z0.2
G0 X15.9813 Y-10.9856
G1 Z-0.0419 F30.
G1 Z-0.1013
G1 X15.981 Y-10.9858 Z-0.104 F6.1
G1 X15.9802 Y-10.9863 Z-0.1067
G1 X15.9789 Y-10.987 Z-0.109
G1 X15.9772 Y-10.988 Z-0.111
G1 X15.9751 Y-10.9892 Z-0.1125
G1 X15.9728 Y-10.9905 Z-0.1134
G1 X15.9704 Y-10.9919 Z-0.1138
G1 X15.9596 Y-10.9981
G3 X15.9537 Y-11.0056 I0.0062 J-0.0109
G3 X15.9549 Y-11.0151 I0.0121 J-0.0033
G1 X16.4352 Y-11.8556
G2 X16.4434 Y-11.8866 I-0.0543 J-0.031
G1 Y-14.3726
G2 X16.4413 Y-14.3887 I-0.0625 J0
G1 X16.3161 Y-14.8556
G2 X16.2557 Y-14.9019 I-0.0604 J0.0162
G1 X13.7559
G1 Z-0.0563
G1 X13.5059
G1 Z-0.1138 F30.
G1 X8.5061 F6.1
G1 Z-0.0563
G1 X8.2561
G1 Z-0.1138 F30.
G1 X3.2564 F6.1
G1 Z-0.0563
G1 X3.0064
G1 Z-0.1138 F30.
G1 X0.5065 F6.1
G2 X0.4524 Y-14.8706 I0 J0.0625
G1 X0.3268 Y-14.6531
G2 X0.3184 Y-14.6219 I0.0541 J0.0313
G1 Y-11.8866
G2 X0.3267 Y-11.8556 I0.0625 J0
G1 X1.1137 Y-10.4777
G2 X1.1679 Y-10.4462 I0.0543 J-0.031
G1 X4.6493
G1 Z-0.0563
G1 X4.8993
G1 Z-0.1138 F30.
G1 X11.8621 F6.1
G1 Z-0.0563
G1 X12.1121
G1 Z-0.1138 F30.
G1 X15.5935 F6.1
G2 X15.6478 Y-10.4777 I0 J-0.0625
G1 X15.9549 Y-11.0151
G3 X15.972 Y-11.0198 I0.0109 J0.0062
G1 X15.9828 Y-11.0136
G1 X15.9852 Y-11.0122 Z-0.1134
G1 X15.9875 Y-11.0109 Z-0.1125
G1 X15.9896 Y-11.0097 Z-0.111
G1 X15.9913 Y-11.0087 Z-0.109
G1 X15.9926 Y-11.008 Z-0.1067
G1 X15.9934 Y-11.0075 Z-0.104
G1 X15.9937 Y-11.0074 Z-0.1013
G0 Z0.2
G0 X15.9813 Y-10.9856
G1 Z-0.0581 F30.
G1 Z-0.1175
G1 X15.981 Y-10.9858 Z-0.1203 F6.1
G1 X15.9802 Y-10.9863 Z-0.1229
G1 X15.9789 Y-10.987 Z-0.1253
G1 X15.9772 Y-10.988 Z-0.1273
G1 X15.9751 Y-10.9892 Z-0.1288
G1 X15.9728 Y-10.9905 Z-0.1297
G1 X15.9704 Y-10.9919 Z-0.13
G1 X15.9596 Y-10.9981
G3 X15.9537 Y-11.0056 I0.0062 J-0.0109
G3 X15.9549 Y-11.0151 I0.0121 J-0.0033
G1 X16.4352 Y-11.8556
G2 X16.4434 Y-11.8866 I-0.0543 J-0.031
G1 Y-14.3726
G2 X16.4413 Y-14.3887 I-0.0625 J0
G1 X16.3161 Y-14.8556
G2 X16.2557 Y-14.9019 I-0.0604 J0.0162
G1 X13.7559
G1 Z-0.0563
G1 X13.5059
G1 Z-0.13 F30.
G1 X8.5061 F6.1
G1 Z-0.0563
G1 X8.2561
G1 Z-0.13 F30.
G1 X3.2564 F6.1
G1 Z-0.0563
G1 X3.0064
G1 Z-0.13 F30.
G1 X0.5065 F6.1
G2 X0.4524 Y-14.8706 I0 J0.0625
G1 X0.3268 Y-14.6531
G2 X0.3184 Y-14.6219 I0.0541 J0.0313
G1 Y-11.8866
G2 X0.3267 Y-11.8556 I0.0625 J0
G1 X1.1137 Y-10.4777
G2 X1.1679 Y-10.4462 I0.0543 J-0.031
G1 X4.6493
G1 Z-0.0563
G1 X4.8993
G1 Z-0.13 F30.
G1 X11.8621 F6.1
G1 Z-0.0563
G1 X12.1121
G1 Z-0.13 F30.
G1 X15.5935 F6.1
G2 X15.6478 Y-10.4777 I0 J-0.0625
G1 X15.9549 Y-11.0151
G3 X15.972 Y-11.0198 I0.0109 J0.0062
G1 X15.9828 Y-11.0136
G1 X15.9852 Y-11.0122 Z-0.1297
G1 X15.9875 Y-11.0109 Z-0.1288
G1 X15.9896 Y-11.0097 Z-0.1273
G1 X15.9913 Y-11.0087 Z-0.1253
G1 X15.9926 Y-11.008 Z-0.1229
G1 X15.9934 Y-11.0075 Z-0.1203
G1 X15.9937 Y-11.0074 Z-0.1175
G0 Z0.2
G0 X15.9813 Y-10.9856
G1 Z-0.0744 F30.
G1 Z-0.1338
G1 X15.981 Y-10.9858 Z-0.1365 F6.1
G1 X15.9802 Y-10.9863 Z-0.1392
G1 X15.9789 Y-10.987 Z-0.1415
G1 X15.9772 Y-10.988 Z-0.1435
G1 X15.9751 Y-10.9892 Z-0.145
G1 X15.9728 Y-10.9905 Z-0.1459
G1 X15.9704 Y-10.9919 Z-0.1463
G1 X15.9596 Y-10.9981
G3 X15.9537 Y-11.0056 I0.0062 J-0.0109
G3 X15.9549 Y-11.0151 I0.0121 J-0.0033
G1 X16.4352 Y-11.8556
G2 X16.4434 Y-11.8866 I-0.0543 J-0.031
G1 Y-14.3726
G2 X16.4413 Y-14.3887 I-0.0625 J0
G1 X16.3161 Y-14.8556
G2 X16.2557 Y-14.9019 I-0.0604 J0.0162
G1 X13.7559
G1 Z-0.0563
G1 X13.5059
G1 Z-0.1463 F30.
G1 X8.5061 F6.1
G1 Z-0.0563
G1 X8.2561
G1 Z-0.1463 F30.
G1 X3.2564 F6.1
G1 Z-0.0563
G1 X3.0064
G1 Z-0.1463 F30.
G1 X0.5065 F6.1
G2 X0.4524 Y-14.8706 I0 J0.0625
G1 X0.3268 Y-14.6531
G2 X0.3184 Y-14.6219 I0.0541 J0.0313
G1 Y-11.8866
G2 X0.3267 Y-11.8556 I0.0625 J0
G1 X1.1137 Y-10.4777
G2 X1.1679 Y-10.4462 I0.0543 J-0.031
G1 X4.6493
G1 Z-0.0563
G1 X4.8993
G1 Z-0.1463 F30.
G1 X11.8621 F6.1
G1 Z-0.0563
G1 X12.1121
G1 Z-0.1463 F30.
G1 X15.5935 F6.1
G2 X15.6478 Y-10.4777 I0 J-0.0625
G1 X15.9549 Y-11.0151
G3 X15.972 Y-11.0198 I0.0109 J0.0062
G1 X15.9828 Y-11.0136
G1 X15.9852 Y-11.0122 Z-0.1459
G1 X15.9875 Y-11.0109 Z-0.145
G1 X15.9896 Y-11.0097 Z-0.1435
G1 X15.9913 Y-11.0087 Z-0.1415
G1 X15.9926 Y-11.008 Z-0.1392
G1 X15.9934 Y-11.0075 Z-0.1365
G1 X15.9937 Y-11.0074 Z-0.1338
G0 Z0.2
G0 X15.9813 Y-10.9856
G1 Z-0.0906 F30.
G1 Z-0.1438
G1 X15.981 Y-10.9858 Z-0.1465 F6.1
G1 X15.9802 Y-10.9863 Z-0.1492
G1 X15.9789 Y-10.987 Z-0.1515
G1 X15.9772 Y-10.988 Z-0.1535
G1 X15.9751 Y-10.9892 Z-0.155
G1 X15.9728 Y-10.9905 Z-0.1559
G1 X15.9704 Y-10.9919 Z-0.1563
G1 X15.9596 Y-10.9981
G3 X15.9537 Y-11.0056 I0.0062 J-0.0109
G3 X15.9549 Y-11.0151 I0.0121 J-0.0033
G1 X16.4352 Y-11.8556
G2 X16.4434 Y-11.8866 I-0.0543 J-0.031
G1 Y-14.3726
G2 X16.4413 Y-14.3887 I-0.0625 J0
G1 X16.3161 Y-14.8556
G2 X16.2557 Y-14.9019 I-0.0604 J0.0162
G1 X13.7559
G1 Z-0.0563
G1 X13.5059
G1 Z-0.1563 F30.
G1 X8.5061 F6.1
G1 Z-0.0563
G1 X8.2561
G1 Z-0.1563 F30.
G1 X3.2564 F6.1
G1 Z-0.0563
G1 X3.0064
G1 Z-0.1563 F30.
G1 X0.5065 F6.1
G2 X0.4524 Y-14.8706 I0 J0.0625
G1 X0.3268 Y-14.6531
G2 X0.3184 Y-14.6219 I0.0541 J0.0313
G1 Y-11.8866
G2 X0.3267 Y-11.8556 I0.0625 J0
G1 X1.1137 Y-10.4777
G2 X1.1679 Y-10.4462 I0.0543 J-0.031
G1 X4.6493
G1 Z-0.0563
G1 X4.8993
G1 Z-0.1563 F30.
G1 X11.8621 F6.1
G1 Z-0.0563
G1 X12.1121
G1 Z-0.1563 F30.
G1 X15.5935 F6.1
G2 X15.6478 Y-10.4777 I0 J-0.0625
G1 X15.9549 Y-11.0151
G3 X15.972 Y-11.0198 I0.0109 J0.0062
G1 X15.9828 Y-11.0136
G1 X15.9852 Y-11.0122 Z-0.1559
G1 X15.9875 Y-11.0109 Z-0.155
G1 X15.9896 Y-11.0097 Z-0.1535
G1 X15.9913 Y-11.0087 Z-0.1515
G1 X15.9926 Y-11.008 Z-0.1492
G1 X15.9934 Y-11.0075 Z-0.1465
G1 X15.9937 Y-11.0074 Z-0.1438
G0 Z0.2
G0 X17.9091 Y-9.8359
G1 Z0.0556 F30.
G1 Z-0.0038
G1 X17.9093 Y-9.836 Z-0.0065 F6.1
G1 X17.9101 Y-9.8365 Z-0.0092
G1 X17.9114 Y-9.8372 Z-0.0115
G1 X17.9131 Y-9.8382 Z-0.0135
G1 X17.9152 Y-9.8394 Z-0.015
G1 X17.9175 Y-9.8407 Z-0.0159
G1 X17.9199 Y-9.8421 Z-0.0163
G1 X17.9308 Y-9.8483
G3 X17.9478 Y-9.8436 I0.0062 J0.0109
G2 X18.0021 Y-9.8121 I0.0543 J-0.031
G1 X32.4277
G2 X32.4819 Y-9.8436 I0 J-0.0625
G1 X33.2693 Y-11.2216
G2 X33.2776 Y-11.2526 I-0.0543 J-0.031
G1 Y-13.9885
G2 X33.2692 Y-14.0198 I-0.0625 J0
G1 X33.144 Y-14.2366
G2 X33.0899 Y-14.2678 I-0.0541 J0.0313
G1 X17.3406
G2 X17.2865 Y-14.2366 I0 J0.0625
G1 X17.161 Y-14.0191
G2 X17.1526 Y-13.9878 I0.0541 J0.0312
G1 Y-11.2526
G2 X17.1608 Y-11.2216 I0.0625 J0
G1 X17.9478 Y-9.8436
G3 X17.9432 Y-9.8266 I-0.0109 J0.0062
G1 X17.9323 Y-9.8204
G1 X17.9299 Y-9.819 Z-0.0159
G1 X17.9276 Y-9.8177 Z-0.015
G1 X17.9255 Y-9.8165 Z-0.0135
G1 X17.9238 Y-9.8155 Z-0.0115
G1 X17.9225 Y-9.8148 Z-0.0092
G1 X17.9217 Y-9.8143 Z-0.0065
G1 X17.9215 Y-9.8142 Z-0.0038
G0 Z0.2
G0 X17.9091 Y-9.8359
G1 Z0.0394 F30.
G1 Z-0.02
G1 X17.9093 Y-9.836 Z-0.0228 F6.1
G1 X17.9101 Y-9.8365 Z-0.0254
G1 X17.9114 Y-9.8372 Z-0.0278
G1 X17.9131 Y-9.8382 Z-0.0298
G1 X17.9152 Y-9.8394 Z-0.0313
G1 X17.9175 Y-9.8407 Z-0.0322
G1 X17.9199 Y-9.8421 Z-0.0325
G1 X17.9308 Y-9.8483
G3 X17.9478 Y-9.8436 I0.0062 J0.0109
G2 X18.0021 Y-9.8121 I0.0543 J-0.031
G1 X32.4277
G2 X32.4819 Y-9.8436 I0 J-0.0625
G1 X33.2693 Y-11.2216
G2 X33.2776 Y-11.2526 I-0.0543 J-0.031
G1 Y-13.9885
G2 X33.2692 Y-14.0198 I-0.0625 J0
G1 X33.144 Y-14.2366
G2 X33.0899 Y-14.2678 I-0.0541 J0.0313
G1 X17.3406
G2 X17.2865 Y-14.2366 I0 J0.0625
G1 X17.161 Y-14.0191
G2 X17.1526 Y-13.9878 I0.0541 J0.0312
G1 Y-11.2526
G2 X17.1608 Y-11.2216 I0.0625 J0
G1 X17.9478 Y-9.8436
G3 X17.9432 Y-9.8266 I-0.0109 J0.0062
G1 X17.9323 Y-9.8204
G1 X17.9299 Y-9.819 Z-0.0322
G1 X17.9276 Y-9.8177 Z-0.0313
G1 X17.9255 Y-9.8165 Z-0.0298
G1 X17.9238 Y-9.8155 Z-0.0278
G1 X17.9225 Y-9.8148 Z-0.0254
G1 X17.9217 Y-9.8143 Z-0.0228
G1 X17.9215 Y-9.8142 Z-0.02
G0 Z0.2
G0 X17.9091 Y-9.8359
G1 Z0.0231 F30.
G1 Z-0.0363
G1 X17.9093 Y-9.836 Z-0.039 F6.1
G1 X17.9101 Y-9.8365 Z-0.0417
G1 X17.9114 Y-9.8372 Z-0.044
G1 X17.9131 Y-9.8382 Z-0.046
G1 X17.9152 Y-9.8394 Z-0.0475
G1 X17.9175 Y-9.8407 Z-0.0484
G1 X17.9199 Y-9.8421 Z-0.0488
G1 X17.9308 Y-9.8483
G3 X17.9478 Y-9.8436 I0.0062 J0.0109
G2 X18.0021 Y-9.8121 I0.0543 J-0.031
G1 X32.4277
G2 X32.4819 Y-9.8436 I0 J-0.0625
G1 X33.2693 Y-11.2216
G2 X33.2776 Y-11.2526 I-0.0543 J-0.031
G1 Y-13.9885
G2 X33.2692 Y-14.0198 I-0.0625 J0
G1 X33.144 Y-14.2366
G2 X33.0899 Y-14.2678 I-0.0541 J0.0313
G1 X17.3406
G2 X17.2865 Y-14.2366 I0 J0.0625
G1 X17.161 Y-14.0191
G2 X17.1526 Y-13.9878 I0.0541 J0.0312
G1 Y-11.2526
G2 X17.1608 Y-11.2216 I0.0625 J0
G1 X17.9478 Y-9.8436
G3 X17.9432 Y-9.8266 I-0.0109 J0.0062
G1 X17.9323 Y-9.8204
G1 X17.9299 Y-9.819 Z-0.0484
G1 X17.9276 Y-9.8177 Z-0.0475
G1 X17.9255 Y-9.8165 Z-0.046
G1 X17.9238 Y-9.8155 Z-0.044
G1 X17.9225 Y-9.8148 Z-0.0417
G1 X17.9217 Y-9.8143 Z-0.039
G1 X17.9215 Y-9.8142 Z-0.0363
G0 Z0.2
G0 X17.9091 Y-9.8359
G1 Z0.0069 F30.
G1 Z-0.0525
G1 X17.9093 Y-9.836 Z-0.0553 F6.1
G1 X17.9101 Y-9.8365 Z-0.0579
G1 X17.9114 Y-9.8372 Z-0.0603
G1 X17.9131 Y-9.8382 Z-0.0623
G1 X17.9152 Y-9.8394 Z-0.0638
G1 X17.9175 Y-9.8407 Z-0.0647
G1 X17.9199 Y-9.8421 Z-0.065
G1 X17.9308 Y-9.8483
G3 X17.9478 Y-9.8436 I0.0062 J0.0109
G2 X18.0021 Y-9.8121 I0.0543 J-0.031
G1 X21.4835
G1 Z-0.0563
G1 X21.7335
G1 Z-0.065 F30.
G1 X28.6963 F6.1
G1 Z-0.0563
G1 X28.9463
G1 Z-0.065 F30.
G1 X32.4277 F6.1
G2 X32.4819 Y-9.8436 I0 J-0.0625
G1 X33.2693 Y-11.2216
G2 X33.2776 Y-11.2526 I-0.0543 J-0.031
G1 Y-13.9885
G2 X33.2692 Y-14.0198 I-0.0625 J0
G1 X33.144 Y-14.2366
G2 X33.0899 Y-14.2678 I-0.0541 J0.0313
G1 X30.59
G1 Z-0.0563
G1 X30.34
G1 Z-0.065 F30.
G1 X25.3403 F6.1
G1 Z-0.0563
G1 X25.0903
G1 Z-0.065 F30.
G1 X20.0905 F6.1
G1 Z-0.0563
G1 X19.8405
G1 Z-0.065 F30.
G1 X17.3406 F6.1
G2 X17.2865 Y-14.2366 I0 J0.0625
G1 X17.161 Y-14.0191
G2 X17.1526 Y-13.9878 I0.0541 J0.0312
G1 Y-11.2526
G2 X17.1608 Y-11.2216 I0.0625 J0
G1 X17.9478 Y-9.8436
G3 X17.9432 Y-9.8266 I-0.0109 J0.0062
G1 X17.9323 Y-9.8204
G1 X17.9299 Y-9.819 Z-0.0647
G1 X17.9276 Y-9.8177 Z-0.0638
G1 X17.9255 Y-9.8165 Z-0.0623
G1 X17.9238 Y-9.8155 Z-0.0603
G1 X17.9225 Y-9.8148 Z-0.0579
G1 X17.9217 Y-9.8143 Z-0.0553
G1 X17.9215 Y-9.8142 Z-0.0525
G0 Z0.2
G0 X17.9091 Y-9.8359
G1 Z-0.0094 F30.
G1 Z-0.0688
G1 X17.9093 Y-9.836 Z-0.0715 F6.1
G1 X17.9101 Y-9.8365 Z-0.0742
G1 X17.9114 Y-9.8372 Z-0.0765
G1 X17.9131 Y-9.8382 Z-0.0785
G1 X17.9152 Y-9.8394 Z-0.08
G1 X17.9175 Y-9.8407 Z-0.0809
G1 X17.9199 Y-9.8421 Z-0.0813
G1 X17.9308 Y-9.8483
G3 X17.9478 Y-9.8436 I0.0062 J0.0109
G2 X18.0021 Y-9.8121 I0.0543 J-0.031
G1 X21.4835
G1 Z-0.0563
G1 X21.7335
G1 Z-0.0813 F30.
G1 X28.6963 F6.1
G1 Z-0.0563
G1 X28.9463
G1 Z-0.0813 F30.
G1 X32.4277 F6.1
G2 X32.4819 Y-9.8436 I0 J-0.0625
G1 X33.2693 Y-11.2216
G2 X33.2776 Y-11.2526 I-0.0543 J-0.031
G1 Y-13.9885
G2 X33.2692 Y-14.0198 I-0.0625 J0
G1 X33.144 Y-14.2366
G2 X33.0899 Y-14.2678 I-0.0541 J0.0313
G1 X30.59
G1 Z-0.0563
G1 X30.34
G1 Z-0.0813 F30.
G1 X25.3403 F6.1
G1 Z-0.0563
G1 X25.0903
G1 Z-0.0813 F30.
G1 X20.0905 F6.1
G1 Z-0.0563
G1 X19.8405
G1 Z-0.0813 F30.
G1 X17.3406 F6.1
G2 X17.2865 Y-14.2366 I0 J0.0625
G1 X17.161 Y-14.0191
G2 X17.1526 Y-13.9878 I0.0541 J0.0312
G1 Y-11.2526
G2 X17.1608 Y-11.2216 I0.0625 J0
G1 X17.9478 Y-9.8436
G3 X17.9432 Y-9.8266 I-0.0109 J0.0062
G1 X17.9323 Y-9.8204
G1 X17.9299 Y-9.819 Z-0.0809
G1 X17.9276 Y-9.8177 Z-0.08
G1 X17.9255 Y-9.8165 Z-0.0785
G1 X17.9238 Y-9.8155 Z-0.0765
G1 X17.9225 Y-9.8148 Z-0.0742
G1 X17.9217 Y-9.8143 Z-0.0715
G1 X17.9215 Y-9.8142 Z-0.0688
G0 Z0.2
G0 X17.9091 Y-9.8359
G1 Z-0.0256 F30.
G1 Z-0.085
G1 X17.9093 Y-9.836 Z-0.0878 F6.1
G1 X17.9101 Y-9.8365 Z-0.0904
G1 X17.9114 Y-9.8372 Z-0.0928
G1 X17.9131 Y-9.8382 Z-0.0948
G1 X17.9152 Y-9.8394 Z-0.0963
G1 X17.9175 Y-9.8407 Z-0.0972
G1 X17.9199 Y-9.8421 Z-0.0975
G1 X17.9308 Y-9.8483
G3 X17.9478 Y-9.8436 I0.0062 J0.0109
G2 X18.0021 Y-9.8121 I0.0543 J-0.031
G1 X21.4835
G1 Z-0.0563
G1 X21.7335
G1 Z-0.0975 F30.
G1 X28.6963 F6.1
G1 Z-0.0563
G1 X28.9463
G1 Z-0.0975 F30.
G1 X32.4277 F6.1
G2 X32.4819 Y-9.8436 I0 J-0.0625
G1 X33.2693 Y-11.2216
G2 X33.2776 Y-11.2526 I-0.0543 J-0.031
G1 Y-13.9885
G2 X33.2692 Y-14.0198 I-0.0625 J0
G1 X33.144 Y-14.2366
G2 X33.0899 Y-14.2678 I-0.0541 J0.0313
G1 X30.59
G1 Z-0.0563
G1 X30.34
G1 Z-0.0975 F30.
G1 X25.3403 F6.1
G1 Z-0.0563
G1 X25.0903
G1 Z-0.0975 F30.
G1 X20.0905 F6.1
G1 Z-0.0563
G1 X19.8405
G1 Z-0.0975 F30.
G1 X17.3406 F6.1
G2 X17.2865 Y-14.2366 I0 J0.0625
G1 X17.161 Y-14.0191
G2 X17.1526 Y-13.9878 I0.0541 J0.0312
G1 Y-11.2526
G2 X17.1608 Y-11.2216 I0.0625 J0
G1 X17.9478 Y-9.8436
G3 X17.9432 Y-9.8266 I-0.0109 J0.0062
G1 X17.9323 Y-9.8204
G1 X17.9299 Y-9.819 Z-0.0972
G1 X17.9276 Y-9.8177 Z-0.0963
G1 X17.9255 Y-9.8165 Z-0.0948
G1 X17.9238 Y-9.8155 Z-0.0928
G1 X17.9225 Y-9.8148 Z-0.0904
G1 X17.9217 Y-9.8143 Z-0.0878
G1 X17.9215 Y-9.8142 Z-0.085
G0 Z0.2
G0 X17.9091 Y-9.8359
G1 Z-0.0419 F30.
G1 Z-0.1013
G1 X17.9093 Y-9.836 Z-0.104 F6.1
G1 X17.9101 Y-9.8365 Z-0.1067
G1 X17.9114 Y-9.8372 Z-0.109
G1 X17.9131 Y-9.8382 Z-0.111
G1 X17.9152 Y-9.8394 Z-0.1125
G1 X17.9175 Y-9.8407 Z-0.1134
G1 X17.9199 Y-9.8421 Z-0.1138
G1 X17.9308 Y-9.8483
G3 X17.9478 Y-9.8436 I0.0062 J0.0109
G2 X18.0021 Y-9.8121 I0.0543 J-0.031
G1 X21.4835
G1 Z-0.0563
G1 X21.7335
G1 Z-0.1138 F30.
G1 X28.6963 F6.1
G1 Z-0.0563
G1 X28.9463
G1 Z-0.1138 F30.
G1 X32.4277 F6.1
G2 X32.4819 Y-9.8436 I0 J-0.0625
G1 X33.2693 Y-11.2216
G2 X33.2776 Y-11.2526 I-0.0543 J-0.031
G1 Y-13.9885
G2 X33.2692 Y-14.0198 I-0.0625 J0
G1 X33.144 Y-14.2366
G2 X33.0899 Y-14.2678 I-0.0541 J0.0313
G1 X30.59
G1 Z-0.0563
G1 X30.34
G1 Z-0.1138 F30.
G1 X25.3403 F6.1
G1 Z-0.0563
G1 X25.0903
G1 Z-0.1138 F30.
G1 X20.0905 F6.1
G1 Z-0.0563
G1 X19.8405
G1 Z-0.1138 F30.
G1 X17.3406 F6.1
G2 X17.2865 Y-14.2366 I0 J0.0625
G1 X17.161 Y-14.0191
G2 X17.1526 Y-13.9878 I0.0541 J0.0312
G1 Y-11.2526
G2 X17.1608 Y-11.2216 I0.0625 J0
G1 X17.9478 Y-9.8436
G3 X17.9432 Y-9.8266 I-0.0109 J0.0062
G1 X17.9323 Y-9.8204
G1 X17.9299 Y-9.819 Z-0.1134
G1 X17.9276 Y-9.8177 Z-0.1125
G1 X17.9255 Y-9.8165 Z-0.111
G1 X17.9238 Y-9.8155 Z-0.109
G1 X17.9225 Y-9.8148 Z-0.1067
G1 X17.9217 Y-9.8143 Z-0.104
G1 X17.9215 Y-9.8142 Z-0.1013
G0 Z0.2
G0 X17.9091 Y-9.8359
G1 Z-0.0581 F30.
G1 Z-0.1175
G1 X17.9093 Y-9.836 Z-0.1203 F6.1
G1 X17.9101 Y-9.8365 Z-0.1229
G1 X17.9114 Y-9.8372 Z-0.1253
G1 X17.9131 Y-9.8382 Z-0.1273
G1 X17.9152 Y-9.8394 Z-0.1288
G1 X17.9175 Y-9.8407 Z-0.1297
G1 X17.9199 Y-9.8421 Z-0.13
G1 X17.9308 Y-9.8483
G3 X17.9478 Y-9.8436 I0.0062 J0.0109
G2 X18.0021 Y-9.8121 I0.0543 J-0.031
G1 X21.4835
G1 Z-0.0563
G1 X21.7335
G1 Z-0.13 F30.
G1 X28.6963 F6.1
G1 Z-0.0563
G1 X28.9463
G1 Z-0.13 F30.
G1 X32.4277 F6.1
G2 X32.4819 Y-9.8436 I0 J-0.0625
G1 X33.2693 Y-11.2216
G2 X33.2776 Y-11.2526 I-0.0543 J-0.031
G1 Y-13.9885
G2 X33.2692 Y-14.0198 I-0.0625 J0
G1 X33.144 Y-14.2366
G2 X33.0899 Y-14.2678 I-0.0541 J0.0313
G1 X30.59
G1 Z-0.0563
G1 X30.34
G1 Z-0.13 F30.
G1 X25.3403 F6.1
G1 Z-0.0563
G1 X25.0903
G1 Z-0.13 F30.
G1 X20.0905 F6.1
G1 Z-0.0563
G1 X19.8405
G1 Z-0.13 F30.
G1 X17.3406 F6.1
G2 X17.2865 Y-14.2366 I0 J0.0625
G1 X17.161 Y-14.0191
G2 X17.1526 Y-13.9878 I0.0541 J0.0312
G1 Y-11.2526
G2 X17.1608 Y-11.2216 I0.0625 J0
G1 X17.9478 Y-9.8436
G3 X17.9432 Y-9.8266 I-0.0109 J0.0062
G1 X17.9323 Y-9.8204
G1 X17.9299 Y-9.819 Z-0.1297
G1 X17.9276 Y-9.8177 Z-0.1288
G1 X17.9255 Y-9.8165 Z-0.1273
G1 X17.9238 Y-9.8155 Z-0.1253
G1 X17.9225 Y-9.8148 Z-0.1229
G1 X17.9217 Y-9.8143 Z-0.1203
G1 X17.9215 Y-9.8142 Z-0.1175
G0 Z0.2
G0 X17.9091 Y-9.8359
G1 Z-0.0744 F30.
G1 Z-0.1338
G1 X17.9093 Y-9.836 Z-0.1365 F6.1
G1 X17.9101 Y-9.8365 Z-0.1392
G1 X17.9114 Y-9.8372 Z-0.1415
G1 X17.9131 Y-9.8382 Z-0.1435
G1 X17.9152 Y-9.8394 Z-0.145
G1 X17.9175 Y-9.8407 Z-0.1459
G1 X17.9199 Y-9.8421 Z-0.1463
G1 X17.9308 Y-9.8483
G3 X17.9478 Y-9.8436 I0.0062 J0.0109
G2 X18.0021 Y-9.8121 I0.0543 J-0.031
G1 X21.4835
G1 Z-0.0563
G1 X21.7335
G1 Z-0.1463 F30.
G1 X28.6963 F6.1
G1 Z-0.0563
G1 X28.9463
G1 Z-0.1463 F30.
G1 X32.4277 F6.1
G2 X32.4819 Y-9.8436 I0 J-0.0625
G1 X33.2693 Y-11.2216
G2 X33.2776 Y-11.2526 I-0.0543 J-0.031
G1 Y-13.9885
G2 X33.2692 Y-14.0198 I-0.0625 J0
G1 X33.144 Y-14.2366
G2 X33.0899 Y-14.2678 I-0.0541 J0.0313
G1 X30.59
G1 Z-0.0563
G1 X30.34
G1 Z-0.1463 F30.
G1 X25.3403 F6.1
G1 Z-0.0563
G1 X25.0903
G1 Z-0.1463 F30.
G1 X20.0905 F6.1
G1 Z-0.0563
G1 X19.8405
G1 Z-0.1463 F30.
G1 X17.3406 F6.1
G2 X17.2865 Y-14.2366 I0 J0.0625
G1 X17.161 Y-14.0191
G2 X17.1526 Y-13.9878 I0.0541 J0.0312
G1 Y-11.2526
G2 X17.1608 Y-11.2216 I0.0625 J0
G1 X17.9478 Y-9.8436
G3 X17.9432 Y-9.8266 I-0.0109 J0.0062
G1 X17.9323 Y-9.8204
G1 X17.9299 Y-9.819 Z-0.1459
G1 X17.9276 Y-9.8177 Z-0.145
G1 X17.9255 Y-9.8165 Z-0.1435
G1 X17.9238 Y-9.8155 Z-0.1415
G1 X17.9225 Y-9.8148 Z-0.1392
G1 X17.9217 Y-9.8143 Z-0.1365
G1 X17.9215 Y-9.8142 Z-0.1338
G0 Z0.2
G0 X17.9091 Y-9.8359
G1 Z-0.0906 F30.
G1 Z-0.1438
G1 X17.9093 Y-9.836 Z-0.1465 F6.1
G1 X17.9101 Y-9.8365 Z-0.1492
G1 X17.9114 Y-9.8372 Z-0.1515
G1 X17.9131 Y-9.8382 Z-0.1535
G1 X17.9152 Y-9.8394 Z-0.155
G1 X17.9175 Y-9.8407 Z-0.1559
G1 X17.9199 Y-9.8421 Z-0.1563
G1 X17.9308 Y-9.8483
G3 X17.9478 Y-9.8436 I0.0062 J0.0109
G2 X18.0021 Y-9.8121 I0.0543 J-0.031
G1 X21.4835
G1 Z-0.0563
G1 X21.7335
G1 Z-0.1563 F30.
G1 X28.6963 F6.1
G1 Z-0.0563
G1 X28.9463
G1 Z-0.1563 F30.
G1 X32.4277 F6.1
G2 X32.4819 Y-9.8436 I0 J-0.0625
G1 X33.2693 Y-11.2216
G2 X33.2776 Y-11.2526 I-0.0543 J-0.031
G1 Y-13.9885
G2 X33.2692 Y-14.0198 I-0.0625 J0
G1 X33.144 Y-14.2366
G2 X33.0899 Y-14.2678 I-0.0541 J0.0313
G1 X30.59
G1 Z-0.0563
G1 X30.34
G1 Z-0.1563 F30.
G1 X25.3403 F6.1
G1 Z-0.0563
G1 X25.0903
G1 Z-0.1563 F30.
G1 X20.0905 F6.1
G1 Z-0.0563
G1 X19.8405
G1 Z-0.1563 F30.
G1 X17.3406 F6.1
G2 X17.2865 Y-14.2366 I0 J0.0625
G1 X17.161 Y-14.0191
G2 X17.1526 Y-13.9878 I0.0541 J0.0312
G1 Y-11.2526
G2 X17.1608 Y-11.2216 I0.0625 J0
G1 X17.9478 Y-9.8436
G3 X17.9432 Y-9.8266 I-0.0109 J0.0062
G1 X17.9323 Y-9.8204
G1 X17.9299 Y-9.819 Z-0.1559
G1 X17.9276 Y-9.8177 Z-0.155
G1 X17.9255 Y-9.8165 Z-0.1535
G1 X17.9238 Y-9.8155 Z-0.1515
G1 X17.9225 Y-9.8148 Z-0.1492
G1 X17.9217 Y-9.8143 Z-0.1465
G1 X17.9215 Y-9.8142 Z-0.1438
G0 Z0.2
G0 X0.5161 Y-5.2467
G1 Z0.0556 F30.
G1 Z-0.0038
G1 Y-5.2464 Z-0.0065 F6.1
G1 Y-5.2455 Z-0.0092
G1 Y-5.244 Z-0.0115
G1 Y-5.242 Z-0.0135
G1 Y-5.2396 Z-0.015
G1 Y-5.237 Z-0.0159
G1 Y-5.2342 Z-0.0163
G1 Y-5.2217
G3 X0.5036 Y-5.2092 I-0.0125 J0
G2 X0.4494 Y-5.1779 I0 J0.0625
G1 X0.3239 Y-4.9605
G2 X0.3155 Y-4.9292 I0.0541 J0.0313
G1 Y-2.194
G2 X0.3237 Y-2.163 I0.0625 J0
G1 X1.1107 Y-0.785
G2 X1.165 Y-0.7535 I0.0543 J-0.031
G1 X15.5906
G2 X15.6449 Y-0.785 I0 J-0.0625
G1 X16.4323 Y-2.1629
G2 X16.4405 Y-2.194 I-0.0543 J-0.031
G1 Y-4.9299
G2 X16.4321 Y-4.9611 I-0.0625 J0
G1 X16.307 Y-5.1779
G2 X16.2528 Y-5.2092 I-0.0541 J0.0312
G1 X0.5036
G3 X0.4911 Y-5.2217 I0 J-0.0125
G1 Y-5.2342
G1 Y-5.237 Z-0.0159
G1 Y-5.2396 Z-0.015
G1 Y-5.242 Z-0.0135
G1 Y-5.244 Z-0.0115
G1 Y-5.2455 Z-0.0092
G1 Y-5.2464 Z-0.0065
G1 Y-5.2467 Z-0.0038
G0 Z0.2
G0 X0.5161
G1 Z0.0394 F30.
G1 Z-0.02
G1 Y-5.2464 Z-0.0228 F6.1
G1 Y-5.2455 Z-0.0254
G1 Y-5.244 Z-0.0278
G1 Y-5.242 Z-0.0298
G1 Y-5.2396 Z-0.0313
G1 Y-5.237 Z-0.0322
G1 Y-5.2342 Z-0.0325
G1 Y-5.2217
G3 X0.5036 Y-5.2092 I-0.0125 J0
G2 X0.4494 Y-5.1779 I0 J0.0625
G1 X0.3239 Y-4.9605
G2 X0.3155 Y-4.9292 I0.0541 J0.0313
G1 Y-2.194
G2 X0.3237 Y-2.163 I0.0625 J0
G1 X1.1107 Y-0.785
G2 X1.165 Y-0.7535 I0.0543 J-0.031
G1 X15.5906
G2 X15.6449 Y-0.785 I0 J-0.0625
G1 X16.4323 Y-2.1629
G2 X16.4405 Y-2.194 I-0.0543 J-0.031
G1 Y-4.9299
G2 X16.4321 Y-4.9611 I-0.0625 J0
G1 X16.307 Y-5.1779
G2 X16.2528 Y-5.2092 I-0.0541 J0.0312
G1 X0.5036
G3 X0.4911 Y-5.2217 I0 J-0.0125
G1 Y-5.2342
G1 Y-5.237 Z-0.0322
G1 Y-5.2396 Z-0.0313
G1 Y-5.242 Z-0.0298
G1 Y-5.244 Z-0.0278
G1 Y-5.2455 Z-0.0254
G1 Y-5.2464 Z-0.0228
G1 Y-5.2467 Z-0.02
G0 Z0.2
G0 X0.5161
G1 Z0.0231 F30.
G1 Z-0.0363
G1 Y-5.2464 Z-0.039 F6.1
G1 Y-5.2455 Z-0.0417
G1 Y-5.244 Z-0.044
G1 Y-5.242 Z-0.046
G1 Y-5.2396 Z-0.0475
G1 Y-5.237 Z-0.0484
G1 Y-5.2342 Z-0.0488
G1 Y-5.2217
G3 X0.5036 Y-5.2092 I-0.0125 J0
G2 X0.4494 Y-5.1779 I0 J0.0625
G1 X0.3239 Y-4.9605
G2 X0.3155 Y-4.9292 I0.0541 J0.0313
G1 Y-2.194
G2 X0.3237 Y-2.163 I0.0625 J0
G1 X1.1107 Y-0.785
G2 X1.165 Y-0.7535 I0.0543 J-0.031
G1 X15.5906
G2 X15.6449 Y-0.785 I0 J-0.0625
G1 X16.4323 Y-2.1629
G2 X16.4405 Y-2.194 I-0.0543 J-0.031
G1 Y-4.9299
G2 X16.4321 Y-4.9611 I-0.0625 J0
G1 X16.307 Y-5.1779
G2 X16.2528 Y-5.2092 I-0.0541 J0.0312
G1 X0.5036
G3 X0.4911 Y-5.2217 I0 J-0.0125
G1 Y-5.2342
G1 Y-5.237 Z-0.0484
G1 Y-5.2396 Z-0.0475
G1 Y-5.242 Z-0.046
G1 Y-5.244 Z-0.044
G1 Y-5.2455 Z-0.0417
G1 Y-5.2464 Z-0.039
G1 Y-5.2467 Z-0.0363
G0 Z0.2
G0 X0.5161
G1 Z0.0069 F30.
G1 Z-0.0525
G1 Y-5.2464 Z-0.0553 F6.1
G1 Y-5.2455 Z-0.0579
G1 Y-5.244 Z-0.0603
G1 Y-5.242 Z-0.0623
G1 Y-5.2396 Z-0.0638
G1 Y-5.237 Z-0.0647
G1 Y-5.2342 Z-0.065
G1 Y-5.2217
G3 X0.5036 Y-5.2092 I-0.0125 J0
G2 X0.4494 Y-5.1779 I0 J0.0625
G1 X0.3239 Y-4.9605
G2 X0.3155 Y-4.9292 I0.0541 J0.0313
G1 Y-2.194
G2 X0.3237 Y-2.163 I0.0625 J0
G1 X1.1107 Y-0.785
G2 X1.165 Y-0.7535 I0.0543 J-0.031
G1 X4.6464
G1 Z-0.0563
G1 X4.8964
G1 Z-0.065 F30.
G1 X11.8592 F6.1
G1 Z-0.0563
G1 X12.1092
G1 Z-0.065 F30.
G1 X15.5906 F6.1
G2 X15.6449 Y-0.785 I0 J-0.0625
G1 X16.4323 Y-2.1629
G2 X16.4405 Y-2.194 I-0.0543 J-0.031
G1 Y-4.9299
G2 X16.4321 Y-4.9611 I-0.0625 J0
G1 X16.307 Y-5.1779
G2 X16.2528 Y-5.2092 I-0.0541 J0.0312
G1 X13.753
G1 Z-0.0563
G1 X13.503
G1 Z-0.065 F30.
G1 X8.5032 F6.1
G1 Z-0.0563
G1 X8.2532
G1 Z-0.065 F30.
G1 X3.2534 F6.1
G1 Z-0.0563
G1 X3.0034
G1 Z-0.065 F30.
G1 X0.5036 F6.1
G3 X0.4911 Y-5.2217 I0 J-0.0125
G1 Y-5.2342
G1 Y-5.237 Z-0.0647
G1 Y-5.2396 Z-0.0638
G1 Y-5.242 Z-0.0623
G1 Y-5.244 Z-0.0603
G1 Y-5.2455 Z-0.0579
G1 Y-5.2464 Z-0.0553
G1 Y-5.2467 Z-0.0525
G0 Z0.2
G0 X0.5161
G1 Z-0.0094 F30.
G1 Z-0.0688
G1 Y-5.2464 Z-0.0715 F6.1
G1 Y-5.2455 Z-0.0742
G1 Y-5.244 Z-0.0765
G1 Y-5.242 Z-0.0785
G1 Y-5.2396 Z-0.08
G1 Y-5.237 Z-0.0809
G1 Y-5.2342 Z-0.0813
G1 Y-5.2217
G3 X0.5036 Y-5.2092 I-0.0125 J0
G2 X0.4494 Y-5.1779 I0 J0.0625
G1 X0.3239 Y-4.9605
G2 X0.3155 Y-4.9292 I0.0541 J0.0313
G1 Y-2.194
G2 X0.3237 Y-2.163 I0.0625 J0
G1 X1.1107 Y-0.785
G2 X1.165 Y-0.7535 I0.0543 J-0.031
G1 X4.6464
G1 Z-0.0563
G1 X4.8964
G1 Z-0.0813 F30.
G1 X11.8592 F6.1
G1 Z-0.0563
G1 X12.1092
G1 Z-0.0813 F30.
G1 X15.5906 F6.1
G2 X15.6449 Y-0.785 I0 J-0.0625
G1 X16.4323 Y-2.1629
G2 X16.4405 Y-2.194 I-0.0543 J-0.031
G1 Y-4.9299
G2 X16.4321 Y-4.9611 I-0.0625 J0
G1 X16.307 Y-5.1779
G2 X16.2528 Y-5.2092 I-0.0541 J0.0312
G1 X13.753
G1 Z-0.0563
G1 X13.503
G1 Z-0.0813 F30.
G1 X8.5032 F6.1
G1 Z-0.0563
G1 X8.2532
G1 Z-0.0813 F30.
G1 X3.2534 F6.1
G1 Z-0.0563
G1 X3.0034
G1 Z-0.0813 F30.
G1 X0.5036 F6.1
G3 X0.4911 Y-5.2217 I0 J-0.0125
G1 Y-5.2342
G1 Y-5.237 Z-0.0809
G1 Y-5.2396 Z-0.08
G1 Y-5.242 Z-0.0785
G1 Y-5.244 Z-0.0765
G1 Y-5.2455 Z-0.0742
G1 Y-5.2464 Z-0.0715
G1 Y-5.2467 Z-0.0688
G0 Z0.2
G0 X0.5161
G1 Z-0.0256 F30.
G1 Z-0.085
G1 Y-5.2464 Z-0.0878 F6.1
G1 Y-5.2455 Z-0.0904
G1 Y-5.244 Z-0.0928
G1 Y-5.242 Z-0.0948
G1 Y-5.2396 Z-0.0963
G1 Y-5.237 Z-0.0972
G1 Y-5.2342 Z-0.0975
G1 Y-5.2217
G3 X0.5036 Y-5.2092 I-0.0125 J0
G2 X0.4494 Y-5.1779 I0 J0.0625
G1 X0.3239 Y-4.9605
G2 X0.3155 Y-4.9292 I0.0541 J0.0313
G1 Y-2.194
G2 X0.3237 Y-2.163 I0.0625 J0
G1 X1.1107 Y-0.785
G2 X1.165 Y-0.7535 I0.0543 J-0.031
G1 X4.6464
G1 Z-0.0563
G1 X4.8964
G1 Z-0.0975 F30.
G1 X11.8592 F6.1
G1 Z-0.0563
G1 X12.1092
G1 Z-0.0975 F30.
G1 X15.5906 F6.1
G2 X15.6449 Y-0.785 I0 J-0.0625
G1 X16.4323 Y-2.1629
G2 X16.4405 Y-2.194 I-0.0543 J-0.031
G1 Y-4.9299
G2 X16.4321 Y-4.9611 I-0.0625 J0
G1 X16.307 Y-5.1779
G2 X16.2528 Y-5.2092 I-0.0541 J0.0312
G1 X13.753
G1 Z-0.0563
G1 X13.503
G1 Z-0.0975 F30.
G1 X8.5032 F6.1
G1 Z-0.0563
G1 X8.2532
G1 Z-0.0975 F30.
G1 X3.2534 F6.1
G1 Z-0.0563
G1 X3.0034
G1 Z-0.0975 F30.
G1 X0.5036 F6.1
G3 X0.4911 Y-5.2217 I0 J-0.0125
G1 Y-5.2342
G1 Y-5.237 Z-0.0972
G1 Y-5.2396 Z-0.0963
G1 Y-5.242 Z-0.0948
G1 Y-5.244 Z-0.0928
G1 Y-5.2455 Z-0.0904
G1 Y-5.2464 Z-0.0878
G1 Y-5.2467 Z-0.085
G0 Z0.2
G0 X0.5161
G1 Z-0.0419 F30.
G1 Z-0.1013
G1 Y-5.2464 Z-0.104 F6.1
G1 Y-5.2455 Z-0.1067
G1 Y-5.244 Z-0.109
G1 Y-5.242 Z-0.111
G1 Y-5.2396 Z-0.1125
G1 Y-5.237 Z-0.1134
G1 Y-5.2342 Z-0.1138
G1 Y-5.2217
G3 X0.5036 Y-5.2092 I-0.0125 J0
G2 X0.4494 Y-5.1779 I0 J0.0625
G1 X0.3239 Y-4.9605
G2 X0.3155 Y-4.9292 I0.0541 J0.0313
G1 Y-2.194
G2 X0.3237 Y-2.163 I0.0625 J0
G1 X1.1107 Y-0.785
G2 X1.165 Y-0.7535 I0.0543 J-0.031
G1 X4.6464
G1 Z-0.0563
G1 X4.8964
G1 Z-0.1138 F30.
G1 X11.8592 F6.1
G1 Z-0.0563
G1 X12.1092
G1 Z-0.1138 F30.
G1 X15.5906 F6.1
G2 X15.6449 Y-0.785 I0 J-0.0625
G1 X16.4323 Y-2.1629
G2 X16.4405 Y-2.194 I-0.0543 J-0.031
G1 Y-4.9299
G2 X16.4321 Y-4.9611 I-0.0625 J0
G1 X16.307 Y-5.1779
G2 X16.2528 Y-5.2092 I-0.0541 J0.0312
G1 X13.753
G1 Z-0.0563
G1 X13.503
G1 Z-0.1138 F30.
G1 X8.5032 F6.1
G1 Z-0.0563
G1 X8.2532
G1 Z-0.1138 F30.
G1 X3.2534 F6.1
G1 Z-0.0563
G1 X3.0034
G1 Z-0.1138 F30.
G1 X0.5036 F6.1
G3 X0.4911 Y-5.2217 I0 J-0.0125
G1 Y-5.2342
G1 Y-5.237 Z-0.1134
G1 Y-5.2396 Z-0.1125
G1 Y-5.242 Z-0.111
G1 Y-5.244 Z-0.109
G1 Y-5.2455 Z-0.1067
G1 Y-5.2464 Z-0.104
G1 Y-5.2467 Z-0.1013
G0 Z0.2
G0 X0.5161
G1 Z-0.0581 F30.
G1 Z-0.1175
G1 Y-5.2464 Z-0.1203 F6.1
G1 Y-5.2455 Z-0.1229
G1 Y-5.244 Z-0.1253
G1 Y-5.242 Z-0.1273
G1 Y-5.2396 Z-0.1288
G1 Y-5.237 Z-0.1297
G1 Y-5.2342 Z-0.13
G1 Y-5.2217
G3 X0.5036 Y-5.2092 I-0.0125 J0
G2 X0.4494 Y-5.1779 I0 J0.0625
G1 X0.3239 Y-4.9605
G2 X0.3155 Y-4.9292 I0.0541 J0.0313
G1 Y-2.194
G2 X0.3237 Y-2.163 I0.0625 J0
G1 X1.1107 Y-0.785
G2 X1.165 Y-0.7535 I0.0543 J-0.031
G1 X4.6464
G1 Z-0.0563
G1 X4.8964
G1 Z-0.13 F30.
G1 X11.8592 F6.1
G1 Z-0.0563
G1 X12.1092
G1 Z-0.13 F30.
G1 X15.5906 F6.1
G2 X15.6449 Y-0.785 I0 J-0.0625
G1 X16.4323 Y-2.1629
G2 X16.4405 Y-2.194 I-0.0543 J-0.031
G1 Y-4.9299
G2 X16.4321 Y-4.9611 I-0.0625 J0
G1 X16.307 Y-5.1779
G2 X16.2528 Y-5.2092 I-0.0541 J0.0312
G1 X13.753
G1 Z-0.0563
G1 X13.503
G1 Z-0.13 F30.
G1 X8.5032 F6.1
G1 Z-0.0563
G1 X8.2532
G1 Z-0.13 F30.
G1 X3.2534 F6.1
G1 Z-0.0563
G1 X3.0034
G1 Z-0.13 F30.
G1 X0.5036 F6.1
G3 X0.4911 Y-5.2217 I0 J-0.0125
G1 Y-5.2342
G1 Y-5.237 Z-0.1297
G1 Y-5.2396 Z-0.1288
G1 Y-5.242 Z-0.1273
G1 Y-5.244 Z-0.1253
G1 Y-5.2455 Z-0.1229
G1 Y-5.2464 Z-0.1203
G1 Y-5.2467 Z-0.1175
G0 Z0.2
G0 X0.5161
G1 Z-0.0744 F30.
G1 Z-0.1338
G1 Y-5.2464 Z-0.1365 F6.1
G1 Y-5.2455 Z-0.1392
G1 Y-5.244 Z-0.1415
G1 Y-5.242 Z-0.1435
G1 Y-5.2396 Z-0.145
G1 Y-5.237 Z-0.1459
G1 Y-5.2342 Z-0.1463
G1 Y-5.2217
G3 X0.5036 Y-5.2092 I-0.0125 J0
G2 X0.4494 Y-5.1779 I0 J0.0625
G1 X0.3239 Y-4.9605
G2 X0.3155 Y-4.9292 I0.0541 J0.0313
G1 Y-2.194
G2 X0.3237 Y-2.163 I0.0625 J0
G1 X1.1107 Y-0.785
G2 X1.165 Y-0.7535 I0.0543 J-0.031
G1 X4.6464
G1 Z-0.0563
G1 X4.8964
G1 Z-0.1463 F30.
G1 X11.8592 F6.1
G1 Z-0.0563
G1 X12.1092
G1 Z-0.1463 F30.
G1 X15.5906 F6.1
G2 X15.6449 Y-0.785 I0 J-0.0625
G1 X16.4323 Y-2.1629
G2 X16.4405 Y-2.194 I-0.0543 J-0.031
G1 Y-4.9299
G2 X16.4321 Y-4.9611 I-0.0625 J0
G1 X16.307 Y-5.1779
G2 X16.2528 Y-5.2092 I-0.0541 J0.0312
G1 X13.753
G1 Z-0.0563
G1 X13.503
G1 Z-0.1463 F30.
G1 X8.5032 F6.1
G1 Z-0.0563
G1 X8.2532
G1 Z-0.1463 F30.
G1 X3.2534 F6.1
G1 Z-0.0563
G1 X3.0034
G1 Z-0.1463 F30.
G1 X0.5036 F6.1
G3 X0.4911 Y-5.2217 I0 J-0.0125
G1 Y-5.2342
G1 Y-5.237 Z-0.1459
G1 Y-5.2396 Z-0.145
G1 Y-5.242 Z-0.1435
G1 Y-5.244 Z-0.1415
G1 Y-5.2455 Z-0.1392
G1 Y-5.2464 Z-0.1365
G1 Y-5.2467 Z-0.1338
G0 Z0.2
G0 X0.5161
G1 Z-0.0906 F30.
G1 Z-0.1438
G1 Y-5.2464 Z-0.1465 F6.1
G1 Y-5.2455 Z-0.1492
G1 Y-5.244 Z-0.1515
G1 Y-5.242 Z-0.1535
G1 Y-5.2396 Z-0.155
G1 Y-5.237 Z-0.1559
G1 Y-5.2342 Z-0.1563
G1 Y-5.2217
G3 X0.5036 Y-5.2092 I-0.0125 J0
G2 X0.4494 Y-5.1779 I0 J0.0625
G1 X0.3239 Y-4.9605
G2 X0.3155 Y-4.9292 I0.0541 J0.0313
G1 Y-2.194
G2 X0.3237 Y-2.163 I0.0625 J0
G1 X1.1107 Y-0.785
G2 X1.165 Y-0.7535 I0.0543 J-0.031
G1 X4.6464
G1 Z-0.0563
G1 X4.8964
G1 Z-0.1563 F30.
G1 X11.8592 F6.1
G1 Z-0.0563
G1 X12.1092
G1 Z-0.1563 F30.
G1 X15.5906 F6.1
G2 X15.6449 Y-0.785 I0 J-0.0625
G1 X16.4323 Y-2.1629
G2 X16.4405 Y-2.194 I-0.0543 J-0.031
G1 Y-4.9299
G2 X16.4321 Y-4.9611 I-0.0625 J0
G1 X16.307 Y-5.1779
G2 X16.2528 Y-5.2092 I-0.0541 J0.0312
G1 X13.753
G1 Z-0.0563
G1 X13.503
G1 Z-0.1563 F30.
G1 X8.5032 F6.1
G1 Z-0.0563
G1 X8.2532
G1 Z-0.1563 F30.
G1 X3.2534 F6.1
G1 Z-0.0563
G1 X3.0034
G1 Z-0.1563 F30.
G1 X0.5036 F6.1
G3 X0.4911 Y-5.2217 I0 J-0.0125
G1 Y-5.2342
G1 Y-5.237 Z-0.1559
G1 Y-5.2396 Z-0.155
G1 Y-5.242 Z-0.1535
G1 Y-5.244 Z-0.1515
G1 Y-5.2455 Z-0.1492
G1 Y-5.2464 Z-0.1465
G1 Y-5.2467 Z-0.1438
G0 Z0.2
G0 X15.7511 Y-15.3328
G1 Z0.0556 F30.
G1 Z-0.0038
G1 X15.7508 Y-15.333 Z-0.0065 F6.1
G1 X15.75 Y-15.3334 Z-0.0092
G1 X15.7487 Y-15.3342 Z-0.0115
G1 X15.747 Y-15.3352 Z-0.0135
G1 X15.745 Y-15.3363 Z-0.015
G1 X15.7427 Y-15.3377 Z-0.0159
G1 X15.7402 Y-15.339 Z-0.0163
G1 X15.7294 Y-15.3452
G3 X15.7247 Y-15.3623 I0.0062 J-0.0109
G1 X16.4352 Y-16.6056
G2 X16.4434 Y-16.6366 I-0.0543 J-0.031
G1 Y-19.1226
G2 X16.4413 Y-19.1387 I-0.0625 J0
G1 X16.3161 Y-19.6056
G2 X16.2557 Y-19.6519 I-0.0604 J0.0162
G1 X0.5065
G2 X0.4524 Y-19.6206 I0 J0.0625
G1 X0.3268 Y-19.4031
G2 X0.3184 Y-19.3719 I0.0541 J0.0313
G1 Y-16.6366
G2 X0.3267 Y-16.6056 I0.0625 J0
G1 X1.1137 Y-15.2277
G2 X1.1679 Y-15.1962 I0.0543 J-0.031
G1 X15.5935
G2 X15.6478 Y-15.2277 I0 J-0.0625
G1 X15.7247 Y-15.3623
G3 X15.7323 Y-15.3681 I0.0109 J0.0062
G3 X15.7418 Y-15.3669 I0.0033 J0.0121
G1 X15.7527 Y-15.3607
G1 X15.7551 Y-15.3594 Z-0.0159
G1 X15.7574 Y-15.358 Z-0.015
G1 X15.7594 Y-15.3569 Z-0.0135
G1 X15.7611 Y-15.3559 Z-0.0115
G1 X15.7624 Y-15.3552 Z-0.0092
G1 X15.7632 Y-15.3547 Z-0.0065
G1 X15.7635 Y-15.3545 Z-0.0038
G0 Z0.2
G0 X15.7511 Y-15.3328
G1 Z0.0394 F30.
G1 Z-0.02
G1 X15.7508 Y-15.333 Z-0.0228 F6.1
G1 X15.75 Y-15.3334 Z-0.0254
G1 X15.7487 Y-15.3342 Z-0.0278
G1 X15.747 Y-15.3352 Z-0.0298
G1 X15.745 Y-15.3363 Z-0.0313
G1 X15.7427 Y-15.3377 Z-0.0322
G1 X15.7402 Y-15.339 Z-0.0325
G1 X15.7294 Y-15.3452
G3 X15.7247 Y-15.3623 I0.0062 J-0.0109
G1 X16.4352 Y-16.6056
G2 X16.4434 Y-16.6366 I-0.0543 J-0.031
G1 Y-19.1226
G2 X16.4413 Y-19.1387 I-0.0625 J0
G1 X16.3161 Y-19.6056
G2 X16.2557 Y-19.6519 I-0.0604 J0.0162
G1 X0.5065
G2 X0.4524 Y-19.6206 I0 J0.0625
G1 X0.3268 Y-19.4031
G2 X0.3184 Y-19.3719 I0.0541 J0.0313
G1 Y-16.6366
G2 X0.3267 Y-16.6056 I0.0625 J0
G1 X1.1137 Y-15.2277
G2 X1.1679 Y-15.1962 I0.0543 J-0.031
G1 X15.5935
G2 X15.6478 Y-15.2277 I0 J-0.0625
G1 X15.7247 Y-15.3623
G3 X15.7323 Y-15.3681 I0.0109 J0.0062
G3 X15.7418 Y-15.3669 I0.0033 J0.0121
G1 X15.7527 Y-15.3607
G1 X15.7551 Y-15.3594 Z-0.0322
G1 X15.7574 Y-15.358 Z-0.0313
G1 X15.7594 Y-15.3569 Z-0.0298
G1 X15.7611 Y-15.3559 Z-0.0278
G1 X15.7624 Y-15.3552 Z-0.0254
G1 X15.7632 Y-15.3547 Z-0.0228
G1 X15.7635 Y-15.3545 Z-0.02
G0 Z0.2
G0 X15.7511 Y-15.3328
G1 Z0.0231 F30.
G1 Z-0.0363
G1 X15.7508 Y-15.333 Z-0.039 F6.1
G1 X15.75 Y-15.3334 Z-0.0417
G1 X15.7487 Y-15.3342 Z-0.044
G1 X15.747 Y-15.3352 Z-0.046
G1 X15.745 Y-15.3363 Z-0.0475
G1 X15.7427 Y-15.3377 Z-0.0484
G1 X15.7402 Y-15.339 Z-0.0488
G1 X15.7294 Y-15.3452
G3 X15.7247 Y-15.3623 I0.0062 J-0.0109
G1 X16.4352 Y-16.6056
G2 X16.4434 Y-16.6366 I-0.0543 J-0.031
G1 Y-19.1226
G2 X16.4413 Y-19.1387 I-0.0625 J0
G1 X16.3161 Y-19.6056
G2 X16.2557 Y-19.6519 I-0.0604 J0.0162
G1 X0.5065
G2 X0.4524 Y-19.6206 I0 J0.0625
G1 X0.3268 Y-19.4031
G2 X0.3184 Y-19.3719 I0.0541 J0.0313
G1 Y-16.6366
G2 X0.3267 Y-16.6056 I0.0625 J0
G1 X1.1137 Y-15.2277
G2 X1.1679 Y-15.1962 I0.0543 J-0.031
G1 X15.5935
G2 X15.6478 Y-15.2277 I0 J-0.0625
G1 X15.7247 Y-15.3623
G3 X15.7323 Y-15.3681 I0.0109 J0.0062
G3 X15.7418 Y-15.3669 I0.0033 J0.0121
G1 X15.7527 Y-15.3607
G1 X15.7551 Y-15.3594 Z-0.0484
G1 X15.7574 Y-15.358 Z-0.0475
G1 X15.7594 Y-15.3569 Z-0.046
G1 X15.7611 Y-15.3559 Z-0.044
G1 X15.7624 Y-15.3552 Z-0.0417
G1 X15.7632 Y-15.3547 Z-0.039
G1 X15.7635 Y-15.3545 Z-0.0363
G0 Z0.2
G0 X15.7511 Y-15.3328
G1 Z0.0069 F30.
G1 Z-0.0525
G1 X15.7508 Y-15.333 Z-0.0553 F6.1
G1 X15.75 Y-15.3334 Z-0.0579
G1 X15.7487 Y-15.3342 Z-0.0603
G1 X15.747 Y-15.3352 Z-0.0623
G1 X15.745 Y-15.3363 Z-0.0638
G1 X15.7427 Y-15.3377 Z-0.0647
G1 X15.7402 Y-15.339 Z-0.065
G1 X15.7294 Y-15.3452
G3 X15.7247 Y-15.3623 I0.0062 J-0.0109
G1 X16.4352 Y-16.6056
G2 X16.4434 Y-16.6366 I-0.0543 J-0.031
G1 Y-19.1226
G2 X16.4413 Y-19.1387 I-0.0625 J0
G1 X16.3161 Y-19.6056
G2 X16.2557 Y-19.6519 I-0.0604 J0.0162
G1 X13.7559
G1 Z-0.0563
G1 X13.5059
G1 Z-0.065 F30.
G1 X8.5061 F6.1
G1 Z-0.0563
G1 X8.2561
G1 Z-0.065 F30.
G1 X3.2564 F6.1
G1 Z-0.0563
G1 X3.0064
G1 Z-0.065 F30.
G1 X0.5065 F6.1
G2 X0.4524 Y-19.6206 I0 J0.0625
G1 X0.3268 Y-19.4031
G2 X0.3184 Y-19.3719 I0.0541 J0.0313
G1 Y-16.6366
G2 X0.3267 Y-16.6056 I0.0625 J0
G1 X1.1137 Y-15.2277
G2 X1.1679 Y-15.1962 I0.0543 J-0.031
G1 X4.6493
G1 Z-0.0563
G1 X4.8993
G1 Z-0.065 F30.
G1 X11.8621 F6.1
G1 Z-0.0563
G1 X12.1121
G1 Z-0.065 F30.
G1 X15.5935 F6.1
G2 X15.6478 Y-15.2277 I0 J-0.0625
G1 X15.7247 Y-15.3623
G3 X15.7323 Y-15.3681 I0.0109 J0.0062
G3 X15.7418 Y-15.3669 I0.0033 J0.0121
G1 X15.7527 Y-15.3607
G1 X15.7551 Y-15.3594 Z-0.0647
G1 X15.7574 Y-15.358 Z-0.0638
G1 X15.7594 Y-15.3569 Z-0.0623
G1 X15.7611 Y-15.3559 Z-0.0603
G1 X15.7624 Y-15.3552 Z-0.0579
G1 X15.7632 Y-15.3547 Z-0.0553
G1 X15.7635 Y-15.3545 Z-0.0525
G0 Z0.2
G0 X15.7511 Y-15.3328
G1 Z-0.0094 F30.
G1 Z-0.0688
G1 X15.7508 Y-15.333 Z-0.0715 F6.1
G1 X15.75 Y-15.3334 Z-0.0742
G1 X15.7487 Y-15.3342 Z-0.0765
G1 X15.747 Y-15.3352 Z-0.0785
G1 X15.745 Y-15.3363 Z-0.08
G1 X15.7427 Y-15.3377 Z-0.0809
G1 X15.7402 Y-15.339 Z-0.0813
G1 X15.7294 Y-15.3452
G3 X15.7247 Y-15.3623 I0.0062 J-0.0109
G1 X16.4352 Y-16.6056
G2 X16.4434 Y-16.6366 I-0.0543 J-0.031
G1 Y-19.1226
G2 X16.4413 Y-19.1387 I-0.0625 J0
G1 X16.3161 Y-19.6056
G2 X16.2557 Y-19.6519 I-0.0604 J0.0162
G1 X13.7559
G1 Z-0.0563
G1 X13.5059
G1 Z-0.0813 F30.
G1 X8.5061 F6.1
G1 Z-0.0563
G1 X8.2561
G1 Z-0.0813 F30.
G1 X3.2564 F6.1
G1 Z-0.0563
G1 X3.0064
G1 Z-0.0813 F30.
G1 X0.5065 F6.1
G2 X0.4524 Y-19.6206 I0 J0.0625
G1 X0.3268 Y-19.4031
G2 X0.3184 Y-19.3719 I0.0541 J0.0313
G1 Y-16.6366
G2 X0.3267 Y-16.6056 I0.0625 J0
G1 X1.1137 Y-15.2277
G2 X1.1679 Y-15.1962 I0.0543 J-0.031
G1 X4.6493
G1 Z-0.0563
G1 X4.8993
G1 Z-0.0813 F30.
G1 X11.8621 F6.1
G1 Z-0.0563
G1 X12.1121
G1 Z-0.0813 F30.
G1 X15.5935 F6.1
G2 X15.6478 Y-15.2277 I0 J-0.0625
G1 X15.7247 Y-15.3623
G3 X15.7323 Y-15.3681 I0.0109 J0.0062
G3 X15.7418 Y-15.3669 I0.0033 J0.0121
G1 X15.7527 Y-15.3607
G1 X15.7551 Y-15.3594 Z-0.0809
G1 X15.7574 Y-15.358 Z-0.08
G1 X15.7594 Y-15.3569 Z-0.0785
G1 X15.7611 Y-15.3559 Z-0.0765
G1 X15.7624 Y-15.3552 Z-0.0742
G1 X15.7632 Y-15.3547 Z-0.0715
G1 X15.7635 Y-15.3545 Z-0.0688
G0 Z0.2
G0 X15.7511 Y-15.3328
G1 Z-0.0256 F30.
G1 Z-0.085
G1 X15.7508 Y-15.333 Z-0.0878 F6.1
G1 X15.75 Y-15.3334 Z-0.0904
G1 X15.7487 Y-15.3342 Z-0.0928
G1 X15.747 Y-15.3352 Z-0.0948
G1 X15.745 Y-15.3363 Z-0.0963
G1 X15.7427 Y-15.3377 Z-0.0972
G1 X15.7402 Y-15.339 Z-0.0975
G1 X15.7294 Y-15.3452
G3 X15.7247 Y-15.3623 I0.0062 J-0.0109
G1 X16.4352 Y-16.6056
G2 X16.4434 Y-16.6366 I-0.0543 J-0.031
G1 Y-19.1226
G2 X16.4413 Y-19.1387 I-0.0625 J0
G1 X16.3161 Y-19.6056
G2 X16.2557 Y-19.6519 I-0.0604 J0.0162
G1 X13.7559
G1 Z-0.0563
G1 X13.5059
G1 Z-0.0975 F30.
G1 X8.5061 F6.1
G1 Z-0.0563
G1 X8.2561
G1 Z-0.0975 F30.
G1 X3.2564 F6.1
G1 Z-0.0563
G1 X3.0064
G1 Z-0.0975 F30.
G1 X0.5065 F6.1
G2 X0.4524 Y-19.6206 I0 J0.0625
G1 X0.3268 Y-19.4031
G2 X0.3184 Y-19.3719 I0.0541 J0.0313
G1 Y-16.6366
G2 X0.3267 Y-16.6056 I0.0625 J0
G1 X1.1137 Y-15.2277
G2 X1.1679 Y-15.1962 I0.0543 J-0.031
G1 X4.6493
G1 Z-0.0563
G1 X4.8993
G1 Z-0.0975 F30.
G1 X11.8621 F6.1
G1 Z-0.0563
G1 X12.1121
G1 Z-0.0975 F30.
G1 X15.5935 F6.1
G2 X15.6478 Y-15.2277 I0 J-0.0625
G1 X15.7247 Y-15.3623
G3 X15.7323 Y-15.3681 I0.0109 J0.0062
G3 X15.7418 Y-15.3669 I0.0033 J0.0121
G1 X15.7527 Y-15.3607
G1 X15.7551 Y-15.3594 Z-0.0972
G1 X15.7574 Y-15.358 Z-0.0963
G1 X15.7594 Y-15.3569 Z-0.0948
G1 X15.7611 Y-15.3559 Z-0.0928
G1 X15.7624 Y-15.3552 Z-0.0904
G1 X15.7632 Y-15.3547 Z-0.0878
G1 X15.7635 Y-15.3545 Z-0.085
G0 Z0.2
G0 X15.7511 Y-15.3328
G1 Z-0.0419 F30.
G1 Z-0.1013
G1 X15.7508 Y-15.333 Z-0.104 F6.1
G1 X15.75 Y-15.3334 Z-0.1067
G1 X15.7487 Y-15.3342 Z-0.109
G1 X15.747 Y-15.3352 Z-0.111
G1 X15.745 Y-15.3363 Z-0.1125
G1 X15.7427 Y-15.3377 Z-0.1134
G1 X15.7402 Y-15.339 Z-0.1138
G1 X15.7294 Y-15.3452
G3 X15.7247 Y-15.3623 I0.0062 J-0.0109
G1 X16.4352 Y-16.6056
G2 X16.4434 Y-16.6366 I-0.0543 J-0.031
G1 Y-19.1226
G2 X16.4413 Y-19.1387 I-0.0625 J0
G1 X16.3161 Y-19.6056
G2 X16.2557 Y-19.6519 I-0.0604 J0.0162
G1 X13.7559
G1 Z-0.0563
G1 X13.5059
G1 Z-0.1138 F30.
G1 X8.5061 F6.1
G1 Z-0.0563
G1 X8.2561
G1 Z-0.1138 F30.
G1 X3.2564 F6.1
G1 Z-0.0563
G1 X3.0064
G1 Z-0.1138 F30.
G1 X0.5065 F6.1
G2 X0.4524 Y-19.6206 I0 J0.0625
G1 X0.3268 Y-19.4031
G2 X0.3184 Y-19.3719 I0.0541 J0.0313
G1 Y-16.6366
G2 X0.3267 Y-16.6056 I0.0625 J0
G1 X1.1137 Y-15.2277
G2 X1.1679 Y-15.1962 I0.0543 J-0.031
G1 X4.6493
G1 Z-0.0563
G1 X4.8993
G1 Z-0.1138 F30.
G1 X11.8621 F6.1
G1 Z-0.0563
G1 X12.1121
G1 Z-0.1138 F30.
G1 X15.5935 F6.1
G2 X15.6478 Y-15.2277 I0 J-0.0625
G1 X15.7247 Y-15.3623
G3 X15.7323 Y-15.3681 I0.0109 J0.0062
G3 X15.7418 Y-15.3669 I0.0033 J0.0121
G1 X15.7527 Y-15.3607
G1 X15.7551 Y-15.3594 Z-0.1134
G1 X15.7574 Y-15.358 Z-0.1125
G1 X15.7594 Y-15.3569 Z-0.111
G1 X15.7611 Y-15.3559 Z-0.109
G1 X15.7624 Y-15.3552 Z-0.1067
G1 X15.7632 Y-15.3547 Z-0.104
G1 X15.7635 Y-15.3545 Z-0.1013
G0 Z0.2
G0 X15.7511 Y-15.3328
G1 Z-0.0581 F30.
G1 Z-0.1175
G1 X15.7508 Y-15.333 Z-0.1203 F6.1
G1 X15.75 Y-15.3334 Z-0.1229
G1 X15.7487 Y-15.3342 Z-0.1253
G1 X15.747 Y-15.3352 Z-0.1273
G1 X15.745 Y-15.3363 Z-0.1288
G1 X15.7427 Y-15.3377 Z-0.1297
G1 X15.7402 Y-15.339 Z-0.13
G1 X15.7294 Y-15.3452
G3 X15.7247 Y-15.3623 I0.0062 J-0.0109
G1 X16.4352 Y-16.6056
G2 X16.4434 Y-16.6366 I-0.0543 J-0.031
G1 Y-19.1226
G2 X16.4413 Y-19.1387 I-0.0625 J0
G1 X16.3161 Y-19.6056
G2 X16.2557 Y-19.6519 I-0.0604 J0.0162
G1 X13.7559
G1 Z-0.0563
G1 X13.5059
G1 Z-0.13 F30.
G1 X8.5061 F6.1
G1 Z-0.0563
G1 X8.2561
G1 Z-0.13 F30.
G1 X3.2564 F6.1
G1 Z-0.0563
G1 X3.0064
G1 Z-0.13 F30.
G1 X0.5065 F6.1
G2 X0.4524 Y-19.6206 I0 J0.0625
G1 X0.3268 Y-19.4031
G2 X0.3184 Y-19.3719 I0.0541 J0.0313
G1 Y-16.6366
G2 X0.3267 Y-16.6056 I0.0625 J0
G1 X1.1137 Y-15.2277
G2 X1.1679 Y-15.1962 I0.0543 J-0.031
G1 X4.6493
G1 Z-0.0563
G1 X4.8993
G1 Z-0.13 F30.
G1 X11.8621 F6.1
G1 Z-0.0563
G1 X12.1121
G1 Z-0.13 F30.
G1 X15.5935 F6.1
G2 X15.6478 Y-15.2277 I0 J-0.0625
G1 X15.7247 Y-15.3623
G3 X15.7323 Y-15.3681 I0.0109 J0.0062
G3 X15.7418 Y-15.3669 I0.0033 J0.0121
G1 X15.7527 Y-15.3607
G1 X15.7551 Y-15.3594 Z-0.1297
G1 X15.7574 Y-15.358 Z-0.1288
G1 X15.7594 Y-15.3569 Z-0.1273
G1 X15.7611 Y-15.3559 Z-0.1253
G1 X15.7624 Y-15.3552 Z-0.1229
G1 X15.7632 Y-15.3547 Z-0.1203
G1 X15.7635 Y-15.3545 Z-0.1175
G0 Z0.2
G0 X15.7511 Y-15.3328
G1 Z-0.0744 F30.
G1 Z-0.1338
G1 X15.7508 Y-15.333 Z-0.1365 F6.1
G1 X15.75 Y-15.3334 Z-0.1392
G1 X15.7487 Y-15.3342 Z-0.1415
G1 X15.747 Y-15.3352 Z-0.1435
G1 X15.745 Y-15.3363 Z-0.145
G1 X15.7427 Y-15.3377 Z-0.1459
G1 X15.7402 Y-15.339 Z-0.1463
G1 X15.7294 Y-15.3452
G3 X15.7247 Y-15.3623 I0.0062 J-0.0109
G1 X16.4352 Y-16.6056
G2 X16.4434 Y-16.6366 I-0.0543 J-0.031
G1 Y-19.1226
G2 X16.4413 Y-19.1387 I-0.0625 J0
G1 X16.3161 Y-19.6056
G2 X16.2557 Y-19.6519 I-0.0604 J0.0162
G1 X13.7559
G1 Z-0.0563
G1 X13.5059
G1 Z-0.1463 F30.
G1 X8.5061 F6.1
G1 Z-0.0563
G1 X8.2561
G1 Z-0.1463 F30.
G1 X3.2564 F6.1
G1 Z-0.0563
G1 X3.0064
G1 Z-0.1463 F30.
G1 X0.5065 F6.1
G2 X0.4524 Y-19.6206 I0 J0.0625
G1 X0.3268 Y-19.4031
G2 X0.3184 Y-19.3719 I0.0541 J0.0313
G1 Y-16.6366
G2 X0.3267 Y-16.6056 I0.0625 J0
G1 X1.1137 Y-15.2277
G2 X1.1679 Y-15.1962 I0.0543 J-0.031
G1 X4.6493
G1 Z-0.0563
G1 X4.8993
G1 Z-0.1463 F30.
G1 X11.8621 F6.1
G1 Z-0.0563
G1 X12.1121
G1 Z-0.1463 F30.
G1 X15.5935 F6.1
G2 X15.6478 Y-15.2277 I0 J-0.0625
G1 X15.7247 Y-15.3623
G3 X15.7323 Y-15.3681 I0.0109 J0.0062
G3 X15.7418 Y-15.3669 I0.0033 J0.0121
G1 X15.7527 Y-15.3607
G1 X15.7551 Y-15.3594 Z-0.1459
G1 X15.7574 Y-15.358 Z-0.145
G1 X15.7594 Y-15.3569 Z-0.1435
G1 X15.7611 Y-15.3559 Z-0.1415
G1 X15.7624 Y-15.3552 Z-0.1392
G1 X15.7632 Y-15.3547 Z-0.1365
G1 X15.7635 Y-15.3545 Z-0.1338
G0 Z0.2
G0 X15.7511 Y-15.3328
G1 Z-0.0906 F30.
G1 Z-0.1438
G1 X15.7508 Y-15.333 Z-0.1465 F6.1
G1 X15.75 Y-15.3334 Z-0.1492
G1 X15.7487 Y-15.3342 Z-0.1515
G1 X15.747 Y-15.3352 Z-0.1535
G1 X15.745 Y-15.3363 Z-0.155
G1 X15.7427 Y-15.3377 Z-0.1559
G1 X15.7402 Y-15.339 Z-0.1563
G1 X15.7294 Y-15.3452
G3 X15.7247 Y-15.3623 I0.0062 J-0.0109
G1 X16.4352 Y-16.6056
G2 X16.4434 Y-16.6366 I-0.0543 J-0.031
G1 Y-19.1226
G2 X16.4413 Y-19.1387 I-0.0625 J0
G1 X16.3161 Y-19.6056
G2 X16.2557 Y-19.6519 I-0.0604 J0.0162
G1 X13.7559
G1 Z-0.0563
G1 X13.5059
G1 Z-0.1563 F30.
G1 X8.5061 F6.1
G1 Z-0.0563
G1 X8.2561
G1 Z-0.1563 F30.
G1 X3.2564 F6.1
G1 Z-0.0563
G1 X3.0064
G1 Z-0.1563 F30.
G1 X0.5065 F6.1
G2 X0.4524 Y-19.6206 I0 J0.0625
G1 X0.3268 Y-19.4031
G2 X0.3184 Y-19.3719 I0.0541 J0.0313
G1 Y-16.6366
G2 X0.3267 Y-16.6056 I0.0625 J0
G1 X1.1137 Y-15.2277
G2 X1.1679 Y-15.1962 I0.0543 J-0.031
G1 X4.6493
G1 Z-0.0563
G1 X4.8993
G1 Z-0.1563 F30.
G1 X11.8621 F6.1
G1 Z-0.0563
G1 X12.1121
G1 Z-0.1563 F30.
G1 X15.5935 F6.1
G2 X15.6478 Y-15.2277 I0 J-0.0625
G1 X15.7247 Y-15.3623
G3 X15.7323 Y-15.3681 I0.0109 J0.0062
G3 X15.7418 Y-15.3669 I0.0033 J0.0121
G1 X15.7527 Y-15.3607
G1 X15.7551 Y-15.3594 Z-0.1559
G1 X15.7574 Y-15.358 Z-0.155
G1 X15.7594 Y-15.3569 Z-0.1535
G1 X15.7611 Y-15.3559 Z-0.1515
G1 X15.7624 Y-15.3552 Z-0.1492
G1 X15.7632 Y-15.3547 Z-0.1465
G1 X15.7635 Y-15.3545 Z-0.1438
G0 Z0.2
G0 X17.3033 Y-15.8964
G1 Z0.0556 F30.
G1 Z-0.0038
G1 X17.3036 Y-15.8966 Z-0.0065 F6.1
G1 X17.3044 Y-15.897 Z-0.0092
G1 X17.3057 Y-15.8978 Z-0.0115
G1 X17.3074 Y-15.8988 Z-0.0135
G1 X17.3095 Y-15.8999 Z-0.015
G1 X17.3118 Y-15.9012 Z-0.0159
G1 X17.3142 Y-15.9026 Z-0.0163
G1 X17.325 Y-15.9088
G3 X17.3421 Y-15.9042 I0.0062 J0.0109
G1 X17.9478 Y-14.8436
G2 X18.0021 Y-14.8121 I0.0543 J-0.031
G1 X32.4277
G2 X32.4819 Y-14.8436 I0 J-0.0625
G1 X33.2693 Y-16.2216
G2 X33.2776 Y-16.2526 I-0.0543 J-0.031
G1 Y-18.9885
G2 X33.2692 Y-19.0198 I-0.0625 J0
G1 X33.144 Y-19.2366
G2 X33.0899 Y-19.2678 I-0.0541 J0.0313
G1 X17.3406
G2 X17.2865 Y-19.2366 I0 J0.0625
G1 X17.161 Y-19.0191
G2 X17.1526 Y-18.9878 I0.0541 J0.0312
G1 Y-16.2526
G2 X17.1608 Y-16.2216 I0.0625 J0
G1 X17.3421 Y-15.9042
G3 X17.3374 Y-15.8871 I-0.0109 J0.0062
G1 X17.3266 Y-15.8809
G1 X17.3242 Y-15.8795 Z-0.0159
G1 X17.3219 Y-15.8782 Z-0.015
G1 X17.3198 Y-15.877 Z-0.0135
G1 X17.3181 Y-15.8761 Z-0.0115
G1 X17.3168 Y-15.8753 Z-0.0092
G1 X17.316 Y-15.8749 Z-0.0065
G1 X17.3157 Y-15.8747 Z-0.0038
G0 Z0.2
G0 X17.3033 Y-15.8964
G1 Z0.0394 F30.
G1 Z-0.02
G1 X17.3036 Y-15.8966 Z-0.0228 F6.1
G1 X17.3044 Y-15.897 Z-0.0254
G1 X17.3057 Y-15.8978 Z-0.0278
G1 X17.3074 Y-15.8988 Z-0.0298
G1 X17.3095 Y-15.8999 Z-0.0313
G1 X17.3118 Y-15.9012 Z-0.0322
G1 X17.3142 Y-15.9026 Z-0.0325
G1 X17.325 Y-15.9088
G3 X17.3421 Y-15.9042 I0.0062 J0.0109
G1 X17.9478 Y-14.8436
G2 X18.0021 Y-14.8121 I0.0543 J-0.031
G1 X32.4277
G2 X32.4819 Y-14.8436 I0 J-0.0625
G1 X33.2693 Y-16.2216
G2 X33.2776 Y-16.2526 I-0.0543 J-0.031
G1 Y-18.9885
G2 X33.2692 Y-19.0198 I-0.0625 J0
G1 X33.144 Y-19.2366
G2 X33.0899 Y-19.2678 I-0.0541 J0.0313
G1 X17.3406
G2 X17.2865 Y-19.2366 I0 J0.0625
G1 X17.161 Y-19.0191
G2 X17.1526 Y-18.9878 I0.0541 J0.0312
G1 Y-16.2526
G2 X17.1608 Y-16.2216 I0.0625 J0
G1 X17.3421 Y-15.9042
G3 X17.3374 Y-15.8871 I-0.0109 J0.0062
G1 X17.3266 Y-15.8809
G1 X17.3242 Y-15.8795 Z-0.0322
G1 X17.3219 Y-15.8782 Z-0.0313
G1 X17.3198 Y-15.877 Z-0.0298
G1 X17.3181 Y-15.8761 Z-0.0278
G1 X17.3168 Y-15.8753 Z-0.0254
G1 X17.316 Y-15.8749 Z-0.0228
G1 X17.3157 Y-15.8747 Z-0.02
G0 Z0.2
G0 X17.3033 Y-15.8964
G1 Z0.0231 F30.
G1 Z-0.0363
G1 X17.3036 Y-15.8966 Z-0.039 F6.1
G1 X17.3044 Y-15.897 Z-0.0417
G1 X17.3057 Y-15.8978 Z-0.044
G1 X17.3074 Y-15.8988 Z-0.046
G1 X17.3095 Y-15.8999 Z-0.0475
G1 X17.3118 Y-15.9012 Z-0.0484
G1 X17.3142 Y-15.9026 Z-0.0488
G1 X17.325 Y-15.9088
G3 X17.3421 Y-15.9042 I0.0062 J0.0109
G1 X17.9478 Y-14.8436
G2 X18.0021 Y-14.8121 I0.0543 J-0.031
G1 X32.4277
G2 X32.4819 Y-14.8436 I0 J-0.0625
G1 X33.2693 Y-16.2216
G2 X33.2776 Y-16.2526 I-0.0543 J-0.031
G1 Y-18.9885
G2 X33.2692 Y-19.0198 I-0.0625 J0
G1 X33.144 Y-19.2366
G2 X33.0899 Y-19.2678 I-0.0541 J0.0313
G1 X17.3406
G2 X17.2865 Y-19.2366 I0 J0.0625
G1 X17.161 Y-19.0191
G2 X17.1526 Y-18.9878 I0.0541 J0.0312
G1 Y-16.2526
G2 X17.1608 Y-16.2216 I0.0625 J0
G1 X17.3421 Y-15.9042
G3 X17.3374 Y-15.8871 I-0.0109 J0.0062
G1 X17.3266 Y-15.8809
G1 X17.3242 Y-15.8795 Z-0.0484
G1 X17.3219 Y-15.8782 Z-0.0475
G1 X17.3198 Y-15.877 Z-0.046
G1 X17.3181 Y-15.8761 Z-0.044
G1 X17.3168 Y-15.8753 Z-0.0417
G1 X17.316 Y-15.8749 Z-0.039
G1 X17.3157 Y-15.8747 Z-0.0363
G0 Z0.2
G0 X17.3033 Y-15.8964
G1 Z0.0069 F30.
G1 Z-0.0525
G1 X17.3036 Y-15.8966 Z-0.0553 F6.1
G1 X17.3044 Y-15.897 Z-0.0579
G1 X17.3057 Y-15.8978 Z-0.0603
G1 X17.3074 Y-15.8988 Z-0.0623
G1 X17.3095 Y-15.8999 Z-0.0638
G1 X17.3118 Y-15.9012 Z-0.0647
G1 X17.3142 Y-15.9026 Z-0.065
G1 X17.325 Y-15.9088
G3 X17.3421 Y-15.9042 I0.0062 J0.0109
G1 X17.9478 Y-14.8436
G2 X18.0021 Y-14.8121 I0.0543 J-0.031
G1 X21.4835
G1 Z-0.0563
G1 X21.7335
G1 Z-0.065 F30.
G1 X28.6963 F6.1
G1 Z-0.0563
G1 X28.9463
G1 Z-0.065 F30.
G1 X32.4277 F6.1
G2 X32.4819 Y-14.8436 I0 J-0.0625
G1 X33.2693 Y-16.2216
G2 X33.2776 Y-16.2526 I-0.0543 J-0.031
G1 Y-18.9885
G2 X33.2692 Y-19.0198 I-0.0625 J0
G1 X33.144 Y-19.2366
G2 X33.0899 Y-19.2678 I-0.0541 J0.0313
G1 X30.59
G1 Z-0.0563
G1 X30.34
G1 Z-0.065 F30.
G1 X25.3403 F6.1
G1 Z-0.0563
G1 X25.0903
G1 Z-0.065 F30.
G1 X20.0905 F6.1
G1 Z-0.0563
G1 X19.8405
G1 Z-0.065 F30.
G1 X17.3406 F6.1
G2 X17.2865 Y-19.2366 I0 J0.0625
G1 X17.161 Y-19.0191
G2 X17.1526 Y-18.9878 I0.0541 J0.0312
G1 Y-16.2526
G2 X17.1608 Y-16.2216 I0.0625 J0
G1 X17.3421 Y-15.9042
G3 X17.3374 Y-15.8871 I-0.0109 J0.0062
G1 X17.3266 Y-15.8809
G1 X17.3242 Y-15.8795 Z-0.0647
G1 X17.3219 Y-15.8782 Z-0.0638
G1 X17.3198 Y-15.877 Z-0.0623
G1 X17.3181 Y-15.8761 Z-0.0603
G1 X17.3168 Y-15.8753 Z-0.0579
G1 X17.316 Y-15.8749 Z-0.0553
G1 X17.3157 Y-15.8747 Z-0.0525
G0 Z0.2
G0 X17.3033 Y-15.8964
G1 Z-0.0094 F30.
G1 Z-0.0688
G1 X17.3036 Y-15.8966 Z-0.0715 F6.1
G1 X17.3044 Y-15.897 Z-0.0742
G1 X17.3057 Y-15.8978 Z-0.0765
G1 X17.3074 Y-15.8988 Z-0.0785
G1 X17.3095 Y-15.8999 Z-0.08
G1 X17.3118 Y-15.9012 Z-0.0809
G1 X17.3142 Y-15.9026 Z-0.0813
G1 X17.325 Y-15.9088
G3 X17.3421 Y-15.9042 I0.0062 J0.0109
G1 X17.9478 Y-14.8436
G2 X18.0021 Y-14.8121 I0.0543 J-0.031
G1 X21.4835
G1 Z-0.0563
G1 X21.7335
G1 Z-0.0813 F30.
G1 X28.6963 F6.1
G1 Z-0.0563
G1 X28.9463
G1 Z-0.0813 F30.
G1 X32.4277 F6.1
G2 X32.4819 Y-14.8436 I0 J-0.0625
G1 X33.2693 Y-16.2216
G2 X33.2776 Y-16.2526 I-0.0543 J-0.031
G1 Y-18.9885
G2 X33.2692 Y-19.0198 I-0.0625 J0
G1 X33.144 Y-19.2366
G2 X33.0899 Y-19.2678 I-0.0541 J0.0313
G1 X30.59
G1 Z-0.0563
G1 X30.34
G1 Z-0.0813 F30.
G1 X25.3403 F6.1
G1 Z-0.0563
G1 X25.0903
G1 Z-0.0813 F30.
G1 X20.0905 F6.1
G1 Z-0.0563
G1 X19.8405
G1 Z-0.0813 F30.
G1 X17.3406 F6.1
G2 X17.2865 Y-19.2366 I0 J0.0625
G1 X17.161 Y-19.0191
G2 X17.1526 Y-18.9878 I0.0541 J0.0312
G1 Y-16.2526
G2 X17.1608 Y-16.2216 I0.0625 J0
G1 X17.3421 Y-15.9042
G3 X17.3374 Y-15.8871 I-0.0109 J0.0062
G1 X17.3266 Y-15.8809
G1 X17.3242 Y-15.8795 Z-0.0809
G1 X17.3219 Y-15.8782 Z-0.08
G1 X17.3198 Y-15.877 Z-0.0785
G1 X17.3181 Y-15.8761 Z-0.0765
G1 X17.3168 Y-15.8753 Z-0.0742
G1 X17.316 Y-15.8749 Z-0.0715
G1 X17.3157 Y-15.8747 Z-0.0688
G0 Z0.2
G0 X17.3033 Y-15.8964
G1 Z-0.0256 F30.
G1 Z-0.085
G1 X17.3036 Y-15.8966 Z-0.0878 F6.1
G1 X17.3044 Y-15.897 Z-0.0904
G1 X17.3057 Y-15.8978 Z-0.0928
G1 X17.3074 Y-15.8988 Z-0.0948
G1 X17.3095 Y-15.8999 Z-0.0963
G1 X17.3118 Y-15.9012 Z-0.0972
G1 X17.3142 Y-15.9026 Z-0.0975
G1 X17.325 Y-15.9088
G3 X17.3421 Y-15.9042 I0.0062 J0.0109
G1 X17.9478 Y-14.8436
G2 X18.0021 Y-14.8121 I0.0543 J-0.031
G1 X21.4835
G1 Z-0.0563
G1 X21.7335
G1 Z-0.0975 F30.
G1 X28.6963 F6.1
G1 Z-0.0563
G1 X28.9463
G1 Z-0.0975 F30.
G1 X32.4277 F6.1
G2 X32.4819 Y-14.8436 I0 J-0.0625
G1 X33.2693 Y-16.2216
G2 X33.2776 Y-16.2526 I-0.0543 J-0.031
G1 Y-18.9885
G2 X33.2692 Y-19.0198 I-0.0625 J0
G1 X33.144 Y-19.2366
G2 X33.0899 Y-19.2678 I-0.0541 J0.0313
G1 X30.59
G1 Z-0.0563
G1 X30.34
G1 Z-0.0975 F30.
G1 X25.3403 F6.1
G1 Z-0.0563
G1 X25.0903
G1 Z-0.0975 F30.
G1 X20.0905 F6.1
G1 Z-0.0563
G1 X19.8405
G1 Z-0.0975 F30.
G1 X17.3406 F6.1
G2 X17.2865 Y-19.2366 I0 J0.0625
G1 X17.161 Y-19.0191
G2 X17.1526 Y-18.9878 I0.0541 J0.0312
G1 Y-16.2526
G2 X17.1608 Y-16.2216 I0.0625 J0
G1 X17.3421 Y-15.9042
G3 X17.3374 Y-15.8871 I-0.0109 J0.0062
G1 X17.3266 Y-15.8809
G1 X17.3242 Y-15.8795 Z-0.0972
G1 X17.3219 Y-15.8782 Z-0.0963
G1 X17.3198 Y-15.877 Z-0.0948
G1 X17.3181 Y-15.8761 Z-0.0928
G1 X17.3168 Y-15.8753 Z-0.0904
G1 X17.316 Y-15.8749 Z-0.0878
G1 X17.3157 Y-15.8747 Z-0.085
G0 Z0.2
G0 X17.3033 Y-15.8964
G1 Z-0.0419 F30.
G1 Z-0.1013
G1 X17.3036 Y-15.8966 Z-0.104 F6.1
G1 X17.3044 Y-15.897 Z-0.1067
G1 X17.3057 Y-15.8978 Z-0.109
G1 X17.3074 Y-15.8988 Z-0.111
G1 X17.3095 Y-15.8999 Z-0.1125
G1 X17.3118 Y-15.9012 Z-0.1134
G1 X17.3142 Y-15.9026 Z-0.1138
G1 X17.325 Y-15.9088
G3 X17.3421 Y-15.9042 I0.0062 J0.0109
G1 X17.9478 Y-14.8436
G2 X18.0021 Y-14.8121 I0.0543 J-0.031
G1 X21.4835
G1 Z-0.0563
G1 X21.7335
G1 Z-0.1138 F30.
G1 X28.6963 F6.1
G1 Z-0.0563
G1 X28.9463
G1 Z-0.1138 F30.
G1 X32.4277 F6.1
G2 X32.4819 Y-14.8436 I0 J-0.0625
G1 X33.2693 Y-16.2216
G2 X33.2776 Y-16.2526 I-0.0543 J-0.031
G1 Y-18.9885
G2 X33.2692 Y-19.0198 I-0.0625 J0
G1 X33.144 Y-19.2366
G2 X33.0899 Y-19.2678 I-0.0541 J0.0313
G1 X30.59
G1 Z-0.0563
G1 X30.34
G1 Z-0.1138 F30.
G1 X25.3403 F6.1
G1 Z-0.0563
G1 X25.0903
G1 Z-0.1138 F30.
G1 X20.0905 F6.1
G1 Z-0.0563
G1 X19.8405
G1 Z-0.1138 F30.
G1 X17.3406 F6.1
G2 X17.2865 Y-19.2366 I0 J0.0625
G1 X17.161 Y-19.0191
G2 X17.1526 Y-18.9878 I0.0541 J0.0312
G1 Y-16.2526
G2 X17.1608 Y-16.2216 I0.0625 J0
G1 X17.3421 Y-15.9042
G3 X17.3374 Y-15.8871 I-0.0109 J0.0062
G1 X17.3266 Y-15.8809
G1 X17.3242 Y-15.8795 Z-0.1134
G1 X17.3219 Y-15.8782 Z-0.1125
G1 X17.3198 Y-15.877 Z-0.111
G1 X17.3181 Y-15.8761 Z-0.109
G1 X17.3168 Y-15.8753 Z-0.1067
G1 X17.316 Y-15.8749 Z-0.104
G1 X17.3157 Y-15.8747 Z-0.1013
G0 Z0.2
G0 X17.3033 Y-15.8964
G1 Z-0.0581 F30.
G1 Z-0.1175
G1 X17.3036 Y-15.8966 Z-0.1203 F6.1
G1 X17.3044 Y-15.897 Z-0.1229
G1 X17.3057 Y-15.8978 Z-0.1253
G1 X17.3074 Y-15.8988 Z-0.1273
G1 X17.3095 Y-15.8999 Z-0.1288
G1 X17.3118 Y-15.9012 Z-0.1297
G1 X17.3142 Y-15.9026 Z-0.13
G1 X17.325 Y-15.9088
G3 X17.3421 Y-15.9042 I0.0062 J0.0109
G1 X17.9478 Y-14.8436
G2 X18.0021 Y-14.8121 I0.0543 J-0.031
G1 X21.4835
G1 Z-0.0563
G1 X21.7335
G1 Z-0.13 F30.
G1 X28.6963 F6.1
G1 Z-0.0563
G1 X28.9463
G1 Z-0.13 F30.
G1 X32.4277 F6.1
G2 X32.4819 Y-14.8436 I0 J-0.0625
G1 X33.2693 Y-16.2216
G2 X33.2776 Y-16.2526 I-0.0543 J-0.031
G1 Y-18.9885
G2 X33.2692 Y-19.0198 I-0.0625 J0
G1 X33.144 Y-19.2366
G2 X33.0899 Y-19.2678 I-0.0541 J0.0313
G1 X30.59
G1 Z-0.0563
G1 X30.34
G1 Z-0.13 F30.
G1 X25.3403 F6.1
G1 Z-0.0563
G1 X25.0903
G1 Z-0.13 F30.
G1 X20.0905 F6.1
G1 Z-0.0563
G1 X19.8405
G1 Z-0.13 F30.
G1 X17.3406 F6.1
G2 X17.2865 Y-19.2366 I0 J0.0625
G1 X17.161 Y-19.0191
G2 X17.1526 Y-18.9878 I0.0541 J0.0312
G1 Y-16.2526
G2 X17.1608 Y-16.2216 I0.0625 J0
G1 X17.3421 Y-15.9042
G3 X17.3374 Y-15.8871 I-0.0109 J0.0062
G1 X17.3266 Y-15.8809
G1 X17.3242 Y-15.8795 Z-0.1297
G1 X17.3219 Y-15.8782 Z-0.1288
G1 X17.3198 Y-15.877 Z-0.1273
G1 X17.3181 Y-15.8761 Z-0.1253
G1 X17.3168 Y-15.8753 Z-0.1229
G1 X17.316 Y-15.8749 Z-0.1203
G1 X17.3157 Y-15.8747 Z-0.1175
G0 Z0.2
G0 X17.3033 Y-15.8964
G1 Z-0.0744 F30.
G1 Z-0.1338
G1 X17.3036 Y-15.8966 Z-0.1365 F6.1
G1 X17.3044 Y-15.897 Z-0.1392
G1 X17.3057 Y-15.8978 Z-0.1415
G1 X17.3074 Y-15.8988 Z-0.1435
G1 X17.3095 Y-15.8999 Z-0.145
G1 X17.3118 Y-15.9012 Z-0.1459
G1 X17.3142 Y-15.9026 Z-0.1463
G1 X17.325 Y-15.9088
G3 X17.3421 Y-15.9042 I0.0062 J0.0109
G1 X17.9478 Y-14.8436
G2 X18.0021 Y-14.8121 I0.0543 J-0.031
G1 X21.4835
G1 Z-0.0563
G1 X21.7335
G1 Z-0.1463 F30.
G1 X28.6963 F6.1
G1 Z-0.0563
G1 X28.9463
G1 Z-0.1463 F30.
G1 X32.4277 F6.1
G2 X32.4819 Y-14.8436 I0 J-0.0625
G1 X33.2693 Y-16.2216
G2 X33.2776 Y-16.2526 I-0.0543 J-0.031
G1 Y-18.9885
G2 X33.2692 Y-19.0198 I-0.0625 J0
G1 X33.144 Y-19.2366
G2 X33.0899 Y-19.2678 I-0.0541 J0.0313
G1 X30.59
G1 Z-0.0563
G1 X30.34
G1 Z-0.1463 F30.
G1 X25.3403 F6.1
G1 Z-0.0563
G1 X25.0903
G1 Z-0.1463 F30.
G1 X20.0905 F6.1
G1 Z-0.0563
G1 X19.8405
G1 Z-0.1463 F30.
G1 X17.3406 F6.1
G2 X17.2865 Y-19.2366 I0 J0.0625
G1 X17.161 Y-19.0191
G2 X17.1526 Y-18.9878 I0.0541 J0.0312
G1 Y-16.2526
G2 X17.1608 Y-16.2216 I0.0625 J0
G1 X17.3421 Y-15.9042
G3 X17.3374 Y-15.8871 I-0.0109 J0.0062
G1 X17.3266 Y-15.8809
G1 X17.3242 Y-15.8795 Z-0.1459
G1 X17.3219 Y-15.8782 Z-0.145
G1 X17.3198 Y-15.877 Z-0.1435
G1 X17.3181 Y-15.8761 Z-0.1415
G1 X17.3168 Y-15.8753 Z-0.1392
G1 X17.316 Y-15.8749 Z-0.1365
G1 X17.3157 Y-15.8747 Z-0.1338
G0 Z0.2
G0 X17.3033 Y-15.8964
G1 Z-0.0906 F30.
G1 Z-0.1438
G1 X17.3036 Y-15.8966 Z-0.1465 F6.1
G1 X17.3044 Y-15.897 Z-0.1492
G1 X17.3057 Y-15.8978 Z-0.1515
G1 X17.3074 Y-15.8988 Z-0.1535
G1 X17.3095 Y-15.8999 Z-0.155
G1 X17.3118 Y-15.9012 Z-0.1559
G1 X17.3142 Y-15.9026 Z-0.1563
G1 X17.325 Y-15.9088
G3 X17.3421 Y-15.9042 I0.0062 J0.0109
G1 X17.9478 Y-14.8436
G2 X18.0021 Y-14.8121 I0.0543 J-0.031
G1 X21.4835
G1 Z-0.0563
G1 X21.7335
G1 Z-0.1563 F30.
G1 X28.6963 F6.1
G1 Z-0.0563
G1 X28.9463
G1 Z-0.1563 F30.
G1 X32.4277 F6.1
G2 X32.4819 Y-14.8436 I0 J-0.0625
G1 X33.2693 Y-16.2216
G2 X33.2776 Y-16.2526 I-0.0543 J-0.031
G1 Y-18.9885
G2 X33.2692 Y-19.0198 I-0.0625 J0
G1 X33.144 Y-19.2366
G2 X33.0899 Y-19.2678 I-0.0541 J0.0313
G1 X30.59
G1 Z-0.0563
G1 X30.34
G1 Z-0.1563 F30.
G1 X25.3403 F6.1
G1 Z-0.0563
G1 X25.0903
G1 Z-0.1563 F30.
G1 X20.0905 F6.1
G1 Z-0.0563
G1 X19.8405
G1 Z-0.1563 F30.
G1 X17.3406 F6.1
G2 X17.2865 Y-19.2366 I0 J0.0625
G1 X17.161 Y-19.0191
G2 X17.1526 Y-18.9878 I0.0541 J0.0312
G1 Y-16.2526
G2 X17.1608 Y-16.2216 I0.0625 J0
G1 X17.3421 Y-15.9042
G3 X17.3374 Y-15.8871 I-0.0109 J0.0062
G1 X17.3266 Y-15.8809
G1 X17.3242 Y-15.8795 Z-0.1559
G1 X17.3219 Y-15.8782 Z-0.155
G1 X17.3198 Y-15.877 Z-0.1535
G1 X17.3181 Y-15.8761 Z-0.1515
G1 X17.3168 Y-15.8753 Z-0.1492
G1 X17.316 Y-15.8749 Z-0.1465
G1 X17.3157 Y-15.8747 Z-0.1438
G0 Z0.6

M5
M30
