(1001)
(T1  D=0.125 CR=0 - ZMIN=-0.0937 - FLAT END MILL)
G0 G40 G90 G17
G20

(2D CONTOUR2)
T1 M6
M3 S2440
G0 X-3.6919 Y10.0194
G0 Z0.6625
G0 Z0.2625
G1 Z0.1181 F30.
G1 Z0.0587
G1 X-3.692 Y10.0197 Z0.056 F6.1
G1 X-3.6924 Y10.0206 Z0.0533
G1 X-3.6931 Y10.0219 Z0.051
G1 X-3.6939 Y10.0237 Z0.049
G1 X-3.695 Y10.0258 Z0.0475
G1 X-3.6962 Y10.0282 Z0.0466
G1 X-3.6974 Y10.0307 Z0.0462
G1 X-3.7029 Y10.0419
G3 X-3.7101 Y10.0482 I-0.0112 J-0.0055
G3 X-3.7196 Y10.0476 I-0.004 J-0.0118
G2 X-3.7472 Y10.0412 I-0.0276 J0.0561
G1 X-19.4965
G2 X-19.5506 Y10.0724 I0 J0.0625
G1 X-19.6762 Y10.2899
G2 X-19.6845 Y10.3212 I0.0541 J0.0313
G1 Y13.0564
G2 X-19.6763 Y13.0874 I0.0625 J0
G1 X-18.8893 Y14.4654
G2 X-18.835 Y14.4969 I0.0543 J-0.031
G1 X-4.4094
G2 X-4.3552 Y14.4654 I0 J-0.0625
G1 X-3.5678 Y13.0874
G2 X-3.5595 Y13.0564 I-0.0543 J-0.031
G1 Y10.3205
G2 X-3.5679 Y10.2892 I-0.0625 J0
G1 X-3.6931 Y10.0724
G2 X-3.7196 Y10.0476 I-0.0541 J0.0312
G3 X-3.7253 Y10.0308 I0.0055 J-0.0112
G1 X-3.7198 Y10.0196
G1 X-3.7186 Y10.0171 Z0.0466
G1 X-3.7174 Y10.0148 Z0.0475
G1 X-3.7164 Y10.0126 Z0.049
G1 X-3.7155 Y10.0109 Z0.051
G1 X-3.7148 Y10.0095 Z0.0533
G1 X-3.7144 Y10.0087 Z0.056
G1 X-3.7143 Y10.0084 Z0.0587
G0 Z0.2625
G0 X-3.6919 Y10.0194
G1 Z0.1019 F30.
G1 Z0.0425
G1 X-3.692 Y10.0197 Z0.0397 F6.1
G1 X-3.6924 Y10.0206 Z0.0371
G1 X-3.6931 Y10.0219 Z0.0347
G1 X-3.6939 Y10.0237 Z0.0327
G1 X-3.695 Y10.0258 Z0.0312
G1 X-3.6962 Y10.0282 Z0.0303
G1 X-3.6974 Y10.0307 Z0.03
G1 X-3.7029 Y10.0419
G3 X-3.7101 Y10.0482 I-0.0112 J-0.0055
G3 X-3.7196 Y10.0476 I-0.004 J-0.0118
G2 X-3.7472 Y10.0412 I-0.0276 J0.0561
G1 X-19.4965
G2 X-19.5506 Y10.0724 I0 J0.0625
G1 X-19.6762 Y10.2899
G2 X-19.6845 Y10.3212 I0.0541 J0.0313
G1 Y13.0564
G2 X-19.6763 Y13.0874 I0.0625 J0
G1 X-18.8893 Y14.4654
G2 X-18.835 Y14.4969 I0.0543 J-0.031
G1 X-4.4094
G2 X-4.3552 Y14.4654 I0 J-0.0625
G1 X-3.5678 Y13.0874
G2 X-3.5595 Y13.0564 I-0.0543 J-0.031
G1 Y10.3205
G2 X-3.5679 Y10.2892 I-0.0625 J0
G1 X-3.6931 Y10.0724
G2 X-3.7196 Y10.0476 I-0.0541 J0.0312
G3 X-3.7253 Y10.0308 I0.0055 J-0.0112
G1 X-3.7198 Y10.0196
G1 X-3.7186 Y10.0171 Z0.0303
G1 X-3.7174 Y10.0148 Z0.0312
G1 X-3.7164 Y10.0126 Z0.0327
G1 X-3.7155 Y10.0109 Z0.0347
G1 X-3.7148 Y10.0095 Z0.0371
G1 X-3.7144 Y10.0087 Z0.0397
G1 X-3.7143 Y10.0084 Z0.0425
G0 Z0.2625
G0 X-3.6919 Y10.0194
G1 Z0.0856 F30.
G1 Z0.0262
G1 X-3.692 Y10.0197 Z0.0235 F6.1
G1 X-3.6924 Y10.0206 Z0.0208
G1 X-3.6931 Y10.0219 Z0.0185
G1 X-3.6939 Y10.0237 Z0.0165
G1 X-3.695 Y10.0258 Z0.015
G1 X-3.6962 Y10.0282 Z0.0141
G1 X-3.6974 Y10.0307 Z0.0137
G1 X-3.7029 Y10.0419
G3 X-3.7101 Y10.0482 I-0.0112 J-0.0055
G3 X-3.7196 Y10.0476 I-0.004 J-0.0118
G2 X-3.7472 Y10.0412 I-0.0276 J0.0561
G1 X-19.4965
G2 X-19.5506 Y10.0724 I0 J0.0625
G1 X-19.6762 Y10.2899
G2 X-19.6845 Y10.3212 I0.0541 J0.0313
G1 Y13.0564
G2 X-19.6763 Y13.0874 I0.0625 J0
G1 X-18.8893 Y14.4654
G2 X-18.835 Y14.4969 I0.0543 J-0.031
G1 X-4.4094
G2 X-4.3552 Y14.4654 I0 J-0.0625
G1 X-3.5678 Y13.0874
G2 X-3.5595 Y13.0564 I-0.0543 J-0.031
G1 Y10.3205
G2 X-3.5679 Y10.2892 I-0.0625 J0
G1 X-3.6931 Y10.0724
G2 X-3.7196 Y10.0476 I-0.0541 J0.0312
G3 X-3.7253 Y10.0308 I0.0055 J-0.0112
G1 X-3.7198 Y10.0196
G1 X-3.7186 Y10.0171 Z0.0141
G1 X-3.7174 Y10.0148 Z0.015
G1 X-3.7164 Y10.0126 Z0.0165
G1 X-3.7155 Y10.0109 Z0.0185
G1 X-3.7148 Y10.0095 Z0.0208
G1 X-3.7144 Y10.0087 Z0.0235
G1 X-3.7143 Y10.0084 Z0.0262
G0 Z0.2625
G0 X-3.6919 Y10.0194
G1 Z0.0694 F30.
G1 Z0.01
G1 X-3.692 Y10.0197 Z0.0072 F6.1
G1 X-3.6924 Y10.0206 Z0.0046
G1 X-3.6931 Y10.0219 Z0.0022
G1 X-3.6939 Y10.0237 Z0.0002
G1 X-3.695 Y10.0258 Z-0.0013
G1 X-3.6962 Y10.0282 Z-0.0022
G1 X-3.6974 Y10.0307 Z-0.0025
G1 X-3.7029 Y10.0419
G3 X-3.7101 Y10.0482 I-0.0112 J-0.0055
G3 X-3.7196 Y10.0476 I-0.004 J-0.0118
G2 X-3.7472 Y10.0412 I-0.0276 J0.0561
G1 X-6.2471
G1 Z0.0062
G1 X-6.4971
G1 Z-0.0025 F30.
G1 X-11.4968 F6.1
G1 Z0.0062
G1 X-11.7469
G1 Z-0.0025 F30.
G1 X-16.7466 F6.1
G1 Z0.0062
G1 X-16.9966
G1 Z-0.0025 F30.
G1 X-19.4965 F6.1
G2 X-19.5506 Y10.0724 I0 J0.0625
G1 X-19.6762 Y10.2899
G2 X-19.6845 Y10.3212 I0.0541 J0.0313
G1 Y13.0564
G2 X-19.6763 Y13.0874 I0.0625 J0
G1 X-18.8893 Y14.4654
G2 X-18.835 Y14.4969 I0.0543 J-0.031
G1 X-15.3536
G1 Z0.0062
G1 X-15.1036
G1 Z-0.0025 F30.
G1 X-8.1408 F6.1
G1 Z0.0062
G1 X-7.8908
G1 Z-0.0025 F30.
G1 X-4.4094 F6.1
G2 X-4.3552 Y14.4654 I0 J-0.0625
G1 X-3.5678 Y13.0874
G2 X-3.5595 Y13.0564 I-0.0543 J-0.031
G1 Y10.3205
G2 X-3.5679 Y10.2892 I-0.0625 J0
G1 X-3.6931 Y10.0724
G2 X-3.7196 Y10.0476 I-0.0541 J0.0312
G3 X-3.7253 Y10.0308 I0.0055 J-0.0112
G1 X-3.7198 Y10.0196
G1 X-3.7186 Y10.0171 Z-0.0022
G1 X-3.7174 Y10.0148 Z-0.0013
G1 X-3.7164 Y10.0126 Z0.0002
G1 X-3.7155 Y10.0109 Z0.0022
G1 X-3.7148 Y10.0095 Z0.0046
G1 X-3.7144 Y10.0087 Z0.0072
G1 X-3.7143 Y10.0084 Z0.01
G0 Z0.2625
G0 X-3.6919 Y10.0194
G1 Z0.0531 F30.
G1 Z-0.0063
G1 X-3.692 Y10.0197 Z-0.009 F6.1
G1 X-3.6924 Y10.0206 Z-0.0117
G1 X-3.6931 Y10.0219 Z-0.014
G1 X-3.6939 Y10.0237 Z-0.016
G1 X-3.695 Y10.0258 Z-0.0175
G1 X-3.6962 Y10.0282 Z-0.0184
G1 X-3.6974 Y10.0307 Z-0.0187
G1 X-3.7029 Y10.0419
G3 X-3.7101 Y10.0482 I-0.0112 J-0.0055
G3 X-3.7196 Y10.0476 I-0.004 J-0.0118
G2 X-3.7472 Y10.0412 I-0.0276 J0.0561
G1 X-6.2471
G1 Z0.0062
G1 X-6.4971
G1 Z-0.0187 F30.
G1 X-11.4968 F6.1
G1 Z0.0062
G1 X-11.7469
G1 Z-0.0187 F30.
G1 X-16.7466 F6.1
G1 Z0.0062
G1 X-16.9966
G1 Z-0.0187 F30.
G1 X-19.4965 F6.1
G2 X-19.5506 Y10.0724 I0 J0.0625
G1 X-19.6762 Y10.2899
G2 X-19.6845 Y10.3212 I0.0541 J0.0313
G1 Y13.0564
G2 X-19.6763 Y13.0874 I0.0625 J0
G1 X-18.8893 Y14.4654
G2 X-18.835 Y14.4969 I0.0543 J-0.031
G1 X-15.3536
G1 Z0.0062
G1 X-15.1036
G1 Z-0.0187 F30.
G1 X-8.1408 F6.1
G1 Z0.0062
G1 X-7.8908
G1 Z-0.0187 F30.
G1 X-4.4094 F6.1
G2 X-4.3552 Y14.4654 I0 J-0.0625
G1 X-3.5678 Y13.0874
G2 X-3.5595 Y13.0564 I-0.0543 J-0.031
G1 Y10.3205
G2 X-3.5679 Y10.2892 I-0.0625 J0
G1 X-3.6931 Y10.0724
G2 X-3.7196 Y10.0476 I-0.0541 J0.0312
G3 X-3.7253 Y10.0308 I0.0055 J-0.0112
G1 X-3.7198 Y10.0196
G1 X-3.7186 Y10.0171 Z-0.0184
G1 X-3.7174 Y10.0148 Z-0.0175
G1 X-3.7164 Y10.0126 Z-0.016
G1 X-3.7155 Y10.0109 Z-0.014
G1 X-3.7148 Y10.0095 Z-0.0117
G1 X-3.7144 Y10.0087 Z-0.009
G1 X-3.7143 Y10.0084 Z-0.0063
G0 Z0.2625
G0 X-3.6919 Y10.0194
G1 Z0.0369 F30.
G1 Z-0.0225
G1 X-3.692 Y10.0197 Z-0.0253 F6.1
G1 X-3.6924 Y10.0206 Z-0.0279
G1 X-3.6931 Y10.0219 Z-0.0303
G1 X-3.6939 Y10.0237 Z-0.0323
G1 X-3.695 Y10.0258 Z-0.0338
G1 X-3.6962 Y10.0282 Z-0.0347
G1 X-3.6974 Y10.0307 Z-0.035
G1 X-3.7029 Y10.0419
G3 X-3.7101 Y10.0482 I-0.0112 J-0.0055
G3 X-3.7196 Y10.0476 I-0.004 J-0.0118
G2 X-3.7472 Y10.0412 I-0.0276 J0.0561
G1 X-6.2471
G1 Z0.0062
G1 X-6.4971
G1 Z-0.035 F30.
G1 X-11.4968 F6.1
G1 Z0.0062
G1 X-11.7469
G1 Z-0.035 F30.
G1 X-16.7466 F6.1
G1 Z0.0062
G1 X-16.9966
G1 Z-0.035 F30.
G1 X-19.4965 F6.1
G2 X-19.5506 Y10.0724 I0 J0.0625
G1 X-19.6762 Y10.2899
G2 X-19.6845 Y10.3212 I0.0541 J0.0313
G1 Y13.0564
G2 X-19.6763 Y13.0874 I0.0625 J0
G1 X-18.8893 Y14.4654
G2 X-18.835 Y14.4969 I0.0543 J-0.031
G1 X-15.3536
G1 Z0.0062
G1 X-15.1036
G1 Z-0.035 F30.
G1 X-8.1408 F6.1
G1 Z0.0062
G1 X-7.8908
G1 Z-0.035 F30.
G1 X-4.4094 F6.1
G2 X-4.3552 Y14.4654 I0 J-0.0625
G1 X-3.5678 Y13.0874
G2 X-3.5595 Y13.0564 I-0.0543 J-0.031
G1 Y10.3205
G2 X-3.5679 Y10.2892 I-0.0625 J0
G1 X-3.6931 Y10.0724
G2 X-3.7196 Y10.0476 I-0.0541 J0.0312
G3 X-3.7253 Y10.0308 I0.0055 J-0.0112
G1 X-3.7198 Y10.0196
G1 X-3.7186 Y10.0171 Z-0.0347
G1 X-3.7174 Y10.0148 Z-0.0338
G1 X-3.7164 Y10.0126 Z-0.0323
G1 X-3.7155 Y10.0109 Z-0.0303
G1 X-3.7148 Y10.0095 Z-0.0279
G1 X-3.7144 Y10.0087 Z-0.0253
G1 X-3.7143 Y10.0084 Z-0.0225
G0 Z0.2625
G0 X-3.6919 Y10.0194
G1 Z0.0206 F30.
G1 Z-0.0388
G1 X-3.692 Y10.0197 Z-0.0415 F6.1
G1 X-3.6924 Y10.0206 Z-0.0442
G1 X-3.6931 Y10.0219 Z-0.0465
G1 X-3.6939 Y10.0237 Z-0.0485
G1 X-3.695 Y10.0258 Z-0.05
G1 X-3.6962 Y10.0282 Z-0.0509
G1 X-3.6974 Y10.0307 Z-0.0512
G1 X-3.7029 Y10.0419
G3 X-3.7101 Y10.0482 I-0.0112 J-0.0055
G3 X-3.7196 Y10.0476 I-0.004 J-0.0118
G2 X-3.7472 Y10.0412 I-0.0276 J0.0561
G1 X-6.2471
G1 Z0.0062
G1 X-6.4971
G1 Z-0.0512 F30.
G1 X-11.4968 F6.1
G1 Z0.0062
G1 X-11.7469
G1 Z-0.0512 F30.
G1 X-16.7466 F6.1
G1 Z0.0062
G1 X-16.9966
G1 Z-0.0512 F30.
G1 X-19.4965 F6.1
G2 X-19.5506 Y10.0724 I0 J0.0625
G1 X-19.6762 Y10.2899
G2 X-19.6845 Y10.3212 I0.0541 J0.0313
G1 Y13.0564
G2 X-19.6763 Y13.0874 I0.0625 J0
G1 X-18.8893 Y14.4654
G2 X-18.835 Y14.4969 I0.0543 J-0.031
G1 X-15.3536
G1 Z0.0062
G1 X-15.1036
G1 Z-0.0512 F30.
G1 X-8.1408 F6.1
G1 Z0.0062
G1 X-7.8908
G1 Z-0.0512 F30.
G1 X-4.4094 F6.1
G2 X-4.3552 Y14.4654 I0 J-0.0625
G1 X-3.5678 Y13.0874
G2 X-3.5595 Y13.0564 I-0.0543 J-0.031
G1 Y10.3205
G2 X-3.5679 Y10.2892 I-0.0625 J0
G1 X-3.6931 Y10.0724
G2 X-3.7196 Y10.0476 I-0.0541 J0.0312
G3 X-3.7253 Y10.0308 I0.0055 J-0.0112
G1 X-3.7198 Y10.0196
G1 X-3.7186 Y10.0171 Z-0.0509
G1 X-3.7174 Y10.0148 Z-0.05
G1 X-3.7164 Y10.0126 Z-0.0485
G1 X-3.7155 Y10.0109 Z-0.0465
G1 X-3.7148 Y10.0095 Z-0.0442
G1 X-3.7144 Y10.0087 Z-0.0415
G1 X-3.7143 Y10.0084 Z-0.0388
G0 Z0.2625
G0 X-3.6919 Y10.0194
G1 Z0.0044 F30.
G1 Z-0.055
G1 X-3.692 Y10.0197 Z-0.0578 F6.1
G1 X-3.6924 Y10.0206 Z-0.0604
G1 X-3.6931 Y10.0219 Z-0.0628
G1 X-3.6939 Y10.0237 Z-0.0648
G1 X-3.695 Y10.0258 Z-0.0663
G1 X-3.6962 Y10.0282 Z-0.0672
G1 X-3.6974 Y10.0307 Z-0.0675
G1 X-3.7029 Y10.0419
G3 X-3.7101 Y10.0482 I-0.0112 J-0.0055
G3 X-3.7196 Y10.0476 I-0.004 J-0.0118
G2 X-3.7472 Y10.0412 I-0.0276 J0.0561
G1 X-6.2471
G1 Z0.0062
G1 X-6.4971
G1 Z-0.0675 F30.
G1 X-11.4968 F6.1
G1 Z0.0062
G1 X-11.7469
G1 Z-0.0675 F30.
G1 X-16.7466 F6.1
G1 Z0.0062
G1 X-16.9966
G1 Z-0.0675 F30.
G1 X-19.4965 F6.1
G2 X-19.5506 Y10.0724 I0 J0.0625
G1 X-19.6762 Y10.2899
G2 X-19.6845 Y10.3212 I0.0541 J0.0313
G1 Y13.0564
G2 X-19.6763 Y13.0874 I0.0625 J0
G1 X-18.8893 Y14.4654
G2 X-18.835 Y14.4969 I0.0543 J-0.031
G1 X-15.3536
G1 Z0.0062
G1 X-15.1036
G1 Z-0.0675 F30.
G1 X-8.1408 F6.1
G1 Z0.0062
G1 X-7.8908
G1 Z-0.0675 F30.
G1 X-4.4094 F6.1
G2 X-4.3552 Y14.4654 I0 J-0.0625
G1 X-3.5678 Y13.0874
G2 X-3.5595 Y13.0564 I-0.0543 J-0.031
G1 Y10.3205
G2 X-3.5679 Y10.2892 I-0.0625 J0
G1 X-3.6931 Y10.0724
G2 X-3.7196 Y10.0476 I-0.0541 J0.0312
G3 X-3.7253 Y10.0308 I0.0055 J-0.0112
G1 X-3.7198 Y10.0196
G1 X-3.7186 Y10.0171 Z-0.0672
G1 X-3.7174 Y10.0148 Z-0.0663
G1 X-3.7164 Y10.0126 Z-0.0648
G1 X-3.7155 Y10.0109 Z-0.0628
G1 X-3.7148 Y10.0095 Z-0.0604
G1 X-3.7144 Y10.0087 Z-0.0578
G1 X-3.7143 Y10.0084 Z-0.055
G0 Z0.2625
G0 X-3.6919 Y10.0194
G1 Z-0.0119 F30.
G1 Z-0.0713
G1 X-3.692 Y10.0197 Z-0.074 F6.1
G1 X-3.6924 Y10.0206 Z-0.0767
G1 X-3.6931 Y10.0219 Z-0.079
G1 X-3.6939 Y10.0237 Z-0.081
G1 X-3.695 Y10.0258 Z-0.0825
G1 X-3.6962 Y10.0282 Z-0.0834
G1 X-3.6974 Y10.0307 Z-0.0837
G1 X-3.7029 Y10.0419
G3 X-3.7101 Y10.0482 I-0.0112 J-0.0055
G3 X-3.7196 Y10.0476 I-0.004 J-0.0118
G2 X-3.7472 Y10.0412 I-0.0276 J0.0561
G1 X-6.2471
G1 Z0.0062
G1 X-6.4971
G1 Z-0.0837 F30.
G1 X-11.4968 F6.1
G1 Z0.0062
G1 X-11.7469
G1 Z-0.0837 F30.
G1 X-16.7466 F6.1
G1 Z0.0062
G1 X-16.9966
G1 Z-0.0837 F30.
G1 X-19.4965 F6.1
G2 X-19.5506 Y10.0724 I0 J0.0625
G1 X-19.6762 Y10.2899
G2 X-19.6845 Y10.3212 I0.0541 J0.0313
G1 Y13.0564
G2 X-19.6763 Y13.0874 I0.0625 J0
G1 X-18.8893 Y14.4654
G2 X-18.835 Y14.4969 I0.0543 J-0.031
G1 X-15.3536
G1 Z0.0062
G1 X-15.1036
G1 Z-0.0837 F30.
G1 X-8.1408 F6.1
G1 Z0.0062
G1 X-7.8908
G1 Z-0.0837 F30.
G1 X-4.4094 F6.1
G2 X-4.3552 Y14.4654 I0 J-0.0625
G1 X-3.5678 Y13.0874
G2 X-3.5595 Y13.0564 I-0.0543 J-0.031
G1 Y10.3205
G2 X-3.5679 Y10.2892 I-0.0625 J0
G1 X-3.6931 Y10.0724
G2 X-3.7196 Y10.0476 I-0.0541 J0.0312
G3 X-3.7253 Y10.0308 I0.0055 J-0.0112
G1 X-3.7198 Y10.0196
G1 X-3.7186 Y10.0171 Z-0.0834
G1 X-3.7174 Y10.0148 Z-0.0825
G1 X-3.7164 Y10.0126 Z-0.081
G1 X-3.7155 Y10.0109 Z-0.079
G1 X-3.7148 Y10.0095 Z-0.0767
G1 X-3.7144 Y10.0087 Z-0.074
G1 X-3.7143 Y10.0084 Z-0.0713
G0 Z0.2625
G0 X-3.6919 Y10.0194
G1 Z-0.0281 F30.
G1 Z-0.0813
G1 X-3.692 Y10.0197 Z-0.084 F6.1
G1 X-3.6924 Y10.0206 Z-0.0867
G1 X-3.6931 Y10.0219 Z-0.089
G1 X-3.6939 Y10.0237 Z-0.091
G1 X-3.695 Y10.0258 Z-0.0925
G1 X-3.6962 Y10.0282 Z-0.0934
G1 X-3.6974 Y10.0307 Z-0.0937
G1 X-3.7029 Y10.0419
G3 X-3.7101 Y10.0482 I-0.0112 J-0.0055
G3 X-3.7196 Y10.0476 I-0.004 J-0.0118
G2 X-3.7472 Y10.0412 I-0.0276 J0.0561
G1 X-6.2471
G1 Z0.0062
G1 X-6.4971
G1 Z-0.0937 F30.
G1 X-11.4968 F6.1
G1 Z0.0062
G1 X-11.7469
G1 Z-0.0937 F30.
G1 X-16.7466 F6.1
G1 Z0.0062
G1 X-16.9966
G1 Z-0.0937 F30.
G1 X-19.4965 F6.1
G2 X-19.5506 Y10.0724 I0 J0.0625
G1 X-19.6762 Y10.2899
G2 X-19.6845 Y10.3212 I0.0541 J0.0313
G1 Y13.0564
G2 X-19.6763 Y13.0874 I0.0625 J0
G1 X-18.8893 Y14.4654
G2 X-18.835 Y14.4969 I0.0543 J-0.031
G1 X-15.3536
G1 Z0.0062
G1 X-15.1036
G1 Z-0.0937 F30.
G1 X-8.1408 F6.1
G1 Z0.0062
G1 X-7.8908
G1 Z-0.0937 F30.
G1 X-4.4094 F6.1
G2 X-4.3552 Y14.4654 I0 J-0.0625
G1 X-3.5678 Y13.0874
G2 X-3.5595 Y13.0564 I-0.0543 J-0.031
G1 Y10.3205
G2 X-3.5679 Y10.2892 I-0.0625 J0
G1 X-3.6931 Y10.0724
G2 X-3.7196 Y10.0476 I-0.0541 J0.0312
G3 X-3.7253 Y10.0308 I0.0055 J-0.0112
G1 X-3.7198 Y10.0196
G1 X-3.7186 Y10.0171 Z-0.0934
G1 X-3.7174 Y10.0148 Z-0.0925
G1 X-3.7164 Y10.0126 Z-0.091
G1 X-3.7155 Y10.0109 Z-0.089
G1 X-3.7148 Y10.0095 Z-0.0867
G1 X-3.7144 Y10.0087 Z-0.084
G1 X-3.7143 Y10.0084 Z-0.0813
G0 Z0.2625
G0 X-4.3259 Y9.5522
G1 Z0.1181 F30.
G1 Z0.0587
G1 X-4.3261 Y9.552 Z0.056 F6.1
G1 X-4.3269 Y9.5515 Z0.0533
G1 X-4.3282 Y9.5508 Z0.051
G1 X-4.33 Y9.5498 Z0.049
G1 X-4.332 Y9.5486 Z0.0475
G1 X-4.3343 Y9.5473 Z0.0466
G1 X-4.3367 Y9.546 Z0.0462
G1 X-4.3476 Y9.5398
G3 X-4.3534 Y9.5322 I0.0062 J-0.0109
G3 X-4.3522 Y9.5227 I0.0121 J-0.0033
G1 X-3.5648 Y8.1447
G2 X-3.5566 Y8.1137 I-0.0543 J-0.031
G1 Y5.6278
G2 X-3.5587 Y5.6116 I-0.0625 J0
G1 X-3.6839 Y5.1448
G2 X-3.7443 Y5.0985 I-0.0604 J0.0162
G1 X-19.4935
G2 X-19.5477 Y5.1297 I0 J0.0625
G1 X-19.6732 Y5.3473
G2 X-19.6816 Y5.3785 I0.0541 J0.0312
G1 Y8.1137
G2 X-19.6734 Y8.1447 I0.0625 J0
G1 X-18.8864 Y9.5227
G2 X-18.8321 Y9.5542 I0.0543 J-0.031
G1 X-4.4065
G2 X-4.3522 Y9.5227 I0 J-0.0625
G3 X-4.3352 Y9.5181 I0.0109 J0.0062
G1 X-4.3243 Y9.5243
G1 X-4.3219 Y9.5256 Z0.0466
G1 X-4.3196 Y9.5269 Z0.0475
G1 X-4.3176 Y9.5281 Z0.049
G1 X-4.3158 Y9.5291 Z0.051
G1 X-4.3145 Y9.5298 Z0.0533
G1 X-4.3137 Y9.5303 Z0.056
G1 X-4.3135 Y9.5305 Z0.0587
G0 Z0.2625
G0 X-4.3259 Y9.5522
G1 Z0.1019 F30.
G1 Z0.0425
G1 X-4.3261 Y9.552 Z0.0397 F6.1
G1 X-4.3269 Y9.5515 Z0.0371
G1 X-4.3282 Y9.5508 Z0.0347
G1 X-4.33 Y9.5498 Z0.0327
G1 X-4.332 Y9.5486 Z0.0312
G1 X-4.3343 Y9.5473 Z0.0303
G1 X-4.3367 Y9.546 Z0.03
G1 X-4.3476 Y9.5398
G3 X-4.3534 Y9.5322 I0.0062 J-0.0109
G3 X-4.3522 Y9.5227 I0.0121 J-0.0033
G1 X-3.5648 Y8.1447
G2 X-3.5566 Y8.1137 I-0.0543 J-0.031
G1 Y5.6278
G2 X-3.5587 Y5.6116 I-0.0625 J0
G1 X-3.6839 Y5.1448
G2 X-3.7443 Y5.0985 I-0.0604 J0.0162
G1 X-19.4935
G2 X-19.5477 Y5.1297 I0 J0.0625
G1 X-19.6732 Y5.3473
G2 X-19.6816 Y5.3785 I0.0541 J0.0312
G1 Y8.1137
G2 X-19.6734 Y8.1447 I0.0625 J0
G1 X-18.8864 Y9.5227
G2 X-18.8321 Y9.5542 I0.0543 J-0.031
G1 X-4.4065
G2 X-4.3522 Y9.5227 I0 J-0.0625
G3 X-4.3352 Y9.5181 I0.0109 J0.0062
G1 X-4.3243 Y9.5243
G1 X-4.3219 Y9.5256 Z0.0303
G1 X-4.3196 Y9.5269 Z0.0312
G1 X-4.3176 Y9.5281 Z0.0327
G1 X-4.3158 Y9.5291 Z0.0347
G1 X-4.3145 Y9.5298 Z0.0371
G1 X-4.3137 Y9.5303 Z0.0397
G1 X-4.3135 Y9.5305 Z0.0425
G0 Z0.2625
G0 X-4.3259 Y9.5522
G1 Z0.0856 F30.
G1 Z0.0262
G1 X-4.3261 Y9.552 Z0.0235 F6.1
G1 X-4.3269 Y9.5515 Z0.0208
G1 X-4.3282 Y9.5508 Z0.0185
G1 X-4.33 Y9.5498 Z0.0165
G1 X-4.332 Y9.5486 Z0.015
G1 X-4.3343 Y9.5473 Z0.0141
G1 X-4.3367 Y9.546 Z0.0137
G1 X-4.3476 Y9.5398
G3 X-4.3534 Y9.5322 I0.0062 J-0.0109
G3 X-4.3522 Y9.5227 I0.0121 J-0.0033
G1 X-3.5648 Y8.1447
G2 X-3.5566 Y8.1137 I-0.0543 J-0.031
G1 Y5.6278
G2 X-3.5587 Y5.6116 I-0.0625 J0
G1 X-3.6839 Y5.1448
G2 X-3.7443 Y5.0985 I-0.0604 J0.0162
G1 X-19.4935
G2 X-19.5477 Y5.1297 I0 J0.0625
G1 X-19.6732 Y5.3473
G2 X-19.6816 Y5.3785 I0.0541 J0.0312
G1 Y8.1137
G2 X-19.6734 Y8.1447 I0.0625 J0
G1 X-18.8864 Y9.5227
G2 X-18.8321 Y9.5542 I0.0543 J-0.031
G1 X-4.4065
G2 X-4.3522 Y9.5227 I0 J-0.0625
G3 X-4.3352 Y9.5181 I0.0109 J0.0062
G1 X-4.3243 Y9.5243
G1 X-4.3219 Y9.5256 Z0.0141
G1 X-4.3196 Y9.5269 Z0.015
G1 X-4.3176 Y9.5281 Z0.0165
G1 X-4.3158 Y9.5291 Z0.0185
G1 X-4.3145 Y9.5298 Z0.0208
G1 X-4.3137 Y9.5303 Z0.0235
G1 X-4.3135 Y9.5305 Z0.0262
G0 Z0.2625
G0 X-4.3259 Y9.5522
G1 Z0.0694 F30.
G1 Z0.01
G1 X-4.3261 Y9.552 Z0.0072 F6.1
G1 X-4.3269 Y9.5515 Z0.0046
G1 X-4.3282 Y9.5508 Z0.0022
G1 X-4.33 Y9.5498 Z0.0002
G1 X-4.332 Y9.5486 Z-0.0013
G1 X-4.3343 Y9.5473 Z-0.0022
G1 X-4.3367 Y9.546 Z-0.0025
G1 X-4.3476 Y9.5398
G3 X-4.3534 Y9.5322 I0.0062 J-0.0109
G3 X-4.3522 Y9.5227 I0.0121 J-0.0033
G1 X-3.5648 Y8.1447
G2 X-3.5566 Y8.1137 I-0.0543 J-0.031
G1 Y5.6278
G2 X-3.5587 Y5.6116 I-0.0625 J0
G1 X-3.6839 Y5.1448
G2 X-3.7443 Y5.0985 I-0.0604 J0.0162
G1 X-6.2441
G1 Z0.0062
G1 X-6.4941
G1 Z-0.0025 F30.
G1 X-11.4939 F6.1
G1 Z0.0062
G1 X-11.7439
G1 Z-0.0025 F30.
G1 X-16.7437 F6.1
G1 Z0.0062
G1 X-16.9937
G1 Z-0.0025 F30.
G1 X-19.4935 F6.1
G2 X-19.5477 Y5.1297 I0 J0.0625
G1 X-19.6732 Y5.3473
G2 X-19.6816 Y5.3785 I0.0541 J0.0312
G1 Y8.1137
G2 X-19.6734 Y8.1447 I0.0625 J0
G1 X-18.8864 Y9.5227
G2 X-18.8321 Y9.5542 I0.0543 J-0.031
G1 X-15.3507
G1 Z0.0062
G1 X-15.1007
G1 Z-0.0025 F30.
G1 X-8.1379 F6.1
G1 Z0.0062
G1 X-7.8879
G1 Z-0.0025 F30.
G1 X-4.4065 F6.1
G2 X-4.3522 Y9.5227 I0 J-0.0625
G3 X-4.3352 Y9.5181 I0.0109 J0.0062
G1 X-4.3243 Y9.5243
G1 X-4.3219 Y9.5256 Z-0.0022
G1 X-4.3196 Y9.5269 Z-0.0013
G1 X-4.3176 Y9.5281 Z0.0002
G1 X-4.3158 Y9.5291 Z0.0022
G1 X-4.3145 Y9.5298 Z0.0046
G1 X-4.3137 Y9.5303 Z0.0072
G1 X-4.3135 Y9.5305 Z0.01
G0 Z0.2625
G0 X-4.3259 Y9.5522
G1 Z0.0531 F30.
G1 Z-0.0063
G1 X-4.3261 Y9.552 Z-0.009 F6.1
G1 X-4.3269 Y9.5515 Z-0.0117
G1 X-4.3282 Y9.5508 Z-0.014
G1 X-4.33 Y9.5498 Z-0.016
G1 X-4.332 Y9.5486 Z-0.0175
G1 X-4.3343 Y9.5473 Z-0.0184
G1 X-4.3367 Y9.546 Z-0.0187
G1 X-4.3476 Y9.5398
G3 X-4.3534 Y9.5322 I0.0062 J-0.0109
G3 X-4.3522 Y9.5227 I0.0121 J-0.0033
G1 X-3.5648 Y8.1447
G2 X-3.5566 Y8.1137 I-0.0543 J-0.031
G1 Y5.6278
G2 X-3.5587 Y5.6116 I-0.0625 J0
G1 X-3.6839 Y5.1448
G2 X-3.7443 Y5.0985 I-0.0604 J0.0162
G1 X-6.2441
G1 Z0.0062
G1 X-6.4941
G1 Z-0.0187 F30.
G1 X-11.4939 F6.1
G1 Z0.0062
G1 X-11.7439
G1 Z-0.0187 F30.
G1 X-16.7437 F6.1
G1 Z0.0062
G1 X-16.9937
G1 Z-0.0187 F30.
G1 X-19.4935 F6.1
G2 X-19.5477 Y5.1297 I0 J0.0625
G1 X-19.6732 Y5.3473
G2 X-19.6816 Y5.3785 I0.0541 J0.0312
G1 Y8.1137
G2 X-19.6734 Y8.1447 I0.0625 J0
G1 X-18.8864 Y9.5227
G2 X-18.8321 Y9.5542 I0.0543 J-0.031
G1 X-15.3507
G1 Z0.0062
G1 X-15.1007
G1 Z-0.0187 F30.
G1 X-8.1379 F6.1
G1 Z0.0062
G1 X-7.8879
G1 Z-0.0187 F30.
G1 X-4.4065 F6.1
G2 X-4.3522 Y9.5227 I0 J-0.0625
G3 X-4.3352 Y9.5181 I0.0109 J0.0062
G1 X-4.3243 Y9.5243
G1 X-4.3219 Y9.5256 Z-0.0184
G1 X-4.3196 Y9.5269 Z-0.0175
G1 X-4.3176 Y9.5281 Z-0.016
G1 X-4.3158 Y9.5291 Z-0.014
G1 X-4.3145 Y9.5298 Z-0.0117
G1 X-4.3137 Y9.5303 Z-0.009
G1 X-4.3135 Y9.5305 Z-0.0063
G0 Z0.2625
G0 X-4.3259 Y9.5522
G1 Z0.0369 F30.
G1 Z-0.0225
G1 X-4.3261 Y9.552 Z-0.0253 F6.1
G1 X-4.3269 Y9.5515 Z-0.0279
G1 X-4.3282 Y9.5508 Z-0.0303
G1 X-4.33 Y9.5498 Z-0.0323
G1 X-4.332 Y9.5486 Z-0.0338
G1 X-4.3343 Y9.5473 Z-0.0347
G1 X-4.3367 Y9.546 Z-0.035
G1 X-4.3476 Y9.5398
G3 X-4.3534 Y9.5322 I0.0062 J-0.0109
G3 X-4.3522 Y9.5227 I0.0121 J-0.0033
G1 X-3.5648 Y8.1447
G2 X-3.5566 Y8.1137 I-0.0543 J-0.031
G1 Y5.6278
G2 X-3.5587 Y5.6116 I-0.0625 J0
G1 X-3.6839 Y5.1448
G2 X-3.7443 Y5.0985 I-0.0604 J0.0162
G1 X-6.2441
G1 Z0.0062
G1 X-6.4941
G1 Z-0.035 F30.
G1 X-11.4939 F6.1
G1 Z0.0062
G1 X-11.7439
G1 Z-0.035 F30.
G1 X-16.7437 F6.1
G1 Z0.0062
G1 X-16.9937
G1 Z-0.035 F30.
G1 X-19.4935 F6.1
G2 X-19.5477 Y5.1297 I0 J0.0625
G1 X-19.6732 Y5.3473
G2 X-19.6816 Y5.3785 I0.0541 J0.0312
G1 Y8.1137
G2 X-19.6734 Y8.1447 I0.0625 J0
G1 X-18.8864 Y9.5227
G2 X-18.8321 Y9.5542 I0.0543 J-0.031
G1 X-15.3507
G1 Z0.0062
G1 X-15.1007
G1 Z-0.035 F30.
G1 X-8.1379 F6.1
G1 Z0.0062
G1 X-7.8879
G1 Z-0.035 F30.
G1 X-4.4065 F6.1
G2 X-4.3522 Y9.5227 I0 J-0.0625
G3 X-4.3352 Y9.5181 I0.0109 J0.0062
G1 X-4.3243 Y9.5243
G1 X-4.3219 Y9.5256 Z-0.0347
G1 X-4.3196 Y9.5269 Z-0.0338
G1 X-4.3176 Y9.5281 Z-0.0323
G1 X-4.3158 Y9.5291 Z-0.0303
G1 X-4.3145 Y9.5298 Z-0.0279
G1 X-4.3137 Y9.5303 Z-0.0253
G1 X-4.3135 Y9.5305 Z-0.0225
G0 Z0.2625
G0 X-4.3259 Y9.5522
G1 Z0.0206 F30.
G1 Z-0.0388
G1 X-4.3261 Y9.552 Z-0.0415 F6.1
G1 X-4.3269 Y9.5515 Z-0.0442
G1 X-4.3282 Y9.5508 Z-0.0465
G1 X-4.33 Y9.5498 Z-0.0485
G1 X-4.332 Y9.5486 Z-0.05
G1 X-4.3343 Y9.5473 Z-0.0509
G1 X-4.3367 Y9.546 Z-0.0512
G1 X-4.3476 Y9.5398
G3 X-4.3534 Y9.5322 I0.0062 J-0.0109
G3 X-4.3522 Y9.5227 I0.0121 J-0.0033
G1 X-3.5648 Y8.1447
G2 X-3.5566 Y8.1137 I-0.0543 J-0.031
G1 Y5.6278
G2 X-3.5587 Y5.6116 I-0.0625 J0
G1 X-3.6839 Y5.1448
G2 X-3.7443 Y5.0985 I-0.0604 J0.0162
G1 X-6.2441
G1 Z0.0062
G1 X-6.4941
G1 Z-0.0512 F30.
G1 X-11.4939 F6.1
G1 Z0.0062
G1 X-11.7439
G1 Z-0.0512 F30.
G1 X-16.7437 F6.1
G1 Z0.0062
G1 X-16.9937
G1 Z-0.0512 F30.
G1 X-19.4935 F6.1
G2 X-19.5477 Y5.1297 I0 J0.0625
G1 X-19.6732 Y5.3473
G2 X-19.6816 Y5.3785 I0.0541 J0.0312
G1 Y8.1137
G2 X-19.6734 Y8.1447 I0.0625 J0
G1 X-18.8864 Y9.5227
G2 X-18.8321 Y9.5542 I0.0543 J-0.031
G1 X-15.3507
G1 Z0.0062
G1 X-15.1007
G1 Z-0.0512 F30.
G1 X-8.1379 F6.1
G1 Z0.0062
G1 X-7.8879
G1 Z-0.0512 F30.
G1 X-4.4065 F6.1
G2 X-4.3522 Y9.5227 I0 J-0.0625
G3 X-4.3352 Y9.5181 I0.0109 J0.0062
G1 X-4.3243 Y9.5243
G1 X-4.3219 Y9.5256 Z-0.0509
G1 X-4.3196 Y9.5269 Z-0.05
G1 X-4.3176 Y9.5281 Z-0.0485
G1 X-4.3158 Y9.5291 Z-0.0465
G1 X-4.3145 Y9.5298 Z-0.0442
G1 X-4.3137 Y9.5303 Z-0.0415
G1 X-4.3135 Y9.5305 Z-0.0388
G0 Z0.2625
G0 X-4.3259 Y9.5522
G1 Z0.0044 F30.
G1 Z-0.055
G1 X-4.3261 Y9.552 Z-0.0578 F6.1
G1 X-4.3269 Y9.5515 Z-0.0604
G1 X-4.3282 Y9.5508 Z-0.0628
G1 X-4.33 Y9.5498 Z-0.0648
G1 X-4.332 Y9.5486 Z-0.0663
G1 X-4.3343 Y9.5473 Z-0.0672
G1 X-4.3367 Y9.546 Z-0.0675
G1 X-4.3476 Y9.5398
G3 X-4.3534 Y9.5322 I0.0062 J-0.0109
G3 X-4.3522 Y9.5227 I0.0121 J-0.0033
G1 X-3.5648 Y8.1447
G2 X-3.5566 Y8.1137 I-0.0543 J-0.031
G1 Y5.6278
G2 X-3.5587 Y5.6116 I-0.0625 J0
G1 X-3.6839 Y5.1448
G2 X-3.7443 Y5.0985 I-0.0604 J0.0162
G1 X-6.2441
G1 Z0.0062
G1 X-6.4941
G1 Z-0.0675 F30.
G1 X-11.4939 F6.1
G1 Z0.0062
G1 X-11.7439
G1 Z-0.0675 F30.
G1 X-16.7437 F6.1
G1 Z0.0062
G1 X-16.9937
G1 Z-0.0675 F30.
G1 X-19.4935 F6.1
G2 X-19.5477 Y5.1297 I0 J0.0625
G1 X-19.6732 Y5.3473
G2 X-19.6816 Y5.3785 I0.0541 J0.0312
G1 Y8.1137
G2 X-19.6734 Y8.1447 I0.0625 J0
G1 X-18.8864 Y9.5227
G2 X-18.8321 Y9.5542 I0.0543 J-0.031
G1 X-15.3507
G1 Z0.0062
G1 X-15.1007
G1 Z-0.0675 F30.
G1 X-8.1379 F6.1
G1 Z0.0062
G1 X-7.8879
G1 Z-0.0675 F30.
G1 X-4.4065 F6.1
G2 X-4.3522 Y9.5227 I0 J-0.0625
G3 X-4.3352 Y9.5181 I0.0109 J0.0062
G1 X-4.3243 Y9.5243
G1 X-4.3219 Y9.5256 Z-0.0672
G1 X-4.3196 Y9.5269 Z-0.0663
G1 X-4.3176 Y9.5281 Z-0.0648
G1 X-4.3158 Y9.5291 Z-0.0628
G1 X-4.3145 Y9.5298 Z-0.0604
G1 X-4.3137 Y9.5303 Z-0.0578
G1 X-4.3135 Y9.5305 Z-0.055
G0 Z0.2625
G0 X-4.3259 Y9.5522
G1 Z-0.0119 F30.
G1 Z-0.0713
G1 X-4.3261 Y9.552 Z-0.074 F6.1
G1 X-4.3269 Y9.5515 Z-0.0767
G1 X-4.3282 Y9.5508 Z-0.079
G1 X-4.33 Y9.5498 Z-0.081
G1 X-4.332 Y9.5486 Z-0.0825
G1 X-4.3343 Y9.5473 Z-0.0834
G1 X-4.3367 Y9.546 Z-0.0837
G1 X-4.3476 Y9.5398
G3 X-4.3534 Y9.5322 I0.0062 J-0.0109
G3 X-4.3522 Y9.5227 I0.0121 J-0.0033
G1 X-3.5648 Y8.1447
G2 X-3.5566 Y8.1137 I-0.0543 J-0.031
G1 Y5.6278
G2 X-3.5587 Y5.6116 I-0.0625 J0
G1 X-3.6839 Y5.1448
G2 X-3.7443 Y5.0985 I-0.0604 J0.0162
G1 X-6.2441
G1 Z0.0062
G1 X-6.4941
G1 Z-0.0837 F30.
G1 X-11.4939 F6.1
G1 Z0.0062
G1 X-11.7439
G1 Z-0.0837 F30.
G1 X-16.7437 F6.1
G1 Z0.0062
G1 X-16.9937
G1 Z-0.0837 F30.
G1 X-19.4935 F6.1
G2 X-19.5477 Y5.1297 I0 J0.0625
G1 X-19.6732 Y5.3473
G2 X-19.6816 Y5.3785 I0.0541 J0.0312
G1 Y8.1137
G2 X-19.6734 Y8.1447 I0.0625 J0
G1 X-18.8864 Y9.5227
G2 X-18.8321 Y9.5542 I0.0543 J-0.031
G1 X-15.3507
G1 Z0.0062
G1 X-15.1007
G1 Z-0.0837 F30.
G1 X-8.1379 F6.1
G1 Z0.0062
G1 X-7.8879
G1 Z-0.0837 F30.
G1 X-4.4065 F6.1
G2 X-4.3522 Y9.5227 I0 J-0.0625
G3 X-4.3352 Y9.5181 I0.0109 J0.0062
G1 X-4.3243 Y9.5243
G1 X-4.3219 Y9.5256 Z-0.0834
G1 X-4.3196 Y9.5269 Z-0.0825
G1 X-4.3176 Y9.5281 Z-0.081
G1 X-4.3158 Y9.5291 Z-0.079
G1 X-4.3145 Y9.5298 Z-0.0767
G1 X-4.3137 Y9.5303 Z-0.074
G1 X-4.3135 Y9.5305 Z-0.0713
G0 Z0.2625
G0 X-4.3259 Y9.5522
G1 Z-0.0281 F30.
G1 Z-0.0813
G1 X-4.3261 Y9.552 Z-0.084 F6.1
G1 X-4.3269 Y9.5515 Z-0.0867
G1 X-4.3282 Y9.5508 Z-0.089
G1 X-4.33 Y9.5498 Z-0.091
G1 X-4.332 Y9.5486 Z-0.0925
G1 X-4.3343 Y9.5473 Z-0.0934
G1 X-4.3367 Y9.546 Z-0.0937
G1 X-4.3476 Y9.5398
G3 X-4.3534 Y9.5322 I0.0062 J-0.0109
G3 X-4.3522 Y9.5227 I0.0121 J-0.0033
G1 X-3.5648 Y8.1447
G2 X-3.5566 Y8.1137 I-0.0543 J-0.031
G1 Y5.6278
G2 X-3.5587 Y5.6116 I-0.0625 J0
G1 X-3.6839 Y5.1448
G2 X-3.7443 Y5.0985 I-0.0604 J0.0162
G1 X-6.2441
G1 Z0.0062
G1 X-6.4941
G1 Z-0.0937 F30.
G1 X-11.4939 F6.1
G1 Z0.0062
G1 X-11.7439
G1 Z-0.0937 F30.
G1 X-16.7437 F6.1
G1 Z0.0062
G1 X-16.9937
G1 Z-0.0937 F30.
G1 X-19.4935 F6.1
G2 X-19.5477 Y5.1297 I0 J0.0625
G1 X-19.6732 Y5.3473
G2 X-19.6816 Y5.3785 I0.0541 J0.0312
G1 Y8.1137
G2 X-19.6734 Y8.1447 I0.0625 J0
G1 X-18.8864 Y9.5227
G2 X-18.8321 Y9.5542 I0.0543 J-0.031
G1 X-15.3507
G1 Z0.0062
G1 X-15.1007
G1 Z-0.0937 F30.
G1 X-8.1379 F6.1
G1 Z0.0062
G1 X-7.8879
G1 Z-0.0937 F30.
G1 X-4.4065 F6.1
G2 X-4.3522 Y9.5227 I0 J-0.0625
G3 X-4.3352 Y9.5181 I0.0109 J0.0062
G1 X-4.3243 Y9.5243
G1 X-4.3219 Y9.5256 Z-0.0934
G1 X-4.3196 Y9.5269 Z-0.0925
G1 X-4.3176 Y9.5281 Z-0.091
G1 X-4.3158 Y9.5291 Z-0.089
G1 X-4.3145 Y9.5298 Z-0.0867
G1 X-4.3137 Y9.5303 Z-0.084
G1 X-4.3135 Y9.5305 Z-0.0813
G0 Z0.2625
G0 X-2.091 Y10.1645
G1 Z0.1181 F30.
G1 Z0.0587
G1 X-2.0907 Y10.1644 Z0.056 F6.1
G1 X-2.0899 Y10.1639 Z0.0533
G1 X-2.0886 Y10.1632 Z0.051
G1 X-2.0869 Y10.1622 Z0.049
G1 X-2.0849 Y10.161 Z0.0475
G1 X-2.0826 Y10.1597 Z0.0466
G1 X-2.0801 Y10.1583 Z0.0462
G1 X-2.0693 Y10.1521
G3 X-2.0598 Y10.1509 I0.0062 J0.0109
G3 X-2.0522 Y10.1568 I-0.0033 J0.0121
G2 X-1.998 Y10.1883 I0.0543 J-0.031
G1 X12.4276
G2 X12.4819 Y10.1568 I0 J-0.0625
G1 X13.2693 Y8.7788
G2 X13.2775 Y8.7478 I-0.0543 J-0.031
G1 Y6.0119
G2 X13.2692 Y5.9806 I-0.0625 J0
G1 X13.144 Y5.7638
G2 X13.0898 Y5.7326 I-0.0541 J0.0313
G1 X-2.6594
G2 X-2.7135 Y5.7638 I0 J0.0625
G1 X-2.8391 Y5.9813
G2 X-2.8475 Y6.0126 I0.0541 J0.0313
G1 Y8.7478
G2 X-2.8392 Y8.7788 I0.0625 J0
G1 X-2.0522 Y10.1568
G3 X-2.0569 Y10.1738 I-0.0109 J0.0062
G1 X-2.0677 Y10.18
G1 X-2.0702 Y10.1814 Z0.0466
G1 X-2.0725 Y10.1827 Z0.0475
G1 X-2.0745 Y10.1839 Z0.049
G1 X-2.0762 Y10.1849 Z0.051
G1 X-2.0775 Y10.1856 Z0.0533
G1 X-2.0783 Y10.1861 Z0.056
G1 X-2.0786 Y10.1862 Z0.0587
G0 Z0.2625
G0 X-2.091 Y10.1645
G1 Z0.1019 F30.
G1 Z0.0425
G1 X-2.0907 Y10.1644 Z0.0397 F6.1
G1 X-2.0899 Y10.1639 Z0.0371
G1 X-2.0886 Y10.1632 Z0.0347
G1 X-2.0869 Y10.1622 Z0.0327
G1 X-2.0849 Y10.161 Z0.0312
G1 X-2.0826 Y10.1597 Z0.0303
G1 X-2.0801 Y10.1583 Z0.03
G1 X-2.0693 Y10.1521
G3 X-2.0598 Y10.1509 I0.0062 J0.0109
G3 X-2.0522 Y10.1568 I-0.0033 J0.0121
G2 X-1.998 Y10.1883 I0.0543 J-0.031
G1 X12.4276
G2 X12.4819 Y10.1568 I0 J-0.0625
G1 X13.2693 Y8.7788
G2 X13.2775 Y8.7478 I-0.0543 J-0.031
G1 Y6.0119
G2 X13.2692 Y5.9806 I-0.0625 J0
G1 X13.144 Y5.7638
G2 X13.0898 Y5.7326 I-0.0541 J0.0313
G1 X-2.6594
G2 X-2.7135 Y5.7638 I0 J0.0625
G1 X-2.8391 Y5.9813
G2 X-2.8475 Y6.0126 I0.0541 J0.0313
G1 Y8.7478
G2 X-2.8392 Y8.7788 I0.0625 J0
G1 X-2.0522 Y10.1568
G3 X-2.0569 Y10.1738 I-0.0109 J0.0062
G1 X-2.0677 Y10.18
G1 X-2.0702 Y10.1814 Z0.0303
G1 X-2.0725 Y10.1827 Z0.0312
G1 X-2.0745 Y10.1839 Z0.0327
G1 X-2.0762 Y10.1849 Z0.0347
G1 X-2.0775 Y10.1856 Z0.0371
G1 X-2.0783 Y10.1861 Z0.0397
G1 X-2.0786 Y10.1862 Z0.0425
G0 Z0.2625
G0 X-2.091 Y10.1645
G1 Z0.0856 F30.
G1 Z0.0262
G1 X-2.0907 Y10.1644 Z0.0235 F6.1
G1 X-2.0899 Y10.1639 Z0.0208
G1 X-2.0886 Y10.1632 Z0.0185
G1 X-2.0869 Y10.1622 Z0.0165
G1 X-2.0849 Y10.161 Z0.015
G1 X-2.0826 Y10.1597 Z0.0141
G1 X-2.0801 Y10.1583 Z0.0137
G1 X-2.0693 Y10.1521
G3 X-2.0598 Y10.1509 I0.0062 J0.0109
G3 X-2.0522 Y10.1568 I-0.0033 J0.0121
G2 X-1.998 Y10.1883 I0.0543 J-0.031
G1 X12.4276
G2 X12.4819 Y10.1568 I0 J-0.0625
G1 X13.2693 Y8.7788
G2 X13.2775 Y8.7478 I-0.0543 J-0.031
G1 Y6.0119
G2 X13.2692 Y5.9806 I-0.0625 J0
G1 X13.144 Y5.7638
G2 X13.0898 Y5.7326 I-0.0541 J0.0313
G1 X-2.6594
G2 X-2.7135 Y5.7638 I0 J0.0625
G1 X-2.8391 Y5.9813
G2 X-2.8475 Y6.0126 I0.0541 J0.0313
G1 Y8.7478
G2 X-2.8392 Y8.7788 I0.0625 J0
G1 X-2.0522 Y10.1568
G3 X-2.0569 Y10.1738 I-0.0109 J0.0062
G1 X-2.0677 Y10.18
G1 X-2.0702 Y10.1814 Z0.0141
G1 X-2.0725 Y10.1827 Z0.015
G1 X-2.0745 Y10.1839 Z0.0165
G1 X-2.0762 Y10.1849 Z0.0185
G1 X-2.0775 Y10.1856 Z0.0208
G1 X-2.0783 Y10.1861 Z0.0235
G1 X-2.0786 Y10.1862 Z0.0262
G0 Z0.2625
G0 X-2.091 Y10.1645
G1 Z0.0694 F30.
G1 Z0.01
G1 X-2.0907 Y10.1644 Z0.0072 F6.1
G1 X-2.0899 Y10.1639 Z0.0046
G1 X-2.0886 Y10.1632 Z0.0022
G1 X-2.0869 Y10.1622 Z0.0002
G1 X-2.0849 Y10.161 Z-0.0013
G1 X-2.0826 Y10.1597 Z-0.0022
G1 X-2.0801 Y10.1583 Z-0.0025
G1 X-2.0693 Y10.1521
G3 X-2.0598 Y10.1509 I0.0062 J0.0109
G3 X-2.0522 Y10.1568 I-0.0033 J0.0121
G2 X-1.998 Y10.1883 I0.0543 J-0.031
G1 X1.4834
G1 Z0.0062
G1 X1.7334
G1 Z-0.0025 F30.
G1 X8.6962 F6.1
G1 Z0.0062
G1 X8.9462
G1 Z-0.0025 F30.
G1 X12.4276 F6.1
G2 X12.4819 Y10.1568 I0 J-0.0625
G1 X13.2693 Y8.7788
G2 X13.2775 Y8.7478 I-0.0543 J-0.031
G1 Y6.0119
G2 X13.2692 Y5.9806 I-0.0625 J0
G1 X13.144 Y5.7638
G2 X13.0898 Y5.7326 I-0.0541 J0.0313
G1 X10.59
G1 Z0.0062
G1 X10.34
G1 Z-0.0025 F30.
G1 X5.3402 F6.1
G1 Z0.0062
G1 X5.0902
G1 Z-0.0025 F30.
G1 X0.0905 F6.1
G1 Z0.0062
G1 X-0.1595
G1 Z-0.0025 F30.
G1 X-2.6594 F6.1
G2 X-2.7135 Y5.7638 I0 J0.0625
G1 X-2.8391 Y5.9813
G2 X-2.8475 Y6.0126 I0.0541 J0.0313
G1 Y8.7478
G2 X-2.8392 Y8.7788 I0.0625 J0
G1 X-2.0522 Y10.1568
G3 X-2.0569 Y10.1738 I-0.0109 J0.0062
G1 X-2.0677 Y10.18
G1 X-2.0702 Y10.1814 Z-0.0022
G1 X-2.0725 Y10.1827 Z-0.0013
G1 X-2.0745 Y10.1839 Z0.0002
G1 X-2.0762 Y10.1849 Z0.0022
G1 X-2.0775 Y10.1856 Z0.0046
G1 X-2.0783 Y10.1861 Z0.0072
G1 X-2.0786 Y10.1862 Z0.01
G0 Z0.2625
G0 X-2.091 Y10.1645
G1 Z0.0531 F30.
G1 Z-0.0063
G1 X-2.0907 Y10.1644 Z-0.009 F6.1
G1 X-2.0899 Y10.1639 Z-0.0117
G1 X-2.0886 Y10.1632 Z-0.014
G1 X-2.0869 Y10.1622 Z-0.016
G1 X-2.0849 Y10.161 Z-0.0175
G1 X-2.0826 Y10.1597 Z-0.0184
G1 X-2.0801 Y10.1583 Z-0.0187
G1 X-2.0693 Y10.1521
G3 X-2.0598 Y10.1509 I0.0062 J0.0109
G3 X-2.0522 Y10.1568 I-0.0033 J0.0121
G2 X-1.998 Y10.1883 I0.0543 J-0.031
G1 X1.4834
G1 Z0.0062
G1 X1.7334
G1 Z-0.0187 F30.
G1 X8.6962 F6.1
G1 Z0.0062
G1 X8.9462
G1 Z-0.0187 F30.
G1 X12.4276 F6.1
G2 X12.4819 Y10.1568 I0 J-0.0625
G1 X13.2693 Y8.7788
G2 X13.2775 Y8.7478 I-0.0543 J-0.031
G1 Y6.0119
G2 X13.2692 Y5.9806 I-0.0625 J0
G1 X13.144 Y5.7638
G2 X13.0898 Y5.7326 I-0.0541 J0.0313
G1 X10.59
G1 Z0.0062
G1 X10.34
G1 Z-0.0187 F30.
G1 X5.3402 F6.1
G1 Z0.0062
G1 X5.0902
G1 Z-0.0187 F30.
G1 X0.0905 F6.1
G1 Z0.0062
G1 X-0.1595
G1 Z-0.0187 F30.
G1 X-2.6594 F6.1
G2 X-2.7135 Y5.7638 I0 J0.0625
G1 X-2.8391 Y5.9813
G2 X-2.8475 Y6.0126 I0.0541 J0.0313
G1 Y8.7478
G2 X-2.8392 Y8.7788 I0.0625 J0
G1 X-2.0522 Y10.1568
G3 X-2.0569 Y10.1738 I-0.0109 J0.0062
G1 X-2.0677 Y10.18
G1 X-2.0702 Y10.1814 Z-0.0184
G1 X-2.0725 Y10.1827 Z-0.0175
G1 X-2.0745 Y10.1839 Z-0.016
G1 X-2.0762 Y10.1849 Z-0.014
G1 X-2.0775 Y10.1856 Z-0.0117
G1 X-2.0783 Y10.1861 Z-0.009
G1 X-2.0786 Y10.1862 Z-0.0063
G0 Z0.2625
G0 X-2.091 Y10.1645
G1 Z0.0369 F30.
G1 Z-0.0225
G1 X-2.0907 Y10.1644 Z-0.0253 F6.1
G1 X-2.0899 Y10.1639 Z-0.0279
G1 X-2.0886 Y10.1632 Z-0.0303
G1 X-2.0869 Y10.1622 Z-0.0323
G1 X-2.0849 Y10.161 Z-0.0338
G1 X-2.0826 Y10.1597 Z-0.0347
G1 X-2.0801 Y10.1583 Z-0.035
G1 X-2.0693 Y10.1521
G3 X-2.0598 Y10.1509 I0.0062 J0.0109
G3 X-2.0522 Y10.1568 I-0.0033 J0.0121
G2 X-1.998 Y10.1883 I0.0543 J-0.031
G1 X1.4834
G1 Z0.0062
G1 X1.7334
G1 Z-0.035 F30.
G1 X8.6962 F6.1
G1 Z0.0062
G1 X8.9462
G1 Z-0.035 F30.
G1 X12.4276 F6.1
G2 X12.4819 Y10.1568 I0 J-0.0625
G1 X13.2693 Y8.7788
G2 X13.2775 Y8.7478 I-0.0543 J-0.031
G1 Y6.0119
G2 X13.2692 Y5.9806 I-0.0625 J0
G1 X13.144 Y5.7638
G2 X13.0898 Y5.7326 I-0.0541 J0.0313
G1 X10.59
G1 Z0.0062
G1 X10.34
G1 Z-0.035 F30.
G1 X5.3402 F6.1
G1 Z0.0062
G1 X5.0902
G1 Z-0.035 F30.
G1 X0.0905 F6.1
G1 Z0.0062
G1 X-0.1595
G1 Z-0.035 F30.
G1 X-2.6594 F6.1
G2 X-2.7135 Y5.7638 I0 J0.0625
G1 X-2.8391 Y5.9813
G2 X-2.8475 Y6.0126 I0.0541 J0.0313
G1 Y8.7478
G2 X-2.8392 Y8.7788 I0.0625 J0
G1 X-2.0522 Y10.1568
G3 X-2.0569 Y10.1738 I-0.0109 J0.0062
G1 X-2.0677 Y10.18
G1 X-2.0702 Y10.1814 Z-0.0347
G1 X-2.0725 Y10.1827 Z-0.0338
G1 X-2.0745 Y10.1839 Z-0.0323
G1 X-2.0762 Y10.1849 Z-0.0303
G1 X-2.0775 Y10.1856 Z-0.0279
G1 X-2.0783 Y10.1861 Z-0.0253
G1 X-2.0786 Y10.1862 Z-0.0225
G0 Z0.2625
G0 X-2.091 Y10.1645
G1 Z0.0206 F30.
G1 Z-0.0388
G1 X-2.0907 Y10.1644 Z-0.0415 F6.1
G1 X-2.0899 Y10.1639 Z-0.0442
G1 X-2.0886 Y10.1632 Z-0.0465
G1 X-2.0869 Y10.1622 Z-0.0485
G1 X-2.0849 Y10.161 Z-0.05
G1 X-2.0826 Y10.1597 Z-0.0509
G1 X-2.0801 Y10.1583 Z-0.0512
G1 X-2.0693 Y10.1521
G3 X-2.0598 Y10.1509 I0.0062 J0.0109
G3 X-2.0522 Y10.1568 I-0.0033 J0.0121
G2 X-1.998 Y10.1883 I0.0543 J-0.031
G1 X1.4834
G1 Z0.0062
G1 X1.7334
G1 Z-0.0512 F30.
G1 X8.6962 F6.1
G1 Z0.0062
G1 X8.9462
G1 Z-0.0512 F30.
G1 X12.4276 F6.1
G2 X12.4819 Y10.1568 I0 J-0.0625
G1 X13.2693 Y8.7788
G2 X13.2775 Y8.7478 I-0.0543 J-0.031
G1 Y6.0119
G2 X13.2692 Y5.9806 I-0.0625 J0
G1 X13.144 Y5.7638
G2 X13.0898 Y5.7326 I-0.0541 J0.0313
G1 X10.59
G1 Z0.0062
G1 X10.34
G1 Z-0.0512 F30.
G1 X5.3402 F6.1
G1 Z0.0062
G1 X5.0902
G1 Z-0.0512 F30.
G1 X0.0905 F6.1
G1 Z0.0062
G1 X-0.1595
G1 Z-0.0512 F30.
G1 X-2.6594 F6.1
G2 X-2.7135 Y5.7638 I0 J0.0625
G1 X-2.8391 Y5.9813
G2 X-2.8475 Y6.0126 I0.0541 J0.0313
G1 Y8.7478
G2 X-2.8392 Y8.7788 I0.0625 J0
G1 X-2.0522 Y10.1568
G3 X-2.0569 Y10.1738 I-0.0109 J0.0062
G1 X-2.0677 Y10.18
G1 X-2.0702 Y10.1814 Z-0.0509
G1 X-2.0725 Y10.1827 Z-0.05
G1 X-2.0745 Y10.1839 Z-0.0485
G1 X-2.0762 Y10.1849 Z-0.0465
G1 X-2.0775 Y10.1856 Z-0.0442
G1 X-2.0783 Y10.1861 Z-0.0415
G1 X-2.0786 Y10.1862 Z-0.0388
G0 Z0.2625
G0 X-2.091 Y10.1645
G1 Z0.0044 F30.
G1 Z-0.055
G1 X-2.0907 Y10.1644 Z-0.0578 F6.1
G1 X-2.0899 Y10.1639 Z-0.0604
G1 X-2.0886 Y10.1632 Z-0.0628
G1 X-2.0869 Y10.1622 Z-0.0648
G1 X-2.0849 Y10.161 Z-0.0663
G1 X-2.0826 Y10.1597 Z-0.0672
G1 X-2.0801 Y10.1583 Z-0.0675
G1 X-2.0693 Y10.1521
G3 X-2.0598 Y10.1509 I0.0062 J0.0109
G3 X-2.0522 Y10.1568 I-0.0033 J0.0121
G2 X-1.998 Y10.1883 I0.0543 J-0.031
G1 X1.4834
G1 Z0.0062
G1 X1.7334
G1 Z-0.0675 F30.
G1 X8.6962 F6.1
G1 Z0.0062
G1 X8.9462
G1 Z-0.0675 F30.
G1 X12.4276 F6.1
G2 X12.4819 Y10.1568 I0 J-0.0625
G1 X13.2693 Y8.7788
G2 X13.2775 Y8.7478 I-0.0543 J-0.031
G1 Y6.0119
G2 X13.2692 Y5.9806 I-0.0625 J0
G1 X13.144 Y5.7638
G2 X13.0898 Y5.7326 I-0.0541 J0.0313
G1 X10.59
G1 Z0.0062
G1 X10.34
G1 Z-0.0675 F30.
G1 X5.3402 F6.1
G1 Z0.0062
G1 X5.0902
G1 Z-0.0675 F30.
G1 X0.0905 F6.1
G1 Z0.0062
G1 X-0.1595
G1 Z-0.0675 F30.
G1 X-2.6594 F6.1
G2 X-2.7135 Y5.7638 I0 J0.0625
G1 X-2.8391 Y5.9813
G2 X-2.8475 Y6.0126 I0.0541 J0.0313
G1 Y8.7478
G2 X-2.8392 Y8.7788 I0.0625 J0
G1 X-2.0522 Y10.1568
G3 X-2.0569 Y10.1738 I-0.0109 J0.0062
G1 X-2.0677 Y10.18
G1 X-2.0702 Y10.1814 Z-0.0672
G1 X-2.0725 Y10.1827 Z-0.0663
G1 X-2.0745 Y10.1839 Z-0.0648
G1 X-2.0762 Y10.1849 Z-0.0628
G1 X-2.0775 Y10.1856 Z-0.0604
G1 X-2.0783 Y10.1861 Z-0.0578
G1 X-2.0786 Y10.1862 Z-0.055
G0 Z0.2625
G0 X-2.091 Y10.1645
G1 Z-0.0119 F30.
G1 Z-0.0713
G1 X-2.0907 Y10.1644 Z-0.074 F6.1
G1 X-2.0899 Y10.1639 Z-0.0767
G1 X-2.0886 Y10.1632 Z-0.079
G1 X-2.0869 Y10.1622 Z-0.081
G1 X-2.0849 Y10.161 Z-0.0825
G1 X-2.0826 Y10.1597 Z-0.0834
G1 X-2.0801 Y10.1583 Z-0.0837
G1 X-2.0693 Y10.1521
G3 X-2.0598 Y10.1509 I0.0062 J0.0109
G3 X-2.0522 Y10.1568 I-0.0033 J0.0121
G2 X-1.998 Y10.1883 I0.0543 J-0.031
G1 X1.4834
G1 Z0.0062
G1 X1.7334
G1 Z-0.0837 F30.
G1 X8.6962 F6.1
G1 Z0.0062
G1 X8.9462
G1 Z-0.0837 F30.
G1 X12.4276 F6.1
G2 X12.4819 Y10.1568 I0 J-0.0625
G1 X13.2693 Y8.7788
G2 X13.2775 Y8.7478 I-0.0543 J-0.031
G1 Y6.0119
G2 X13.2692 Y5.9806 I-0.0625 J0
G1 X13.144 Y5.7638
G2 X13.0898 Y5.7326 I-0.0541 J0.0313
G1 X10.59
G1 Z0.0062
G1 X10.34
G1 Z-0.0837 F30.
G1 X5.3402 F6.1
G1 Z0.0062
G1 X5.0902
G1 Z-0.0837 F30.
G1 X0.0905 F6.1
G1 Z0.0062
G1 X-0.1595
G1 Z-0.0837 F30.
G1 X-2.6594 F6.1
G2 X-2.7135 Y5.7638 I0 J0.0625
G1 X-2.8391 Y5.9813
G2 X-2.8475 Y6.0126 I0.0541 J0.0313
G1 Y8.7478
G2 X-2.8392 Y8.7788 I0.0625 J0
G1 X-2.0522 Y10.1568
G3 X-2.0569 Y10.1738 I-0.0109 J0.0062
G1 X-2.0677 Y10.18
G1 X-2.0702 Y10.1814 Z-0.0834
G1 X-2.0725 Y10.1827 Z-0.0825
G1 X-2.0745 Y10.1839 Z-0.081
G1 X-2.0762 Y10.1849 Z-0.079
G1 X-2.0775 Y10.1856 Z-0.0767
G1 X-2.0783 Y10.1861 Z-0.074
G1 X-2.0786 Y10.1862 Z-0.0713
G0 Z0.2625
G0 X-2.091 Y10.1645
G1 Z-0.0281 F30.
G1 Z-0.0813
G1 X-2.0907 Y10.1644 Z-0.084 F6.1
G1 X-2.0899 Y10.1639 Z-0.0867
G1 X-2.0886 Y10.1632 Z-0.089
G1 X-2.0869 Y10.1622 Z-0.091
G1 X-2.0849 Y10.161 Z-0.0925
G1 X-2.0826 Y10.1597 Z-0.0934
G1 X-2.0801 Y10.1583 Z-0.0937
G1 X-2.0693 Y10.1521
G3 X-2.0598 Y10.1509 I0.0062 J0.0109
G3 X-2.0522 Y10.1568 I-0.0033 J0.0121
G2 X-1.998 Y10.1883 I0.0543 J-0.031
G1 X1.4834
G1 Z0.0062
G1 X1.7334
G1 Z-0.0937 F30.
G1 X8.6962 F6.1
G1 Z0.0062
G1 X8.9462
G1 Z-0.0937 F30.
G1 X12.4276 F6.1
G2 X12.4819 Y10.1568 I0 J-0.0625
G1 X13.2693 Y8.7788
G2 X13.2775 Y8.7478 I-0.0543 J-0.031
G1 Y6.0119
G2 X13.2692 Y5.9806 I-0.0625 J0
G1 X13.144 Y5.7638
G2 X13.0898 Y5.7326 I-0.0541 J0.0313
G1 X10.59
G1 Z0.0062
G1 X10.34
G1 Z-0.0937 F30.
G1 X5.3402 F6.1
G1 Z0.0062
G1 X5.0902
G1 Z-0.0937 F30.
G1 X0.0905 F6.1
G1 Z0.0062
G1 X-0.1595
G1 Z-0.0937 F30.
G1 X-2.6594 F6.1
G2 X-2.7135 Y5.7638 I0 J0.0625
G1 X-2.8391 Y5.9813
G2 X-2.8475 Y6.0126 I0.0541 J0.0313
G1 Y8.7478
G2 X-2.8392 Y8.7788 I0.0625 J0
G1 X-2.0522 Y10.1568
G3 X-2.0569 Y10.1738 I-0.0109 J0.0062
G1 X-2.0677 Y10.18
G1 X-2.0702 Y10.1814 Z-0.0934
G1 X-2.0725 Y10.1827 Z-0.0925
G1 X-2.0745 Y10.1839 Z-0.091
G1 X-2.0762 Y10.1849 Z-0.089
G1 X-2.0775 Y10.1856 Z-0.0867
G1 X-2.0783 Y10.1861 Z-0.084
G1 X-2.0786 Y10.1862 Z-0.0813
G0 Z0.2625
G0 X-19.7215 Y15.0547
G1 Z0.1181 F30.
G1 Z0.0587
G1 X-19.7212 Z0.056 F6.1
G1 X-19.7202 Y15.0548 Z0.0533
G1 X-19.7187 Z0.051
G1 X-19.7168 Y15.0549 Z0.049
G1 X-19.7144 Y15.055 Z0.0475
G1 X-19.7118 Y15.0551 Z0.0466
G1 X-19.709 Y15.0552 Z0.0462
G1 X-19.6965 Y15.0557
G3 X-19.6845 Y15.0687 I-0.0005 J0.0125
G1 Y15.0712
G1 Y17.8064
G2 X-19.6763 Y17.8374 I0.0625 J0
G1 X-18.8893 Y19.2154
G2 X-18.835 Y19.2469 I0.0543 J-0.031
G1 X-4.4094
G2 X-4.3552 Y19.2154 I0 J-0.0625
G1 X-3.5678 Y17.8374
G2 X-3.5595 Y17.8064 I-0.0543 J-0.031
G1 Y15.0705
G2 X-3.5679 Y15.0392 I-0.0625 J0
G1 X-3.6931 Y14.8224
G2 X-3.7472 Y14.7912 I-0.0541 J0.0312
G1 X-18.835
G1 X-19.4965
G2 X-19.5506 Y14.8224 I0 J0.0625
G1 X-19.6762 Y15.0399
G2 X-19.6845 Y15.0687 I0.0541 J0.0313
G3 X-19.6975 Y15.0807 I-0.0125 J-0.0005
G1 X-19.71 Y15.0802
G1 X-19.7128 Y15.0801 Z0.0466
G1 X-19.7154 Y15.08 Z0.0475
G1 X-19.7178 Y15.0799 Z0.049
G1 X-19.7197 Y15.0798 Z0.051
G1 X-19.7212 Y15.0797 Z0.0533
G1 X-19.7222 Z0.056
G1 X-19.7225 Z0.0587
G0 Z0.2625
G0 X-19.7215 Y15.0547
G1 Z0.1019 F30.
G1 Z0.0425
G1 X-19.7212 Z0.0397 F6.1
G1 X-19.7202 Y15.0548 Z0.0371
G1 X-19.7187 Z0.0347
G1 X-19.7168 Y15.0549 Z0.0327
G1 X-19.7144 Y15.055 Z0.0312
G1 X-19.7118 Y15.0551 Z0.0303
G1 X-19.709 Y15.0552 Z0.03
G1 X-19.6965 Y15.0557
G3 X-19.6845 Y15.0687 I-0.0005 J0.0125
G1 Y15.0712
G1 Y17.8064
G2 X-19.6763 Y17.8374 I0.0625 J0
G1 X-18.8893 Y19.2154
G2 X-18.835 Y19.2469 I0.0543 J-0.031
G1 X-4.4094
G2 X-4.3552 Y19.2154 I0 J-0.0625
G1 X-3.5678 Y17.8374
G2 X-3.5595 Y17.8064 I-0.0543 J-0.031
G1 Y15.0705
G2 X-3.5679 Y15.0392 I-0.0625 J0
G1 X-3.6931 Y14.8224
G2 X-3.7472 Y14.7912 I-0.0541 J0.0312
G1 X-18.835
G1 X-19.4965
G2 X-19.5506 Y14.8224 I0 J0.0625
G1 X-19.6762 Y15.0399
G2 X-19.6845 Y15.0687 I0.0541 J0.0313
G3 X-19.6975 Y15.0807 I-0.0125 J-0.0005
G1 X-19.71 Y15.0802
G1 X-19.7128 Y15.0801 Z0.0303
G1 X-19.7154 Y15.08 Z0.0312
G1 X-19.7178 Y15.0799 Z0.0327
G1 X-19.7197 Y15.0798 Z0.0347
G1 X-19.7212 Y15.0797 Z0.0371
G1 X-19.7222 Z0.0397
G1 X-19.7225 Z0.0425
G0 Z0.2625
G0 X-19.7215 Y15.0547
G1 Z0.0856 F30.
G1 Z0.0262
G1 X-19.7212 Z0.0235 F6.1
G1 X-19.7202 Y15.0548 Z0.0208
G1 X-19.7187 Z0.0185
G1 X-19.7168 Y15.0549 Z0.0165
G1 X-19.7144 Y15.055 Z0.015
G1 X-19.7118 Y15.0551 Z0.0141
G1 X-19.709 Y15.0552 Z0.0137
G1 X-19.6965 Y15.0557
G3 X-19.6845 Y15.0687 I-0.0005 J0.0125
G1 Y15.0712
G1 Y17.8064
G2 X-19.6763 Y17.8374 I0.0625 J0
G1 X-18.8893 Y19.2154
G2 X-18.835 Y19.2469 I0.0543 J-0.031
G1 X-4.4094
G2 X-4.3552 Y19.2154 I0 J-0.0625
G1 X-3.5678 Y17.8374
G2 X-3.5595 Y17.8064 I-0.0543 J-0.031
G1 Y15.0705
G2 X-3.5679 Y15.0392 I-0.0625 J0
G1 X-3.6931 Y14.8224
G2 X-3.7472 Y14.7912 I-0.0541 J0.0312
G1 X-18.835
G1 X-19.4965
G2 X-19.5506 Y14.8224 I0 J0.0625
G1 X-19.6762 Y15.0399
G2 X-19.6845 Y15.0687 I0.0541 J0.0313
G3 X-19.6975 Y15.0807 I-0.0125 J-0.0005
G1 X-19.71 Y15.0802
G1 X-19.7128 Y15.0801 Z0.0141
G1 X-19.7154 Y15.08 Z0.015
G1 X-19.7178 Y15.0799 Z0.0165
G1 X-19.7197 Y15.0798 Z0.0185
G1 X-19.7212 Y15.0797 Z0.0208
G1 X-19.7222 Z0.0235
G1 X-19.7225 Z0.0262
G0 Z0.2625
G0 X-19.7215 Y15.0547
G1 Z0.0694 F30.
G1 Z0.01
G1 X-19.7212 Z0.0072 F6.1
G1 X-19.7202 Y15.0548 Z0.0046
G1 X-19.7187 Z0.0022
G1 X-19.7168 Y15.0549 Z0.0002
G1 X-19.7144 Y15.055 Z-0.0013
G1 X-19.7118 Y15.0551 Z-0.0022
G1 X-19.709 Y15.0552 Z-0.0025
G1 X-19.6965 Y15.0557
G3 X-19.6845 Y15.0687 I-0.0005 J0.0125
G1 Y15.0712
G1 Y17.8064
G2 X-19.6763 Y17.8374 I0.0625 J0
G1 X-18.8893 Y19.2154
G2 X-18.835 Y19.2469 I0.0543 J-0.031
G1 X-15.3536
G1 Z0.0062
G1 X-15.1036
G1 Z-0.0025 F30.
G1 X-8.1408 F6.1
G1 Z0.0062
G1 X-7.8908
G1 Z-0.0025 F30.
G1 X-4.4094 F6.1
G2 X-4.3552 Y19.2154 I0 J-0.0625
G1 X-3.5678 Y17.8374
G2 X-3.5595 Y17.8064 I-0.0543 J-0.031
G1 Y15.0705
G2 X-3.5679 Y15.0392 I-0.0625 J0
G1 X-3.6931 Y14.8224
G2 X-3.7472 Y14.7912 I-0.0541 J0.0312
G1 X-6.2471
G1 Z0.0062
G1 X-6.4971
G1 Z-0.0025 F30.
G1 X-11.4968 F6.1
G1 Z0.0062
G1 X-11.7469
G1 Z-0.0025 F30.
G1 X-16.7466 F6.1
G1 Z0.0062
G1 X-16.9966
G1 Z-0.0025 F30.
G1 X-19.4965 F6.1
G2 X-19.5506 Y14.8224 I0 J0.0625
G1 X-19.6762 Y15.0399
G2 X-19.6845 Y15.0687 I0.0541 J0.0313
G3 X-19.6975 Y15.0807 I-0.0125 J-0.0005
G1 X-19.71 Y15.0802
G1 X-19.7128 Y15.0801 Z-0.0022
G1 X-19.7154 Y15.08 Z-0.0013
G1 X-19.7178 Y15.0799 Z0.0002
G1 X-19.7197 Y15.0798 Z0.0022
G1 X-19.7212 Y15.0797 Z0.0046
G1 X-19.7222 Z0.0072
G1 X-19.7225 Z0.01
G0 Z0.2625
G0 X-19.7215 Y15.0547
G1 Z0.0531 F30.
G1 Z-0.0063
G1 X-19.7212 Z-0.009 F6.1
G1 X-19.7202 Y15.0548 Z-0.0117
G1 X-19.7187 Z-0.014
G1 X-19.7168 Y15.0549 Z-0.016
G1 X-19.7144 Y15.055 Z-0.0175
G1 X-19.7118 Y15.0551 Z-0.0184
G1 X-19.709 Y15.0552 Z-0.0187
G1 X-19.6965 Y15.0557
G3 X-19.6845 Y15.0687 I-0.0005 J0.0125
G1 Y15.0712
G1 Y17.8064
G2 X-19.6763 Y17.8374 I0.0625 J0
G1 X-18.8893 Y19.2154
G2 X-18.835 Y19.2469 I0.0543 J-0.031
G1 X-15.3536
G1 Z0.0062
G1 X-15.1036
G1 Z-0.0187 F30.
G1 X-8.1408 F6.1
G1 Z0.0062
G1 X-7.8908
G1 Z-0.0187 F30.
G1 X-4.4094 F6.1
G2 X-4.3552 Y19.2154 I0 J-0.0625
G1 X-3.5678 Y17.8374
G2 X-3.5595 Y17.8064 I-0.0543 J-0.031
G1 Y15.0705
G2 X-3.5679 Y15.0392 I-0.0625 J0
G1 X-3.6931 Y14.8224
G2 X-3.7472 Y14.7912 I-0.0541 J0.0312
G1 X-6.2471
G1 Z0.0062
G1 X-6.4971
G1 Z-0.0187 F30.
G1 X-11.4968 F6.1
G1 Z0.0062
G1 X-11.7469
G1 Z-0.0187 F30.
G1 X-16.7466 F6.1
G1 Z0.0062
G1 X-16.9966
G1 Z-0.0187 F30.
G1 X-19.4965 F6.1
G2 X-19.5506 Y14.8224 I0 J0.0625
G1 X-19.6762 Y15.0399
G2 X-19.6845 Y15.0687 I0.0541 J0.0313
G3 X-19.6975 Y15.0807 I-0.0125 J-0.0005
G1 X-19.71 Y15.0802
G1 X-19.7128 Y15.0801 Z-0.0184
G1 X-19.7154 Y15.08 Z-0.0175
G1 X-19.7178 Y15.0799 Z-0.016
G1 X-19.7197 Y15.0798 Z-0.014
G1 X-19.7212 Y15.0797 Z-0.0117
G1 X-19.7222 Z-0.009
G1 X-19.7225 Z-0.0063
G0 Z0.2625
G0 X-19.7215 Y15.0547
G1 Z0.0369 F30.
G1 Z-0.0225
G1 X-19.7212 Z-0.0253 F6.1
G1 X-19.7202 Y15.0548 Z-0.0279
G1 X-19.7187 Z-0.0303
G1 X-19.7168 Y15.0549 Z-0.0323
G1 X-19.7144 Y15.055 Z-0.0338
G1 X-19.7118 Y15.0551 Z-0.0347
G1 X-19.709 Y15.0552 Z-0.035
G1 X-19.6965 Y15.0557
G3 X-19.6845 Y15.0687 I-0.0005 J0.0125
G1 Y15.0712
G1 Y17.8064
G2 X-19.6763 Y17.8374 I0.0625 J0
G1 X-18.8893 Y19.2154
G2 X-18.835 Y19.2469 I0.0543 J-0.031
G1 X-15.3536
G1 Z0.0062
G1 X-15.1036
G1 Z-0.035 F30.
G1 X-8.1408 F6.1
G1 Z0.0062
G1 X-7.8908
G1 Z-0.035 F30.
G1 X-4.4094 F6.1
G2 X-4.3552 Y19.2154 I0 J-0.0625
G1 X-3.5678 Y17.8374
G2 X-3.5595 Y17.8064 I-0.0543 J-0.031
G1 Y15.0705
G2 X-3.5679 Y15.0392 I-0.0625 J0
G1 X-3.6931 Y14.8224
G2 X-3.7472 Y14.7912 I-0.0541 J0.0312
G1 X-6.2471
G1 Z0.0062
G1 X-6.4971
G1 Z-0.035 F30.
G1 X-11.4968 F6.1
G1 Z0.0062
G1 X-11.7469
G1 Z-0.035 F30.
G1 X-16.7466 F6.1
G1 Z0.0062
G1 X-16.9966
G1 Z-0.035 F30.
G1 X-19.4965 F6.1
G2 X-19.5506 Y14.8224 I0 J0.0625
G1 X-19.6762 Y15.0399
G2 X-19.6845 Y15.0687 I0.0541 J0.0313
G3 X-19.6975 Y15.0807 I-0.0125 J-0.0005
G1 X-19.71 Y15.0802
G1 X-19.7128 Y15.0801 Z-0.0347
G1 X-19.7154 Y15.08 Z-0.0338
G1 X-19.7178 Y15.0799 Z-0.0323
G1 X-19.7197 Y15.0798 Z-0.0303
G1 X-19.7212 Y15.0797 Z-0.0279
G1 X-19.7222 Z-0.0253
G1 X-19.7225 Z-0.0225
G0 Z0.2625
G0 X-19.7215 Y15.0547
G1 Z0.0206 F30.
G1 Z-0.0388
G1 X-19.7212 Z-0.0415 F6.1
G1 X-19.7202 Y15.0548 Z-0.0442
G1 X-19.7187 Z-0.0465
G1 X-19.7168 Y15.0549 Z-0.0485
G1 X-19.7144 Y15.055 Z-0.05
G1 X-19.7118 Y15.0551 Z-0.0509
G1 X-19.709 Y15.0552 Z-0.0512
G1 X-19.6965 Y15.0557
G3 X-19.6845 Y15.0687 I-0.0005 J0.0125
G1 Y15.0712
G1 Y17.8064
G2 X-19.6763 Y17.8374 I0.0625 J0
G1 X-18.8893 Y19.2154
G2 X-18.835 Y19.2469 I0.0543 J-0.031
G1 X-15.3536
G1 Z0.0062
G1 X-15.1036
G1 Z-0.0512 F30.
G1 X-8.1408 F6.1
G1 Z0.0062
G1 X-7.8908
G1 Z-0.0512 F30.
G1 X-4.4094 F6.1
G2 X-4.3552 Y19.2154 I0 J-0.0625
G1 X-3.5678 Y17.8374
G2 X-3.5595 Y17.8064 I-0.0543 J-0.031
G1 Y15.0705
G2 X-3.5679 Y15.0392 I-0.0625 J0
G1 X-3.6931 Y14.8224
G2 X-3.7472 Y14.7912 I-0.0541 J0.0312
G1 X-6.2471
G1 Z0.0062
G1 X-6.4971
G1 Z-0.0512 F30.
G1 X-11.4968 F6.1
G1 Z0.0062
G1 X-11.7469
G1 Z-0.0512 F30.
G1 X-16.7466 F6.1
G1 Z0.0062
G1 X-16.9966
G1 Z-0.0512 F30.
G1 X-19.4965 F6.1
G2 X-19.5506 Y14.8224 I0 J0.0625
G1 X-19.6762 Y15.0399
G2 X-19.6845 Y15.0687 I0.0541 J0.0313
G3 X-19.6975 Y15.0807 I-0.0125 J-0.0005
G1 X-19.71 Y15.0802
G1 X-19.7128 Y15.0801 Z-0.0509
G1 X-19.7154 Y15.08 Z-0.05
G1 X-19.7178 Y15.0799 Z-0.0485
G1 X-19.7197 Y15.0798 Z-0.0465
G1 X-19.7212 Y15.0797 Z-0.0442
G1 X-19.7222 Z-0.0415
G1 X-19.7225 Z-0.0388
G0 Z0.2625
G0 X-19.7215 Y15.0547
G1 Z0.0044 F30.
G1 Z-0.055
G1 X-19.7212 Z-0.0578 F6.1
G1 X-19.7202 Y15.0548 Z-0.0604
G1 X-19.7187 Z-0.0628
G1 X-19.7168 Y15.0549 Z-0.0648
G1 X-19.7144 Y15.055 Z-0.0663
G1 X-19.7118 Y15.0551 Z-0.0672
G1 X-19.709 Y15.0552 Z-0.0675
G1 X-19.6965 Y15.0557
G3 X-19.6845 Y15.0687 I-0.0005 J0.0125
G1 Y15.0712
G1 Y17.8064
G2 X-19.6763 Y17.8374 I0.0625 J0
G1 X-18.8893 Y19.2154
G2 X-18.835 Y19.2469 I0.0543 J-0.031
G1 X-15.3536
G1 Z0.0062
G1 X-15.1036
G1 Z-0.0675 F30.
G1 X-8.1408 F6.1
G1 Z0.0062
G1 X-7.8908
G1 Z-0.0675 F30.
G1 X-4.4094 F6.1
G2 X-4.3552 Y19.2154 I0 J-0.0625
G1 X-3.5678 Y17.8374
G2 X-3.5595 Y17.8064 I-0.0543 J-0.031
G1 Y15.0705
G2 X-3.5679 Y15.0392 I-0.0625 J0
G1 X-3.6931 Y14.8224
G2 X-3.7472 Y14.7912 I-0.0541 J0.0312
G1 X-6.2471
G1 Z0.0062
G1 X-6.4971
G1 Z-0.0675 F30.
G1 X-11.4968 F6.1
G1 Z0.0062
G1 X-11.7469
G1 Z-0.0675 F30.
G1 X-16.7466 F6.1
G1 Z0.0062
G1 X-16.9966
G1 Z-0.0675 F30.
G1 X-19.4965 F6.1
G2 X-19.5506 Y14.8224 I0 J0.0625
G1 X-19.6762 Y15.0399
G2 X-19.6845 Y15.0687 I0.0541 J0.0313
G3 X-19.6975 Y15.0807 I-0.0125 J-0.0005
G1 X-19.71 Y15.0802
G1 X-19.7128 Y15.0801 Z-0.0672
G1 X-19.7154 Y15.08 Z-0.0663
G1 X-19.7178 Y15.0799 Z-0.0648
G1 X-19.7197 Y15.0798 Z-0.0628
G1 X-19.7212 Y15.0797 Z-0.0604
G1 X-19.7222 Z-0.0578
G1 X-19.7225 Z-0.055
G0 Z0.2625
G0 X-19.7215 Y15.0547
G1 Z-0.0119 F30.
G1 Z-0.0713
G1 X-19.7212 Z-0.074 F6.1
G1 X-19.7202 Y15.0548 Z-0.0767
G1 X-19.7187 Z-0.079
G1 X-19.7168 Y15.0549 Z-0.081
G1 X-19.7144 Y15.055 Z-0.0825
G1 X-19.7118 Y15.0551 Z-0.0834
G1 X-19.709 Y15.0552 Z-0.0837
G1 X-19.6965 Y15.0557
G3 X-19.6845 Y15.0687 I-0.0005 J0.0125
G1 Y15.0712
G1 Y17.8064
G2 X-19.6763 Y17.8374 I0.0625 J0
G1 X-18.8893 Y19.2154
G2 X-18.835 Y19.2469 I0.0543 J-0.031
G1 X-15.3536
G1 Z0.0062
G1 X-15.1036
G1 Z-0.0837 F30.
G1 X-8.1408 F6.1
G1 Z0.0062
G1 X-7.8908
G1 Z-0.0837 F30.
G1 X-4.4094 F6.1
G2 X-4.3552 Y19.2154 I0 J-0.0625
G1 X-3.5678 Y17.8374
G2 X-3.5595 Y17.8064 I-0.0543 J-0.031
G1 Y15.0705
G2 X-3.5679 Y15.0392 I-0.0625 J0
G1 X-3.6931 Y14.8224
G2 X-3.7472 Y14.7912 I-0.0541 J0.0312
G1 X-6.2471
G1 Z0.0062
G1 X-6.4971
G1 Z-0.0837 F30.
G1 X-11.4968 F6.1
G1 Z0.0062
G1 X-11.7469
G1 Z-0.0837 F30.
G1 X-16.7466 F6.1
G1 Z0.0062
G1 X-16.9966
G1 Z-0.0837 F30.
G1 X-19.4965 F6.1
G2 X-19.5506 Y14.8224 I0 J0.0625
G1 X-19.6762 Y15.0399
G2 X-19.6845 Y15.0687 I0.0541 J0.0313
G3 X-19.6975 Y15.0807 I-0.0125 J-0.0005
G1 X-19.71 Y15.0802
G1 X-19.7128 Y15.0801 Z-0.0834
G1 X-19.7154 Y15.08 Z-0.0825
G1 X-19.7178 Y15.0799 Z-0.081
G1 X-19.7197 Y15.0798 Z-0.079
G1 X-19.7212 Y15.0797 Z-0.0767
G1 X-19.7222 Z-0.074
G1 X-19.7225 Z-0.0713
G0 Z0.2625
G0 X-19.7215 Y15.0547
G1 Z-0.0281 F30.
G1 Z-0.0813
G1 X-19.7212 Z-0.084 F6.1
G1 X-19.7202 Y15.0548 Z-0.0867
G1 X-19.7187 Z-0.089
G1 X-19.7168 Y15.0549 Z-0.091
G1 X-19.7144 Y15.055 Z-0.0925
G1 X-19.7118 Y15.0551 Z-0.0934
G1 X-19.709 Y15.0552 Z-0.0937
G1 X-19.6965 Y15.0557
G3 X-19.6845 Y15.0687 I-0.0005 J0.0125
G1 Y15.0712
G1 Y17.8064
G2 X-19.6763 Y17.8374 I0.0625 J0
G1 X-18.8893 Y19.2154
G2 X-18.835 Y19.2469 I0.0543 J-0.031
G1 X-15.3536
G1 Z0.0062
G1 X-15.1036
G1 Z-0.0937 F30.
G1 X-8.1408 F6.1
G1 Z0.0062
G1 X-7.8908
G1 Z-0.0937 F30.
G1 X-4.4094 F6.1
G2 X-4.3552 Y19.2154 I0 J-0.0625
G1 X-3.5678 Y17.8374
G2 X-3.5595 Y17.8064 I-0.0543 J-0.031
G1 Y15.0705
G2 X-3.5679 Y15.0392 I-0.0625 J0
G1 X-3.6931 Y14.8224
G2 X-3.7472 Y14.7912 I-0.0541 J0.0312
G1 X-6.2471
G1 Z0.0062
G1 X-6.4971
G1 Z-0.0937 F30.
G1 X-11.4968 F6.1
G1 Z0.0062
G1 X-11.7469
G1 Z-0.0937 F30.
G1 X-16.7466 F6.1
G1 Z0.0062
G1 X-16.9966
G1 Z-0.0937 F30.
G1 X-19.4965 F6.1
G2 X-19.5506 Y14.8224 I0 J0.0625
G1 X-19.6762 Y15.0399
G2 X-19.6845 Y15.0687 I0.0541 J0.0313
G3 X-19.6975 Y15.0807 I-0.0125 J-0.0005
G1 X-19.71 Y15.0802
G1 X-19.7128 Y15.0801 Z-0.0934
G1 X-19.7154 Y15.08 Z-0.0925
G1 X-19.7178 Y15.0799 Z-0.091
G1 X-19.7197 Y15.0798 Z-0.089
G1 X-19.7212 Y15.0797 Z-0.0867
G1 X-19.7222 Z-0.084
G1 X-19.7225 Z-0.0813
G0 Z0.2625
G0 X-4.2489 Y4.6675
G1 Z0.1181 F30.
G1 Z0.0587
G1 X-4.2492 Y4.6674 Z0.056 F6.1
G1 X-4.25 Y4.6669 Z0.0533
G1 X-4.2513 Y4.6662 Z0.051
G1 X-4.253 Y4.6652 Z0.049
G1 X-4.2551 Y4.664 Z0.0475
G1 X-4.2574 Y4.6627 Z0.0466
G1 X-4.2598 Y4.6613 Z0.0462
G1 X-4.2706 Y4.6551
G3 X-4.2753 Y4.6381 I0.0062 J-0.0109
G1 X-3.5648 Y3.3948
G2 X-3.5566 Y3.3638 I-0.0543 J-0.031
G1 Y0.8778
G2 X-3.5587 Y0.8616 I-0.0625 J0
G1 X-3.6839 Y0.3948
G2 X-3.7443 Y0.3485 I-0.0604 J0.0162
G1 X-19.4935
G2 X-19.5477 Y0.3798 I0 J0.0625
G1 X-19.6732 Y0.5972
G2 X-19.6816 Y0.6285 I0.0541 J0.0312
G1 Y3.3638
G2 X-19.6734 Y3.3948 I0.0625 J0
G1 X-18.8864 Y4.7727
G2 X-18.8321 Y4.8042 I0.0543 J-0.031
G1 X-4.4065
G2 X-4.3522 Y4.7727 I0 J-0.0625
G1 X-4.2753 Y4.6381
G3 X-4.2677 Y4.6322 I0.0109 J0.0062
G3 X-4.2582 Y4.6334 I0.0033 J0.0121
G1 X-4.2474 Y4.6396
G1 X-4.245 Y4.641 Z0.0466
G1 X-4.2427 Y4.6423 Z0.0475
G1 X-4.2406 Y4.6435 Z0.049
G1 X-4.2389 Y4.6445 Z0.051
G1 X-4.2376 Y4.6452 Z0.0533
G1 X-4.2368 Y4.6457 Z0.056
G1 X-4.2365 Y4.6458 Z0.0587
G0 Z0.2625
G0 X-4.2489 Y4.6675
G1 Z0.1019 F30.
G1 Z0.0425
G1 X-4.2492 Y4.6674 Z0.0397 F6.1
G1 X-4.25 Y4.6669 Z0.0371
G1 X-4.2513 Y4.6662 Z0.0347
G1 X-4.253 Y4.6652 Z0.0327
G1 X-4.2551 Y4.664 Z0.0312
G1 X-4.2574 Y4.6627 Z0.0303
G1 X-4.2598 Y4.6613 Z0.03
G1 X-4.2706 Y4.6551
G3 X-4.2753 Y4.6381 I0.0062 J-0.0109
G1 X-3.5648 Y3.3948
G2 X-3.5566 Y3.3638 I-0.0543 J-0.031
G1 Y0.8778
G2 X-3.5587 Y0.8616 I-0.0625 J0
G1 X-3.6839 Y0.3948
G2 X-3.7443 Y0.3485 I-0.0604 J0.0162
G1 X-19.4935
G2 X-19.5477 Y0.3798 I0 J0.0625
G1 X-19.6732 Y0.5972
G2 X-19.6816 Y0.6285 I0.0541 J0.0312
G1 Y3.3638
G2 X-19.6734 Y3.3948 I0.0625 J0
G1 X-18.8864 Y4.7727
G2 X-18.8321 Y4.8042 I0.0543 J-0.031
G1 X-4.4065
G2 X-4.3522 Y4.7727 I0 J-0.0625
G1 X-4.2753 Y4.6381
G3 X-4.2677 Y4.6322 I0.0109 J0.0062
G3 X-4.2582 Y4.6334 I0.0033 J0.0121
G1 X-4.2474 Y4.6396
G1 X-4.245 Y4.641 Z0.0303
G1 X-4.2427 Y4.6423 Z0.0312
G1 X-4.2406 Y4.6435 Z0.0327
G1 X-4.2389 Y4.6445 Z0.0347
G1 X-4.2376 Y4.6452 Z0.0371
G1 X-4.2368 Y4.6457 Z0.0397
G1 X-4.2365 Y4.6458 Z0.0425
G0 Z0.2625
G0 X-4.2489 Y4.6675
G1 Z0.0856 F30.
G1 Z0.0262
G1 X-4.2492 Y4.6674 Z0.0235 F6.1
G1 X-4.25 Y4.6669 Z0.0208
G1 X-4.2513 Y4.6662 Z0.0185
G1 X-4.253 Y4.6652 Z0.0165
G1 X-4.2551 Y4.664 Z0.015
G1 X-4.2574 Y4.6627 Z0.0141
G1 X-4.2598 Y4.6613 Z0.0137
G1 X-4.2706 Y4.6551
G3 X-4.2753 Y4.6381 I0.0062 J-0.0109
G1 X-3.5648 Y3.3948
G2 X-3.5566 Y3.3638 I-0.0543 J-0.031
G1 Y0.8778
G2 X-3.5587 Y0.8616 I-0.0625 J0
G1 X-3.6839 Y0.3948
G2 X-3.7443 Y0.3485 I-0.0604 J0.0162
G1 X-19.4935
G2 X-19.5477 Y0.3798 I0 J0.0625
G1 X-19.6732 Y0.5972
G2 X-19.6816 Y0.6285 I0.0541 J0.0312
G1 Y3.3638
G2 X-19.6734 Y3.3948 I0.0625 J0
G1 X-18.8864 Y4.7727
G2 X-18.8321 Y4.8042 I0.0543 J-0.031
G1 X-4.4065
G2 X-4.3522 Y4.7727 I0 J-0.0625
G1 X-4.2753 Y4.6381
G3 X-4.2677 Y4.6322 I0.0109 J0.0062
G3 X-4.2582 Y4.6334 I0.0033 J0.0121
G1 X-4.2474 Y4.6396
G1 X-4.245 Y4.641 Z0.0141
G1 X-4.2427 Y4.6423 Z0.015
G1 X-4.2406 Y4.6435 Z0.0165
G1 X-4.2389 Y4.6445 Z0.0185
G1 X-4.2376 Y4.6452 Z0.0208
G1 X-4.2368 Y4.6457 Z0.0235
G1 X-4.2365 Y4.6458 Z0.0262
G0 Z0.2625
G0 X-4.2489 Y4.6675
G1 Z0.0694 F30.
G1 Z0.01
G1 X-4.2492 Y4.6674 Z0.0072 F6.1
G1 X-4.25 Y4.6669 Z0.0046
G1 X-4.2513 Y4.6662 Z0.0022
G1 X-4.253 Y4.6652 Z0.0002
G1 X-4.2551 Y4.664 Z-0.0013
G1 X-4.2574 Y4.6627 Z-0.0022
G1 X-4.2598 Y4.6613 Z-0.0025
G1 X-4.2706 Y4.6551
G3 X-4.2753 Y4.6381 I0.0062 J-0.0109
G1 X-3.5648 Y3.3948
G2 X-3.5566 Y3.3638 I-0.0543 J-0.031
G1 Y0.8778
G2 X-3.5587 Y0.8616 I-0.0625 J0
G1 X-3.6839 Y0.3948
G2 X-3.7443 Y0.3485 I-0.0604 J0.0162
G1 X-6.2441
G1 Z0.0062
G1 X-6.4941
G1 Z-0.0025 F30.
G1 X-11.4939 F6.1
G1 Z0.0062
G1 X-11.7439
G1 Z-0.0025 F30.
G1 X-16.7437 F6.1
G1 Z0.0062
G1 X-16.9937
G1 Z-0.0025 F30.
G1 X-19.4935 F6.1
G2 X-19.5477 Y0.3798 I0 J0.0625
G1 X-19.6732 Y0.5972
G2 X-19.6816 Y0.6285 I0.0541 J0.0312
G1 Y3.3638
G2 X-19.6734 Y3.3948 I0.0625 J0
G1 X-18.8864 Y4.7727
G2 X-18.8321 Y4.8042 I0.0543 J-0.031
G1 X-15.3507
G1 Z0.0062
G1 X-15.1007
G1 Z-0.0025 F30.
G1 X-8.1379 F6.1
G1 Z0.0062
G1 X-7.8879
G1 Z-0.0025 F30.
G1 X-4.4065 F6.1
G2 X-4.3522 Y4.7727 I0 J-0.0625
G1 X-4.2753 Y4.6381
G3 X-4.2677 Y4.6322 I0.0109 J0.0062
G3 X-4.2582 Y4.6334 I0.0033 J0.0121
G1 X-4.2474 Y4.6396
G1 X-4.245 Y4.641 Z-0.0022
G1 X-4.2427 Y4.6423 Z-0.0013
G1 X-4.2406 Y4.6435 Z0.0002
G1 X-4.2389 Y4.6445 Z0.0022
G1 X-4.2376 Y4.6452 Z0.0046
G1 X-4.2368 Y4.6457 Z0.0072
G1 X-4.2365 Y4.6458 Z0.01
G0 Z0.2625
G0 X-4.2489 Y4.6675
G1 Z0.0531 F30.
G1 Z-0.0063
G1 X-4.2492 Y4.6674 Z-0.009 F6.1
G1 X-4.25 Y4.6669 Z-0.0117
G1 X-4.2513 Y4.6662 Z-0.014
G1 X-4.253 Y4.6652 Z-0.016
G1 X-4.2551 Y4.664 Z-0.0175
G1 X-4.2574 Y4.6627 Z-0.0184
G1 X-4.2598 Y4.6613 Z-0.0187
G1 X-4.2706 Y4.6551
G3 X-4.2753 Y4.6381 I0.0062 J-0.0109
G1 X-3.5648 Y3.3948
G2 X-3.5566 Y3.3638 I-0.0543 J-0.031
G1 Y0.8778
G2 X-3.5587 Y0.8616 I-0.0625 J0
G1 X-3.6839 Y0.3948
G2 X-3.7443 Y0.3485 I-0.0604 J0.0162
G1 X-6.2441
G1 Z0.0062
G1 X-6.4941
G1 Z-0.0187 F30.
G1 X-11.4939 F6.1
G1 Z0.0062
G1 X-11.7439
G1 Z-0.0187 F30.
G1 X-16.7437 F6.1
G1 Z0.0062
G1 X-16.9937
G1 Z-0.0187 F30.
G1 X-19.4935 F6.1
G2 X-19.5477 Y0.3798 I0 J0.0625
G1 X-19.6732 Y0.5972
G2 X-19.6816 Y0.6285 I0.0541 J0.0312
G1 Y3.3638
G2 X-19.6734 Y3.3948 I0.0625 J0
G1 X-18.8864 Y4.7727
G2 X-18.8321 Y4.8042 I0.0543 J-0.031
G1 X-15.3507
G1 Z0.0062
G1 X-15.1007
G1 Z-0.0187 F30.
G1 X-8.1379 F6.1
G1 Z0.0062
G1 X-7.8879
G1 Z-0.0187 F30.
G1 X-4.4065 F6.1
G2 X-4.3522 Y4.7727 I0 J-0.0625
G1 X-4.2753 Y4.6381
G3 X-4.2677 Y4.6322 I0.0109 J0.0062
G3 X-4.2582 Y4.6334 I0.0033 J0.0121
G1 X-4.2474 Y4.6396
G1 X-4.245 Y4.641 Z-0.0184
G1 X-4.2427 Y4.6423 Z-0.0175
G1 X-4.2406 Y4.6435 Z-0.016
G1 X-4.2389 Y4.6445 Z-0.014
G1 X-4.2376 Y4.6452 Z-0.0117
G1 X-4.2368 Y4.6457 Z-0.009
G1 X-4.2365 Y4.6458 Z-0.0063
G0 Z0.2625
G0 X-4.2489 Y4.6675
G1 Z0.0369 F30.
G1 Z-0.0225
G1 X-4.2492 Y4.6674 Z-0.0253 F6.1
G1 X-4.25 Y4.6669 Z-0.0279
G1 X-4.2513 Y4.6662 Z-0.0303
G1 X-4.253 Y4.6652 Z-0.0323
G1 X-4.2551 Y4.664 Z-0.0338
G1 X-4.2574 Y4.6627 Z-0.0347
G1 X-4.2598 Y4.6613 Z-0.035
G1 X-4.2706 Y4.6551
G3 X-4.2753 Y4.6381 I0.0062 J-0.0109
G1 X-3.5648 Y3.3948
G2 X-3.5566 Y3.3638 I-0.0543 J-0.031
G1 Y0.8778
G2 X-3.5587 Y0.8616 I-0.0625 J0
G1 X-3.6839 Y0.3948
G2 X-3.7443 Y0.3485 I-0.0604 J0.0162
G1 X-6.2441
G1 Z0.0062
G1 X-6.4941
G1 Z-0.035 F30.
G1 X-11.4939 F6.1
G1 Z0.0062
G1 X-11.7439
G1 Z-0.035 F30.
G1 X-16.7437 F6.1
G1 Z0.0062
G1 X-16.9937
G1 Z-0.035 F30.
G1 X-19.4935 F6.1
G2 X-19.5477 Y0.3798 I0 J0.0625
G1 X-19.6732 Y0.5972
G2 X-19.6816 Y0.6285 I0.0541 J0.0312
G1 Y3.3638
G2 X-19.6734 Y3.3948 I0.0625 J0
G1 X-18.8864 Y4.7727
G2 X-18.8321 Y4.8042 I0.0543 J-0.031
G1 X-15.3507
G1 Z0.0062
G1 X-15.1007
G1 Z-0.035 F30.
G1 X-8.1379 F6.1
G1 Z0.0062
G1 X-7.8879
G1 Z-0.035 F30.
G1 X-4.4065 F6.1
G2 X-4.3522 Y4.7727 I0 J-0.0625
G1 X-4.2753 Y4.6381
G3 X-4.2677 Y4.6322 I0.0109 J0.0062
G3 X-4.2582 Y4.6334 I0.0033 J0.0121
G1 X-4.2474 Y4.6396
G1 X-4.245 Y4.641 Z-0.0347
G1 X-4.2427 Y4.6423 Z-0.0338
G1 X-4.2406 Y4.6435 Z-0.0323
G1 X-4.2389 Y4.6445 Z-0.0303
G1 X-4.2376 Y4.6452 Z-0.0279
G1 X-4.2368 Y4.6457 Z-0.0253
G1 X-4.2365 Y4.6458 Z-0.0225
G0 Z0.2625
G0 X-4.2489 Y4.6675
G1 Z0.0206 F30.
G1 Z-0.0388
G1 X-4.2492 Y4.6674 Z-0.0415 F6.1
G1 X-4.25 Y4.6669 Z-0.0442
G1 X-4.2513 Y4.6662 Z-0.0465
G1 X-4.253 Y4.6652 Z-0.0485
G1 X-4.2551 Y4.664 Z-0.05
G1 X-4.2574 Y4.6627 Z-0.0509
G1 X-4.2598 Y4.6613 Z-0.0512
G1 X-4.2706 Y4.6551
G3 X-4.2753 Y4.6381 I0.0062 J-0.0109
G1 X-3.5648 Y3.3948
G2 X-3.5566 Y3.3638 I-0.0543 J-0.031
G1 Y0.8778
G2 X-3.5587 Y0.8616 I-0.0625 J0
G1 X-3.6839 Y0.3948
G2 X-3.7443 Y0.3485 I-0.0604 J0.0162
G1 X-6.2441
G1 Z0.0062
G1 X-6.4941
G1 Z-0.0512 F30.
G1 X-11.4939 F6.1
G1 Z0.0062
G1 X-11.7439
G1 Z-0.0512 F30.
G1 X-16.7437 F6.1
G1 Z0.0062
G1 X-16.9937
G1 Z-0.0512 F30.
G1 X-19.4935 F6.1
G2 X-19.5477 Y0.3798 I0 J0.0625
G1 X-19.6732 Y0.5972
G2 X-19.6816 Y0.6285 I0.0541 J0.0312
G1 Y3.3638
G2 X-19.6734 Y3.3948 I0.0625 J0
G1 X-18.8864 Y4.7727
G2 X-18.8321 Y4.8042 I0.0543 J-0.031
G1 X-15.3507
G1 Z0.0062
G1 X-15.1007
G1 Z-0.0512 F30.
G1 X-8.1379 F6.1
G1 Z0.0062
G1 X-7.8879
G1 Z-0.0512 F30.
G1 X-4.4065 F6.1
G2 X-4.3522 Y4.7727 I0 J-0.0625
G1 X-4.2753 Y4.6381
G3 X-4.2677 Y4.6322 I0.0109 J0.0062
G3 X-4.2582 Y4.6334 I0.0033 J0.0121
G1 X-4.2474 Y4.6396
G1 X-4.245 Y4.641 Z-0.0509
G1 X-4.2427 Y4.6423 Z-0.05
G1 X-4.2406 Y4.6435 Z-0.0485
G1 X-4.2389 Y4.6445 Z-0.0465
G1 X-4.2376 Y4.6452 Z-0.0442
G1 X-4.2368 Y4.6457 Z-0.0415
G1 X-4.2365 Y4.6458 Z-0.0388
G0 Z0.2625
G0 X-4.2489 Y4.6675
G1 Z0.0044 F30.
G1 Z-0.055
G1 X-4.2492 Y4.6674 Z-0.0578 F6.1
G1 X-4.25 Y4.6669 Z-0.0604
G1 X-4.2513 Y4.6662 Z-0.0628
G1 X-4.253 Y4.6652 Z-0.0648
G1 X-4.2551 Y4.664 Z-0.0663
G1 X-4.2574 Y4.6627 Z-0.0672
G1 X-4.2598 Y4.6613 Z-0.0675
G1 X-4.2706 Y4.6551
G3 X-4.2753 Y4.6381 I0.0062 J-0.0109
G1 X-3.5648 Y3.3948
G2 X-3.5566 Y3.3638 I-0.0543 J-0.031
G1 Y0.8778
G2 X-3.5587 Y0.8616 I-0.0625 J0
G1 X-3.6839 Y0.3948
G2 X-3.7443 Y0.3485 I-0.0604 J0.0162
G1 X-6.2441
G1 Z0.0062
G1 X-6.4941
G1 Z-0.0675 F30.
G1 X-11.4939 F6.1
G1 Z0.0062
G1 X-11.7439
G1 Z-0.0675 F30.
G1 X-16.7437 F6.1
G1 Z0.0062
G1 X-16.9937
G1 Z-0.0675 F30.
G1 X-19.4935 F6.1
G2 X-19.5477 Y0.3798 I0 J0.0625
G1 X-19.6732 Y0.5972
G2 X-19.6816 Y0.6285 I0.0541 J0.0312
G1 Y3.3638
G2 X-19.6734 Y3.3948 I0.0625 J0
G1 X-18.8864 Y4.7727
G2 X-18.8321 Y4.8042 I0.0543 J-0.031
G1 X-15.3507
G1 Z0.0062
G1 X-15.1007
G1 Z-0.0675 F30.
G1 X-8.1379 F6.1
G1 Z0.0062
G1 X-7.8879
G1 Z-0.0675 F30.
G1 X-4.4065 F6.1
G2 X-4.3522 Y4.7727 I0 J-0.0625
G1 X-4.2753 Y4.6381
G3 X-4.2677 Y4.6322 I0.0109 J0.0062
G3 X-4.2582 Y4.6334 I0.0033 J0.0121
G1 X-4.2474 Y4.6396
G1 X-4.245 Y4.641 Z-0.0672
G1 X-4.2427 Y4.6423 Z-0.0663
G1 X-4.2406 Y4.6435 Z-0.0648
G1 X-4.2389 Y4.6445 Z-0.0628
G1 X-4.2376 Y4.6452 Z-0.0604
G1 X-4.2368 Y4.6457 Z-0.0578
G1 X-4.2365 Y4.6458 Z-0.055
G0 Z0.2625
G0 X-4.2489 Y4.6675
G1 Z-0.0119 F30.
G1 Z-0.0713
G1 X-4.2492 Y4.6674 Z-0.074 F6.1
G1 X-4.25 Y4.6669 Z-0.0767
G1 X-4.2513 Y4.6662 Z-0.079
G1 X-4.253 Y4.6652 Z-0.081
G1 X-4.2551 Y4.664 Z-0.0825
G1 X-4.2574 Y4.6627 Z-0.0834
G1 X-4.2598 Y4.6613 Z-0.0837
G1 X-4.2706 Y4.6551
G3 X-4.2753 Y4.6381 I0.0062 J-0.0109
G1 X-3.5648 Y3.3948
G2 X-3.5566 Y3.3638 I-0.0543 J-0.031
G1 Y0.8778
G2 X-3.5587 Y0.8616 I-0.0625 J0
G1 X-3.6839 Y0.3948
G2 X-3.7443 Y0.3485 I-0.0604 J0.0162
G1 X-6.2441
G1 Z0.0062
G1 X-6.4941
G1 Z-0.0837 F30.
G1 X-11.4939 F6.1
G1 Z0.0062
G1 X-11.7439
G1 Z-0.0837 F30.
G1 X-16.7437 F6.1
G1 Z0.0062
G1 X-16.9937
G1 Z-0.0837 F30.
G1 X-19.4935 F6.1
G2 X-19.5477 Y0.3798 I0 J0.0625
G1 X-19.6732 Y0.5972
G2 X-19.6816 Y0.6285 I0.0541 J0.0312
G1 Y3.3638
G2 X-19.6734 Y3.3948 I0.0625 J0
G1 X-18.8864 Y4.7727
G2 X-18.8321 Y4.8042 I0.0543 J-0.031
G1 X-15.3507
G1 Z0.0062
G1 X-15.1007
G1 Z-0.0837 F30.
G1 X-8.1379 F6.1
G1 Z0.0062
G1 X-7.8879
G1 Z-0.0837 F30.
G1 X-4.4065 F6.1
G2 X-4.3522 Y4.7727 I0 J-0.0625
G1 X-4.2753 Y4.6381
G3 X-4.2677 Y4.6322 I0.0109 J0.0062
G3 X-4.2582 Y4.6334 I0.0033 J0.0121
G1 X-4.2474 Y4.6396
G1 X-4.245 Y4.641 Z-0.0834
G1 X-4.2427 Y4.6423 Z-0.0825
G1 X-4.2406 Y4.6435 Z-0.081
G1 X-4.2389 Y4.6445 Z-0.079
G1 X-4.2376 Y4.6452 Z-0.0767
G1 X-4.2368 Y4.6457 Z-0.074
G1 X-4.2365 Y4.6458 Z-0.0713
G0 Z0.2625
G0 X-4.2489 Y4.6675
G1 Z-0.0281 F30.
G1 Z-0.0813
G1 X-4.2492 Y4.6674 Z-0.084 F6.1
G1 X-4.25 Y4.6669 Z-0.0867
G1 X-4.2513 Y4.6662 Z-0.089
G1 X-4.253 Y4.6652 Z-0.091
G1 X-4.2551 Y4.664 Z-0.0925
G1 X-4.2574 Y4.6627 Z-0.0934
G1 X-4.2598 Y4.6613 Z-0.0937
G1 X-4.2706 Y4.6551
G3 X-4.2753 Y4.6381 I0.0062 J-0.0109
G1 X-3.5648 Y3.3948
G2 X-3.5566 Y3.3638 I-0.0543 J-0.031
G1 Y0.8778
G2 X-3.5587 Y0.8616 I-0.0625 J0
G1 X-3.6839 Y0.3948
G2 X-3.7443 Y0.3485 I-0.0604 J0.0162
G1 X-6.2441
G1 Z0.0062
G1 X-6.4941
G1 Z-0.0937 F30.
G1 X-11.4939 F6.1
G1 Z0.0062
G1 X-11.7439
G1 Z-0.0937 F30.
G1 X-16.7437 F6.1
G1 Z0.0062
G1 X-16.9937
G1 Z-0.0937 F30.
G1 X-19.4935 F6.1
G2 X-19.5477 Y0.3798 I0 J0.0625
G1 X-19.6732 Y0.5972
G2 X-19.6816 Y0.6285 I0.0541 J0.0312
G1 Y3.3638
G2 X-19.6734 Y3.3948 I0.0625 J0
G1 X-18.8864 Y4.7727
G2 X-18.8321 Y4.8042 I0.0543 J-0.031
G1 X-15.3507
G1 Z0.0062
G1 X-15.1007
G1 Z-0.0937 F30.
G1 X-8.1379 F6.1
G1 Z0.0062
G1 X-7.8879
G1 Z-0.0937 F30.
G1 X-4.4065 F6.1
G2 X-4.3522 Y4.7727 I0 J-0.0625
G1 X-4.2753 Y4.6381
G3 X-4.2677 Y4.6322 I0.0109 J0.0062
G3 X-4.2582 Y4.6334 I0.0033 J0.0121
G1 X-4.2474 Y4.6396
G1 X-4.245 Y4.641 Z-0.0934
G1 X-4.2427 Y4.6423 Z-0.0925
G1 X-4.2406 Y4.6435 Z-0.091
G1 X-4.2389 Y4.6445 Z-0.089
G1 X-4.2376 Y4.6452 Z-0.0867
G1 X-4.2368 Y4.6457 Z-0.084
G1 X-4.2365 Y4.6458 Z-0.0813
G0 Z0.2625
G0 X-2.6967 Y4.1039
G1 Z0.1181 F30.
G1 Z0.0587
G1 X-2.6965 Y4.1038 Z0.056 F6.1
G1 X-2.6957 Y4.1033 Z0.0533
G1 X-2.6944 Y4.1026 Z0.051
G1 X-2.6926 Y4.1016 Z0.049
G1 X-2.6906 Y4.1004 Z0.0475
G1 X-2.6883 Y4.0991 Z0.0466
G1 X-2.6859 Y4.0977 Z0.0462
G1 X-2.675 Y4.0915
G3 X-2.658 Y4.0962 I0.0062 J0.0109
G1 X-2.0522 Y5.1568
G2 X-1.998 Y5.1883 I0.0543 J-0.031
G1 X12.4276
G2 X12.4819 Y5.1568 I0 J-0.0625
G1 X13.2693 Y3.7788
G2 X13.2775 Y3.7478 I-0.0543 J-0.031
G1 Y1.0119
G2 X13.2692 Y0.9806 I-0.0625 J0
G1 X13.144 Y0.7638
G2 X13.0898 Y0.7326 I-0.0541 J0.0313
G1 X-2.6594
G2 X-2.7135 Y0.7638 I0 J0.0625
G1 X-2.8391 Y0.9813
G2 X-2.8475 Y1.0126 I0.0541 J0.0313
G1 Y3.7478
G2 X-2.8392 Y3.7788 I0.0625 J0
G1 X-2.658 Y4.0962
G3 X-2.6626 Y4.1133 I-0.0109 J0.0062
G1 X-2.6735 Y4.1195
G1 X-2.6759 Y4.1208 Z0.0466
G1 X-2.6782 Y4.1221 Z0.0475
G1 X-2.6802 Y4.1233 Z0.049
G1 X-2.682 Y4.1243 Z0.051
G1 X-2.6833 Y4.125 Z0.0533
G1 X-2.6841 Y4.1255 Z0.056
G1 X-2.6843 Y4.1257 Z0.0587
G0 Z0.2625
G0 X-2.6967 Y4.1039
G1 Z0.1019 F30.
G1 Z0.0425
G1 X-2.6965 Y4.1038 Z0.0397 F6.1
G1 X-2.6957 Y4.1033 Z0.0371
G1 X-2.6944 Y4.1026 Z0.0347
G1 X-2.6926 Y4.1016 Z0.0327
G1 X-2.6906 Y4.1004 Z0.0312
G1 X-2.6883 Y4.0991 Z0.0303
G1 X-2.6859 Y4.0977 Z0.03
G1 X-2.675 Y4.0915
G3 X-2.658 Y4.0962 I0.0062 J0.0109
G1 X-2.0522 Y5.1568
G2 X-1.998 Y5.1883 I0.0543 J-0.031
G1 X12.4276
G2 X12.4819 Y5.1568 I0 J-0.0625
G1 X13.2693 Y3.7788
G2 X13.2775 Y3.7478 I-0.0543 J-0.031
G1 Y1.0119
G2 X13.2692 Y0.9806 I-0.0625 J0
G1 X13.144 Y0.7638
G2 X13.0898 Y0.7326 I-0.0541 J0.0313
G1 X-2.6594
G2 X-2.7135 Y0.7638 I0 J0.0625
G1 X-2.8391 Y0.9813
G2 X-2.8475 Y1.0126 I0.0541 J0.0313
G1 Y3.7478
G2 X-2.8392 Y3.7788 I0.0625 J0
G1 X-2.658 Y4.0962
G3 X-2.6626 Y4.1133 I-0.0109 J0.0062
G1 X-2.6735 Y4.1195
G1 X-2.6759 Y4.1208 Z0.0303
G1 X-2.6782 Y4.1221 Z0.0312
G1 X-2.6802 Y4.1233 Z0.0327
G1 X-2.682 Y4.1243 Z0.0347
G1 X-2.6833 Y4.125 Z0.0371
G1 X-2.6841 Y4.1255 Z0.0397
G1 X-2.6843 Y4.1257 Z0.0425
G0 Z0.2625
G0 X-2.6967 Y4.1039
G1 Z0.0856 F30.
G1 Z0.0262
G1 X-2.6965 Y4.1038 Z0.0235 F6.1
G1 X-2.6957 Y4.1033 Z0.0208
G1 X-2.6944 Y4.1026 Z0.0185
G1 X-2.6926 Y4.1016 Z0.0165
G1 X-2.6906 Y4.1004 Z0.015
G1 X-2.6883 Y4.0991 Z0.0141
G1 X-2.6859 Y4.0977 Z0.0137
G1 X-2.675 Y4.0915
G3 X-2.658 Y4.0962 I0.0062 J0.0109
G1 X-2.0522 Y5.1568
G2 X-1.998 Y5.1883 I0.0543 J-0.031
G1 X12.4276
G2 X12.4819 Y5.1568 I0 J-0.0625
G1 X13.2693 Y3.7788
G2 X13.2775 Y3.7478 I-0.0543 J-0.031
G1 Y1.0119
G2 X13.2692 Y0.9806 I-0.0625 J0
G1 X13.144 Y0.7638
G2 X13.0898 Y0.7326 I-0.0541 J0.0313
G1 X-2.6594
G2 X-2.7135 Y0.7638 I0 J0.0625
G1 X-2.8391 Y0.9813
G2 X-2.8475 Y1.0126 I0.0541 J0.0313
G1 Y3.7478
G2 X-2.8392 Y3.7788 I0.0625 J0
G1 X-2.658 Y4.0962
G3 X-2.6626 Y4.1133 I-0.0109 J0.0062
G1 X-2.6735 Y4.1195
G1 X-2.6759 Y4.1208 Z0.0141
G1 X-2.6782 Y4.1221 Z0.015
G1 X-2.6802 Y4.1233 Z0.0165
G1 X-2.682 Y4.1243 Z0.0185
G1 X-2.6833 Y4.125 Z0.0208
G1 X-2.6841 Y4.1255 Z0.0235
G1 X-2.6843 Y4.1257 Z0.0262
G0 Z0.2625
G0 X-2.6967 Y4.1039
G1 Z0.0694 F30.
G1 Z0.01
G1 X-2.6965 Y4.1038 Z0.0072 F6.1
G1 X-2.6957 Y4.1033 Z0.0046
G1 X-2.6944 Y4.1026 Z0.0022
G1 X-2.6926 Y4.1016 Z0.0002
G1 X-2.6906 Y4.1004 Z-0.0013
G1 X-2.6883 Y4.0991 Z-0.0022
G1 X-2.6859 Y4.0977 Z-0.0025
G1 X-2.675 Y4.0915
G3 X-2.658 Y4.0962 I0.0062 J0.0109
G1 X-2.0522 Y5.1568
G2 X-1.998 Y5.1883 I0.0543 J-0.031
G1 X1.4834
G1 Z0.0062
G1 X1.7334
G1 Z-0.0025 F30.
G1 X8.6962 F6.1
G1 Z0.0062
G1 X8.9462
G1 Z-0.0025 F30.
G1 X12.4276 F6.1
G2 X12.4819 Y5.1568 I0 J-0.0625
G1 X13.2693 Y3.7788
G2 X13.2775 Y3.7478 I-0.0543 J-0.031
G1 Y1.0119
G2 X13.2692 Y0.9806 I-0.0625 J0
G1 X13.144 Y0.7638
G2 X13.0898 Y0.7326 I-0.0541 J0.0313
G1 X10.59
G1 Z0.0062
G1 X10.34
G1 Z-0.0025 F30.
G1 X5.3402 F6.1
G1 Z0.0062
G1 X5.0902
G1 Z-0.0025 F30.
G1 X0.0905 F6.1
G1 Z0.0062
G1 X-0.1595
G1 Z-0.0025 F30.
G1 X-2.6594 F6.1
G2 X-2.7135 Y0.7638 I0 J0.0625
G1 X-2.8391 Y0.9813
G2 X-2.8475 Y1.0126 I0.0541 J0.0313
G1 Y3.7478
G2 X-2.8392 Y3.7788 I0.0625 J0
G1 X-2.658 Y4.0962
G3 X-2.6626 Y4.1133 I-0.0109 J0.0062
G1 X-2.6735 Y4.1195
G1 X-2.6759 Y4.1208 Z-0.0022
G1 X-2.6782 Y4.1221 Z-0.0013
G1 X-2.6802 Y4.1233 Z0.0002
G1 X-2.682 Y4.1243 Z0.0022
G1 X-2.6833 Y4.125 Z0.0046
G1 X-2.6841 Y4.1255 Z0.0072
G1 X-2.6843 Y4.1257 Z0.01
G0 Z0.2625
G0 X-2.6967 Y4.1039
G1 Z0.0531 F30.
G1 Z-0.0063
G1 X-2.6965 Y4.1038 Z-0.009 F6.1
G1 X-2.6957 Y4.1033 Z-0.0117
G1 X-2.6944 Y4.1026 Z-0.014
G1 X-2.6926 Y4.1016 Z-0.016
G1 X-2.6906 Y4.1004 Z-0.0175
G1 X-2.6883 Y4.0991 Z-0.0184
G1 X-2.6859 Y4.0977 Z-0.0187
G1 X-2.675 Y4.0915
G3 X-2.658 Y4.0962 I0.0062 J0.0109
G1 X-2.0522 Y5.1568
G2 X-1.998 Y5.1883 I0.0543 J-0.031
G1 X1.4834
G1 Z0.0062
G1 X1.7334
G1 Z-0.0187 F30.
G1 X8.6962 F6.1
G1 Z0.0062
G1 X8.9462
G1 Z-0.0187 F30.
G1 X12.4276 F6.1
G2 X12.4819 Y5.1568 I0 J-0.0625
G1 X13.2693 Y3.7788
G2 X13.2775 Y3.7478 I-0.0543 J-0.031
G1 Y1.0119
G2 X13.2692 Y0.9806 I-0.0625 J0
G1 X13.144 Y0.7638
G2 X13.0898 Y0.7326 I-0.0541 J0.0313
G1 X10.59
G1 Z0.0062
G1 X10.34
G1 Z-0.0187 F30.
G1 X5.3402 F6.1
G1 Z0.0062
G1 X5.0902
G1 Z-0.0187 F30.
G1 X0.0905 F6.1
G1 Z0.0062
G1 X-0.1595
G1 Z-0.0187 F30.
G1 X-2.6594 F6.1
G2 X-2.7135 Y0.7638 I0 J0.0625
G1 X-2.8391 Y0.9813
G2 X-2.8475 Y1.0126 I0.0541 J0.0313
G1 Y3.7478
G2 X-2.8392 Y3.7788 I0.0625 J0
G1 X-2.658 Y4.0962
G3 X-2.6626 Y4.1133 I-0.0109 J0.0062
G1 X-2.6735 Y4.1195
G1 X-2.6759 Y4.1208 Z-0.0184
G1 X-2.6782 Y4.1221 Z-0.0175
G1 X-2.6802 Y4.1233 Z-0.016
G1 X-2.682 Y4.1243 Z-0.014
G1 X-2.6833 Y4.125 Z-0.0117
G1 X-2.6841 Y4.1255 Z-0.009
G1 X-2.6843 Y4.1257 Z-0.0063
G0 Z0.2625
G0 X-2.6967 Y4.1039
G1 Z0.0369 F30.
G1 Z-0.0225
G1 X-2.6965 Y4.1038 Z-0.0253 F6.1
G1 X-2.6957 Y4.1033 Z-0.0279
G1 X-2.6944 Y4.1026 Z-0.0303
G1 X-2.6926 Y4.1016 Z-0.0323
G1 X-2.6906 Y4.1004 Z-0.0338
G1 X-2.6883 Y4.0991 Z-0.0347
G1 X-2.6859 Y4.0977 Z-0.035
G1 X-2.675 Y4.0915
G3 X-2.658 Y4.0962 I0.0062 J0.0109
G1 X-2.0522 Y5.1568
G2 X-1.998 Y5.1883 I0.0543 J-0.031
G1 X1.4834
G1 Z0.0062
G1 X1.7334
G1 Z-0.035 F30.
G1 X8.6962 F6.1
G1 Z0.0062
G1 X8.9462
G1 Z-0.035 F30.
G1 X12.4276 F6.1
G2 X12.4819 Y5.1568 I0 J-0.0625
G1 X13.2693 Y3.7788
G2 X13.2775 Y3.7478 I-0.0543 J-0.031
G1 Y1.0119
G2 X13.2692 Y0.9806 I-0.0625 J0
G1 X13.144 Y0.7638
G2 X13.0898 Y0.7326 I-0.0541 J0.0313
G1 X10.59
G1 Z0.0062
G1 X10.34
G1 Z-0.035 F30.
G1 X5.3402 F6.1
G1 Z0.0062
G1 X5.0902
G1 Z-0.035 F30.
G1 X0.0905 F6.1
G1 Z0.0062
G1 X-0.1595
G1 Z-0.035 F30.
G1 X-2.6594 F6.1
G2 X-2.7135 Y0.7638 I0 J0.0625
G1 X-2.8391 Y0.9813
G2 X-2.8475 Y1.0126 I0.0541 J0.0313
G1 Y3.7478
G2 X-2.8392 Y3.7788 I0.0625 J0
G1 X-2.658 Y4.0962
G3 X-2.6626 Y4.1133 I-0.0109 J0.0062
G1 X-2.6735 Y4.1195
G1 X-2.6759 Y4.1208 Z-0.0347
G1 X-2.6782 Y4.1221 Z-0.0338
G1 X-2.6802 Y4.1233 Z-0.0323
G1 X-2.682 Y4.1243 Z-0.0303
G1 X-2.6833 Y4.125 Z-0.0279
G1 X-2.6841 Y4.1255 Z-0.0253
G1 X-2.6843 Y4.1257 Z-0.0225
G0 Z0.2625
G0 X-2.6967 Y4.1039
G1 Z0.0206 F30.
G1 Z-0.0388
G1 X-2.6965 Y4.1038 Z-0.0415 F6.1
G1 X-2.6957 Y4.1033 Z-0.0442
G1 X-2.6944 Y4.1026 Z-0.0465
G1 X-2.6926 Y4.1016 Z-0.0485
G1 X-2.6906 Y4.1004 Z-0.05
G1 X-2.6883 Y4.0991 Z-0.0509
G1 X-2.6859 Y4.0977 Z-0.0512
G1 X-2.675 Y4.0915
G3 X-2.658 Y4.0962 I0.0062 J0.0109
G1 X-2.0522 Y5.1568
G2 X-1.998 Y5.1883 I0.0543 J-0.031
G1 X1.4834
G1 Z0.0062
G1 X1.7334
G1 Z-0.0512 F30.
G1 X8.6962 F6.1
G1 Z0.0062
G1 X8.9462
G1 Z-0.0512 F30.
G1 X12.4276 F6.1
G2 X12.4819 Y5.1568 I0 J-0.0625
G1 X13.2693 Y3.7788
G2 X13.2775 Y3.7478 I-0.0543 J-0.031
G1 Y1.0119
G2 X13.2692 Y0.9806 I-0.0625 J0
G1 X13.144 Y0.7638
G2 X13.0898 Y0.7326 I-0.0541 J0.0313
G1 X10.59
G1 Z0.0062
G1 X10.34
G1 Z-0.0512 F30.
G1 X5.3402 F6.1
G1 Z0.0062
G1 X5.0902
G1 Z-0.0512 F30.
G1 X0.0905 F6.1
G1 Z0.0062
G1 X-0.1595
G1 Z-0.0512 F30.
G1 X-2.6594 F6.1
G2 X-2.7135 Y0.7638 I0 J0.0625
G1 X-2.8391 Y0.9813
G2 X-2.8475 Y1.0126 I0.0541 J0.0313
G1 Y3.7478
G2 X-2.8392 Y3.7788 I0.0625 J0
G1 X-2.658 Y4.0962
G3 X-2.6626 Y4.1133 I-0.0109 J0.0062
G1 X-2.6735 Y4.1195
G1 X-2.6759 Y4.1208 Z-0.0509
G1 X-2.6782 Y4.1221 Z-0.05
G1 X-2.6802 Y4.1233 Z-0.0485
G1 X-2.682 Y4.1243 Z-0.0465
G1 X-2.6833 Y4.125 Z-0.0442
G1 X-2.6841 Y4.1255 Z-0.0415
G1 X-2.6843 Y4.1257 Z-0.0388
G0 Z0.2625
G0 X-2.6967 Y4.1039
G1 Z0.0044 F30.
G1 Z-0.055
G1 X-2.6965 Y4.1038 Z-0.0578 F6.1
G1 X-2.6957 Y4.1033 Z-0.0604
G1 X-2.6944 Y4.1026 Z-0.0628
G1 X-2.6926 Y4.1016 Z-0.0648
G1 X-2.6906 Y4.1004 Z-0.0663
G1 X-2.6883 Y4.0991 Z-0.0672
G1 X-2.6859 Y4.0977 Z-0.0675
G1 X-2.675 Y4.0915
G3 X-2.658 Y4.0962 I0.0062 J0.0109
G1 X-2.0522 Y5.1568
G2 X-1.998 Y5.1883 I0.0543 J-0.031
G1 X1.4834
G1 Z0.0062
G1 X1.7334
G1 Z-0.0675 F30.
G1 X8.6962 F6.1
G1 Z0.0062
G1 X8.9462
G1 Z-0.0675 F30.
G1 X12.4276 F6.1
G2 X12.4819 Y5.1568 I0 J-0.0625
G1 X13.2693 Y3.7788
G2 X13.2775 Y3.7478 I-0.0543 J-0.031
G1 Y1.0119
G2 X13.2692 Y0.9806 I-0.0625 J0
G1 X13.144 Y0.7638
G2 X13.0898 Y0.7326 I-0.0541 J0.0313
G1 X10.59
G1 Z0.0062
G1 X10.34
G1 Z-0.0675 F30.
G1 X5.3402 F6.1
G1 Z0.0062
G1 X5.0902
G1 Z-0.0675 F30.
G1 X0.0905 F6.1
G1 Z0.0062
G1 X-0.1595
G1 Z-0.0675 F30.
G1 X-2.6594 F6.1
G2 X-2.7135 Y0.7638 I0 J0.0625
G1 X-2.8391 Y0.9813
G2 X-2.8475 Y1.0126 I0.0541 J0.0313
G1 Y3.7478
G2 X-2.8392 Y3.7788 I0.0625 J0
G1 X-2.658 Y4.0962
G3 X-2.6626 Y4.1133 I-0.0109 J0.0062
G1 X-2.6735 Y4.1195
G1 X-2.6759 Y4.1208 Z-0.0672
G1 X-2.6782 Y4.1221 Z-0.0663
G1 X-2.6802 Y4.1233 Z-0.0648
G1 X-2.682 Y4.1243 Z-0.0628
G1 X-2.6833 Y4.125 Z-0.0604
G1 X-2.6841 Y4.1255 Z-0.0578
G1 X-2.6843 Y4.1257 Z-0.055
G0 Z0.2625
G0 X-2.6967 Y4.1039
G1 Z-0.0119 F30.
G1 Z-0.0713
G1 X-2.6965 Y4.1038 Z-0.074 F6.1
G1 X-2.6957 Y4.1033 Z-0.0767
G1 X-2.6944 Y4.1026 Z-0.079
G1 X-2.6926 Y4.1016 Z-0.081
G1 X-2.6906 Y4.1004 Z-0.0825
G1 X-2.6883 Y4.0991 Z-0.0834
G1 X-2.6859 Y4.0977 Z-0.0837
G1 X-2.675 Y4.0915
G3 X-2.658 Y4.0962 I0.0062 J0.0109
G1 X-2.0522 Y5.1568
G2 X-1.998 Y5.1883 I0.0543 J-0.031
G1 X1.4834
G1 Z0.0062
G1 X1.7334
G1 Z-0.0837 F30.
G1 X8.6962 F6.1
G1 Z0.0062
G1 X8.9462
G1 Z-0.0837 F30.
G1 X12.4276 F6.1
G2 X12.4819 Y5.1568 I0 J-0.0625
G1 X13.2693 Y3.7788
G2 X13.2775 Y3.7478 I-0.0543 J-0.031
G1 Y1.0119
G2 X13.2692 Y0.9806 I-0.0625 J0
G1 X13.144 Y0.7638
G2 X13.0898 Y0.7326 I-0.0541 J0.0313
G1 X10.59
G1 Z0.0062
G1 X10.34
G1 Z-0.0837 F30.
G1 X5.3402 F6.1
G1 Z0.0062
G1 X5.0902
G1 Z-0.0837 F30.
G1 X0.0905 F6.1
G1 Z0.0062
G1 X-0.1595
G1 Z-0.0837 F30.
G1 X-2.6594 F6.1
G2 X-2.7135 Y0.7638 I0 J0.0625
G1 X-2.8391 Y0.9813
G2 X-2.8475 Y1.0126 I0.0541 J0.0313
G1 Y3.7478
G2 X-2.8392 Y3.7788 I0.0625 J0
G1 X-2.658 Y4.0962
G3 X-2.6626 Y4.1133 I-0.0109 J0.0062
G1 X-2.6735 Y4.1195
G1 X-2.6759 Y4.1208 Z-0.0834
G1 X-2.6782 Y4.1221 Z-0.0825
G1 X-2.6802 Y4.1233 Z-0.081
G1 X-2.682 Y4.1243 Z-0.079
G1 X-2.6833 Y4.125 Z-0.0767
G1 X-2.6841 Y4.1255 Z-0.074
G1 X-2.6843 Y4.1257 Z-0.0713
G0 Z0.2625
G0 X-2.6967 Y4.1039
G1 Z-0.0281 F30.
G1 Z-0.0813
G1 X-2.6965 Y4.1038 Z-0.084 F6.1
G1 X-2.6957 Y4.1033 Z-0.0867
G1 X-2.6944 Y4.1026 Z-0.089
G1 X-2.6926 Y4.1016 Z-0.091
G1 X-2.6906 Y4.1004 Z-0.0925
G1 X-2.6883 Y4.0991 Z-0.0934
G1 X-2.6859 Y4.0977 Z-0.0937
G1 X-2.675 Y4.0915
G3 X-2.658 Y4.0962 I0.0062 J0.0109
G1 X-2.0522 Y5.1568
G2 X-1.998 Y5.1883 I0.0543 J-0.031
G1 X1.4834
G1 Z0.0062
G1 X1.7334
G1 Z-0.0937 F30.
G1 X8.6962 F6.1
G1 Z0.0062
G1 X8.9462
G1 Z-0.0937 F30.
G1 X12.4276 F6.1
G2 X12.4819 Y5.1568 I0 J-0.0625
G1 X13.2693 Y3.7788
G2 X13.2775 Y3.7478 I-0.0543 J-0.031
G1 Y1.0119
G2 X13.2692 Y0.9806 I-0.0625 J0
G1 X13.144 Y0.7638
G2 X13.0898 Y0.7326 I-0.0541 J0.0313
G1 X10.59
G1 Z0.0062
G1 X10.34
G1 Z-0.0937 F30.
G1 X5.3402 F6.1
G1 Z0.0062
G1 X5.0902
G1 Z-0.0937 F30.
G1 X0.0905 F6.1
G1 Z0.0062
G1 X-0.1595
G1 Z-0.0937 F30.
G1 X-2.6594 F6.1
G2 X-2.7135 Y0.7638 I0 J0.0625
G1 X-2.8391 Y0.9813
G2 X-2.8475 Y1.0126 I0.0541 J0.0313
G1 Y3.7478
G2 X-2.8392 Y3.7788 I0.0625 J0
G1 X-2.658 Y4.0962
G3 X-2.6626 Y4.1133 I-0.0109 J0.0062
G1 X-2.6735 Y4.1195
G1 X-2.6759 Y4.1208 Z-0.0934
G1 X-2.6782 Y4.1221 Z-0.0925
G1 X-2.6802 Y4.1233 Z-0.091
G1 X-2.682 Y4.1243 Z-0.089
G1 X-2.6833 Y4.125 Z-0.0867
G1 X-2.6841 Y4.1255 Z-0.084
G1 X-2.6843 Y4.1257 Z-0.0813
G0 Z0.6625

M5
M30
