(1001)
(T1  D=0.125 CR=0 - ZMIN=-0.125 - FLAT END MILL)
G0 G40 G90 G17
G20

(DRILL2)
T1 M6
M3 S2440
G0 X-17.9181 Y0.5685
G0 Z0.6625
G0 Z0.2625
G1 Z-0.125 F30.
G0 Z0.2625
G0 X-17.2882
G1 Z-0.125 F30.
G0 Z0.2625
G0 X-16.6583
G1 Z-0.125 F30.
G0 Z0.2625
G0 X-16.0283
G1 Z-0.125 F30.
G0 Z0.2625
G0 X-15.3984
G1 Z-0.125 F30.
G0 Z0.2625
G0 X-14.7685
G1 Z-0.125 F30.
G0 Z0.2625
G0 X-14.1386
G1 Z-0.125 F30.
G0 Z0.2625
G0 X-13.5087
G1 Z-0.125 F30.
G0 Z0.2625
G0 X-12.8787
G1 Z-0.125 F30.
G0 Z0.2625
G0 X-12.2488
G1 Z-0.125 F30.
G0 Z0.2625
G0 X-11.6189
G1 Z-0.125 F30.
G0 Z0.2625
G0 X-10.989
G1 Z-0.125 F30.
G0 Z0.2625
G0 X-10.3591
G1 Z-0.125 F30.
G0 Z0.2625
G0 X-9.7291
G1 Z-0.125 F30.
G0 Z0.2625
G0 X-9.0992
G1 Z-0.125 F30.
G0 Z0.2625
G0 X-8.4693
G1 Z-0.125 F30.
G0 Z0.2625
G0 X-7.8394
G1 Z-0.125 F30.
G0 Z0.2625
G0 X-7.2095
G1 Z-0.125 F30.
G0 Z0.2625
G0 X-6.5795
G1 Z-0.125 F30.
G0 Z0.2625
G0 X-5.9496
G1 Z-0.125 F30.
G0 Z0.2625
G0 X-5.3197
G1 Z-0.125 F30.
G0 Z0.2625
G0 X-8.8635 Y1.474
G1 Z-0.125 F30.
G0 Z0.2625
G0 X-9.1785 Y1.789
G1 Z-0.125 F30.
G0 Z0.2625
G0 X-8.8635 Y2.1039
G1 Z-0.125 F30.
G0 Z0.2625
G0 X-9.0996 Y3.0882
G1 Z-0.125 F30.
G0 Z0.2625
G0 Y3.4031
G1 Z-0.125 F30.
G0 Z0.2625
G0 Y3.7181
G1 Z-0.125 F30.
G0 Z0.2625
G0 Y4.033
G1 Z-0.125 F30.
G0 Z0.2625
G0 Y4.348
G1 Z-0.125 F30.
G0 Z0.2625
G0 X-10.9894 Y4.5449
G1 Z-0.125 F30.
G0 Z0.2625
G0 X-11.3043
G1 Z-0.125 F30.
G0 Z0.2625
G0 X-11.6193
G1 Z-0.125 F30.
G0 Z0.2625
G0 X-11.9343
G1 Z-0.125 F30.
G0 Z0.2625
G0 X-12.2492
G1 Z-0.125 F30.
G0 Z0.2625
G0 X-13.92 Y3.6787
G1 Z-0.125 F30.
G0 Z0.2625
G0 X-13.605 Y3.3638
G1 Z-0.125 F30.
G0 Z0.2625
G0 X-13.92 Y3.0488
G1 Z-0.125 F30.
G0 Z0.2625
G0 X-17.9181 Y5.3185
G1 Z-0.125 F30.
G0 Z0.2625
G0 X-17.2882
G1 Z-0.125 F30.
G0 Z0.2625
G0 X-16.6583
G1 Z-0.125 F30.
G0 Z0.2625
G0 X-16.0283
G1 Z-0.125 F30.
G0 Z0.2625
G0 X-15.3984
G1 Z-0.125 F30.
G0 Z0.2625
G0 X-14.7685
G1 Z-0.125 F30.
G0 Z0.2625
G0 X-14.1386
G1 Z-0.125 F30.
G0 Z0.2625
G0 X-13.5087
G1 Z-0.125 F30.
G0 Z0.2625
G0 X-12.8787
G1 Z-0.125 F30.
G0 Z0.2625
G0 X-12.2488
G1 Z-0.125 F30.
G0 Z0.2625
G0 X-11.6189
G1 Z-0.125 F30.
G0 Z0.2625
G0 X-10.989
G1 Z-0.125 F30.
G0 Z0.2625
G0 X-10.3591
G1 Z-0.125 F30.
G0 Z0.2625
G0 X-9.7291
G1 Z-0.125 F30.
G0 Z0.2625
G0 X-9.0992
G1 Z-0.125 F30.
G0 Z0.2625
G0 X-8.4693
G1 Z-0.125 F30.
G0 Z0.2625
G0 X-7.8394
G1 Z-0.125 F30.
G0 Z0.2625
G0 X-7.2095
G1 Z-0.125 F30.
G0 Z0.2625
G0 X-6.5795
G1 Z-0.125 F30.
G0 Z0.2625
G0 X-5.9496
G1 Z-0.125 F30.
G0 Z0.2625
G0 X-5.3197
G1 Z-0.125 F30.
G0 Z0.2625
G0 X-4.6902 Y4.348
G1 Z-0.125 F30.
G0 Z0.2625
G0 Y4.033
G1 Z-0.125 F30.
G0 Z0.2625
G0 Y3.7181
G1 Z-0.125 F30.
G0 Z0.2625
G0 Y3.4031
G1 Z-0.125 F30.
G0 Z0.2625
G0 Y3.0882
G1 Z-0.125 F30.
G0 Z0.2625
G0 X-6.8949
G1 Z-0.125 F30.
G0 Z0.2625
G0 Y3.4031
G1 Z-0.125 F30.
G0 Z0.2625
G0 Y3.7181
G1 Z-0.125 F30.
G0 Z0.2625
G0 Y4.033
G1 Z-0.125 F30.
G0 Z0.2625
G0 Y4.348
G1 Z-0.125 F30.
G0 Z0.2625
G0 X-8.8635 Y6.224
G1 Z-0.125 F30.
G0 Z0.2625
G0 X-9.1785 Y6.539
G1 Z-0.125 F30.
G0 Z0.2625
G0 X-8.8635 Y6.8539
G1 Z-0.125 F30.
G0 Z0.2625
G0 X-9.0996 Y7.8382
G1 Z-0.125 F30.
G0 Z0.2625
G0 Y8.1531
G1 Z-0.125 F30.
G0 Z0.2625
G0 Y8.4681
G1 Z-0.125 F30.
G0 Z0.2625
G0 Y8.783
G1 Z-0.125 F30.
G0 Z0.2625
G0 Y9.098
G1 Z-0.125 F30.
G0 Z0.2625
G0 X-10.9894 Y9.2949
G1 Z-0.125 F30.
G0 Z0.2625
G0 X-11.3043
G1 Z-0.125 F30.
G0 Z0.2625
G0 X-11.6193
G1 Z-0.125 F30.
G0 Z0.2625
G0 X-11.9343
G1 Z-0.125 F30.
G0 Z0.2625
G0 X-12.2492
G1 Z-0.125 F30.
G0 Z0.2625
G0 X-12.4353 Y11.0092
G1 Z-0.125 F30.
G0 Z0.2625
G0 X-12.7896
G1 Z-0.125 F30.
G0 Z0.2625
G0 Y11.9541
G1 Z-0.125 F30.
G0 Z0.2625
G0 X-12.4353
G1 Z-0.125 F30.
G0 Z0.2625
G0 X-13.9229 Y12.7415
G1 Z-0.125 F30.
G0 Z0.2625
G0 X-13.608 Y13.0564
G1 Z-0.125 F30.
G0 Z0.2625
G0 X-13.9229 Y13.3714
G1 Z-0.125 F30.
G0 Z0.2625
G0 X-12.4353 Y15.7592
G1 Z-0.125 F30.
G0 Z0.2625
G0 X-12.7896
G1 Z-0.125 F30.
G0 Z0.2625
G0 Y16.7041
G1 Z-0.125 F30.
G0 Z0.2625
G0 X-12.4353
G1 Z-0.125 F30.
G0 Z0.2625
G0 X-13.9229 Y17.4915
G1 Z-0.125 F30.
G0 Z0.2625
G0 X-13.608 Y17.8064
G1 Z-0.125 F30.
G0 Z0.2625
G0 X-13.9229 Y18.1214
G1 Z-0.125 F30.
G0 Z0.2625
G0 X-10.3541 Y18.2789
G1 Z-0.125 F30.
G0 Z0.2625
G0 X-9.9998
G1 Z-0.125 F30.
G0 Z0.2625
G0 Y17.334
G1 Z-0.125 F30.
G0 Z0.2625
G0 X-10.3541
G1 Z-0.125 F30.
G0 Z0.2625
G0 X-8.8665 Y16.5466
G1 Z-0.125 F30.
G0 Z0.2625
G0 X-9.1814 Y16.2316
G1 Z-0.125 F30.
G0 Z0.2625
G0 X-8.8665 Y15.9167
G1 Z-0.125 F30.
G0 Z0.2625
G0 X-10.3541 Y13.5289
G1 Z-0.125 F30.
G0 Z0.2625
G0 X-9.9998
G1 Z-0.125 F30.
G0 Z0.2625
G0 Y12.584
G1 Z-0.125 F30.
G0 Z0.2625
G0 X-10.3541
G1 Z-0.125 F30.
G0 Z0.2625
G0 X-8.8665 Y11.7966
G1 Z-0.125 F30.
G0 Z0.2625
G0 X-9.1814 Y11.4816
G1 Z-0.125 F30.
G0 Z0.2625
G0 X-8.8665 Y11.1667
G1 Z-0.125 F30.
G0 Z0.2625
G0 X-6.8949 Y9.098
G1 Z-0.125 F30.
G0 Z0.2625
G0 Y8.783
G1 Z-0.125 F30.
G0 Z0.2625
G0 Y8.4681
G1 Z-0.125 F30.
G0 Z0.2625
G0 Y8.1531
G1 Z-0.125 F30.
G0 Z0.2625
G0 Y7.8382
G1 Z-0.125 F30.
G0 Z0.2625
G0 X-4.6902
G1 Z-0.125 F30.
G0 Z0.2625
G0 Y8.1531
G1 Z-0.125 F30.
G0 Z0.2625
G0 Y8.4681
G1 Z-0.125 F30.
G0 Z0.2625
G0 Y8.783
G1 Z-0.125 F30.
G0 Z0.2625
G0 Y9.098
G1 Z-0.125 F30.
G0 Z0.2625
G0 X-5.3226 Y10.2612
G1 Z-0.125 F30.
G0 Z0.2625
G0 X-5.9525
G1 Z-0.125 F30.
G0 Z0.2625
G0 X-6.5825
G1 Z-0.125 F30.
G0 Z0.2625
G0 X-7.2124
G1 Z-0.125 F30.
G0 Z0.2625
G0 X-7.8423
G1 Z-0.125 F30.
G0 Z0.2625
G0 X-8.4722
G1 Z-0.125 F30.
G0 Z0.2625
G0 X-9.1022
G1 Z-0.125 F30.
G0 Z0.2625
G0 X-9.7321
G1 Z-0.125 F30.
G0 Z0.2625
G0 X-10.362
G1 Z-0.125 F30.
G0 Z0.2625
G0 X-10.9919
G1 Z-0.125 F30.
G0 Z0.2625
G0 X-11.6218
G1 Z-0.125 F30.
G0 Z0.2625
G0 X-12.2518
G1 Z-0.125 F30.
G0 Z0.2625
G0 X-12.8817
G1 Z-0.125 F30.
G0 Z0.2625
G0 X-13.5116
G1 Z-0.125 F30.
G0 Z0.2625
G0 X-14.1415
G1 Z-0.125 F30.
G0 Z0.2625
G0 X-14.7714
G1 Z-0.125 F30.
G0 Z0.2625
G0 X-15.4014
G1 Z-0.125 F30.
G0 Z0.2625
G0 X-16.0313
G1 Z-0.125 F30.
G0 Z0.2625
G0 X-16.6612
G1 Z-0.125 F30.
G0 Z0.2625
G0 X-17.2911
G1 Z-0.125 F30.
G0 Z0.2625
G0 X-17.9211
G1 Z-0.125 F30.
G0 Z0.2625
G0 X-13.92 Y8.4287
G1 Z-0.125 F30.
G0 Z0.2625
G0 X-13.605 Y8.1138
G1 Z-0.125 F30.
G0 Z0.2625
G0 X-13.92 Y7.7988
G1 Z-0.125 F30.
G0 Z0.2625
G0 X-17.9211 Y15.0112
G1 Z-0.125 F30.
G0 Z0.2625
G0 X-17.2911
G1 Z-0.125 F30.
G0 Z0.2625
G0 X-16.6612
G1 Z-0.125 F30.
G0 Z0.2625
G0 X-16.0313
G1 Z-0.125 F30.
G0 Z0.2625
G0 X-15.4014
G1 Z-0.125 F30.
G0 Z0.2625
G0 X-14.7714
G1 Z-0.125 F30.
G0 Z0.2625
G0 X-14.1415
G1 Z-0.125 F30.
G0 Z0.2625
G0 X-13.5116
G1 Z-0.125 F30.
G0 Z0.2625
G0 X-12.8817
G1 Z-0.125 F30.
G0 Z0.2625
G0 X-12.2518
G1 Z-0.125 F30.
G0 Z0.2625
G0 X-11.6218
G1 Z-0.125 F30.
G0 Z0.2625
G0 X-10.9919
G1 Z-0.125 F30.
G0 Z0.2625
G0 X-10.362
G1 Z-0.125 F30.
G0 Z0.2625
G0 X-9.7321
G1 Z-0.125 F30.
G0 Z0.2625
G0 X-9.1022
G1 Z-0.125 F30.
G0 Z0.2625
G0 X-8.4722
G1 Z-0.125 F30.
G0 Z0.2625
G0 X-7.8423
G1 Z-0.125 F30.
G0 Z0.2625
G0 X-7.2124
G1 Z-0.125 F30.
G0 Z0.2625
G0 X-6.5825
G1 Z-0.125 F30.
G0 Z0.2625
G0 X-5.9525
G1 Z-0.125 F30.
G0 Z0.2625
G0 X-5.3226
G1 Z-0.125 F30.
G0 Z0.2625
G0 Z0.6625

(2D CONTOUR1)
G0 X-3.8547 Y10.3429
G0 Z0.6625
G0 Z0.2625
G1 Z0.1181 F30.
G1 Z0.0587
G1 X-3.8544 Z0.056 F6.1
G1 X-3.8535 Z0.0533
G1 X-3.852 Z0.051
G1 X-3.85 Z0.049
G1 X-3.8477 Z0.0475
G1 X-3.845 Z0.0466
G1 X-3.8422 Z0.0462
G1 X-3.8297
G3 X-3.8172 Y10.3554 I0 J0.0125
G3 X-3.8925 Y10.4307 I-0.0753 J0
G3 X-3.9678 Y10.3554 I0 J-0.0753
G3 X-3.8925 Y10.2801 I0.0753 J0
G3 X-3.8172 Y10.3554 I0 J0.0753
G3 X-3.8297 Y10.3679 I-0.0125 J0
G1 X-3.8422
G1 X-3.845 Z0.0466
G1 X-3.8477 Z0.0475
G1 X-3.85 Z0.049
G1 X-3.852 Z0.051
G1 X-3.8535 Z0.0533
G1 X-3.8544 Z0.056
G1 X-3.8547 Z0.0587
G0 Z0.2625
G0 Y10.3429
G1 Z0.1019 F30.
G1 Z0.0425
G1 X-3.8544 Z0.0397 F6.1
G1 X-3.8535 Z0.0371
G1 X-3.852 Z0.0347
G1 X-3.85 Z0.0327
G1 X-3.8477 Z0.0312
G1 X-3.845 Z0.0303
G1 X-3.8422 Z0.03
G1 X-3.8297
G3 X-3.8172 Y10.3554 I0 J0.0125
G3 X-3.8925 Y10.4307 I-0.0753 J0
G3 X-3.9678 Y10.3554 I0 J-0.0753
G3 X-3.8925 Y10.2801 I0.0753 J0
G3 X-3.8172 Y10.3554 I0 J0.0753
G3 X-3.8297 Y10.3679 I-0.0125 J0
G1 X-3.8422
G1 X-3.845 Z0.0303
G1 X-3.8477 Z0.0312
G1 X-3.85 Z0.0327
G1 X-3.852 Z0.0347
G1 X-3.8535 Z0.0371
G1 X-3.8544 Z0.0397
G1 X-3.8547 Z0.0425
G0 Z0.2625
G0 Y10.3429
G1 Z0.0856 F30.
G1 Z0.0262
G1 X-3.8544 Z0.0235 F6.1
G1 X-3.8535 Z0.0208
G1 X-3.852 Z0.0185
G1 X-3.85 Z0.0165
G1 X-3.8477 Z0.015
G1 X-3.845 Z0.0141
G1 X-3.8422 Z0.0137
G1 X-3.8297
G3 X-3.8172 Y10.3554 I0 J0.0125
G3 X-3.8925 Y10.4307 I-0.0753 J0
G3 X-3.9678 Y10.3554 I0 J-0.0753
G3 X-3.8925 Y10.2801 I0.0753 J0
G3 X-3.8172 Y10.3554 I0 J0.0753
G3 X-3.8297 Y10.3679 I-0.0125 J0
G1 X-3.8422
G1 X-3.845 Z0.0141
G1 X-3.8477 Z0.015
G1 X-3.85 Z0.0165
G1 X-3.852 Z0.0185
G1 X-3.8535 Z0.0208
G1 X-3.8544 Z0.0235
G1 X-3.8547 Z0.0262
G0 Z0.2625
G0 Y10.3429
G1 Z0.0694 F30.
G1 Z0.01
G1 X-3.8544 Z0.0072 F6.1
G1 X-3.8535 Z0.0046
G1 X-3.852 Z0.0022
G1 X-3.85 Z0.0002
G1 X-3.8477 Z-0.0013
G1 X-3.845 Z-0.0022
G1 X-3.8422 Z-0.0025
G1 X-3.8297
G3 X-3.8172 Y10.3554 I0 J0.0125
G3 X-3.8925 Y10.4307 I-0.0753 J0
G3 X-3.9678 Y10.3554 I0 J-0.0753
G3 X-3.8925 Y10.2801 I0.0753 J0
G3 X-3.8172 Y10.3554 I0 J0.0753
G3 X-3.8297 Y10.3679 I-0.0125 J0
G1 X-3.8422
G1 X-3.845 Z-0.0022
G1 X-3.8477 Z-0.0013
G1 X-3.85 Z0.0002
G1 X-3.852 Z0.0022
G1 X-3.8535 Z0.0046
G1 X-3.8544 Z0.0072
G1 X-3.8547 Z0.01
G0 Z0.2625
G0 Y10.3429
G1 Z0.0531 F30.
G1 Z-0.0063
G1 X-3.8544 Z-0.009 F6.1
G1 X-3.8535 Z-0.0117
G1 X-3.852 Z-0.014
G1 X-3.85 Z-0.016
G1 X-3.8477 Z-0.0175
G1 X-3.845 Z-0.0184
G1 X-3.8422 Z-0.0187
G1 X-3.8297
G3 X-3.8172 Y10.3554 I0 J0.0125
G3 X-3.8925 Y10.4307 I-0.0753 J0
G3 X-3.9678 Y10.3554 I0 J-0.0753
G3 X-3.8925 Y10.2801 I0.0753 J0
G3 X-3.8172 Y10.3554 I0 J0.0753
G3 X-3.8297 Y10.3679 I-0.0125 J0
G1 X-3.8422
G1 X-3.845 Z-0.0184
G1 X-3.8477 Z-0.0175
G1 X-3.85 Z-0.016
G1 X-3.852 Z-0.014
G1 X-3.8535 Z-0.0117
G1 X-3.8544 Z-0.009
G1 X-3.8547 Z-0.0063
G0 Z0.2625
G0 Y10.3429
G1 Z0.0369 F30.
G1 Z-0.0225
G1 X-3.8544 Z-0.0253 F6.1
G1 X-3.8535 Z-0.0279
G1 X-3.852 Z-0.0303
G1 X-3.85 Z-0.0323
G1 X-3.8477 Z-0.0338
G1 X-3.845 Z-0.0347
G1 X-3.8422 Z-0.035
G1 X-3.8297
G3 X-3.8172 Y10.3554 I0 J0.0125
G3 X-3.8925 Y10.4307 I-0.0753 J0
G3 X-3.9678 Y10.3554 I0 J-0.0753
G3 X-3.8925 Y10.2801 I0.0753 J0
G3 X-3.8172 Y10.3554 I0 J0.0753
G3 X-3.8297 Y10.3679 I-0.0125 J0
G1 X-3.8422
G1 X-3.845 Z-0.0347
G1 X-3.8477 Z-0.0338
G1 X-3.85 Z-0.0323
G1 X-3.852 Z-0.0303
G1 X-3.8535 Z-0.0279
G1 X-3.8544 Z-0.0253
G1 X-3.8547 Z-0.0225
G0 Z0.2625
G0 Y10.3429
G1 Z0.0206 F30.
G1 Z-0.0388
G1 X-3.8544 Z-0.0415 F6.1
G1 X-3.8535 Z-0.0442
G1 X-3.852 Z-0.0465
G1 X-3.85 Z-0.0485
G1 X-3.8477 Z-0.05
G1 X-3.845 Z-0.0509
G1 X-3.8422 Z-0.0512
G1 X-3.8297
G3 X-3.8172 Y10.3554 I0 J0.0125
G3 X-3.8925 Y10.4307 I-0.0753 J0
G3 X-3.9678 Y10.3554 I0 J-0.0753
G3 X-3.8925 Y10.2801 I0.0753 J0
G3 X-3.8172 Y10.3554 I0 J0.0753
G3 X-3.8297 Y10.3679 I-0.0125 J0
G1 X-3.8422
G1 X-3.845 Z-0.0509
G1 X-3.8477 Z-0.05
G1 X-3.85 Z-0.0485
G1 X-3.852 Z-0.0465
G1 X-3.8535 Z-0.0442
G1 X-3.8544 Z-0.0415
G1 X-3.8547 Z-0.0388
G0 Z0.2625
G0 Y10.3429
G1 Z0.0044 F30.
G1 Z-0.055
G1 X-3.8544 Z-0.0578 F6.1
G1 X-3.8535 Z-0.0604
G1 X-3.852 Z-0.0628
G1 X-3.85 Z-0.0648
G1 X-3.8477 Z-0.0663
G1 X-3.845 Z-0.0672
G1 X-3.8422 Z-0.0675
G1 X-3.8297
G3 X-3.8172 Y10.3554 I0 J0.0125
G3 X-3.8925 Y10.4307 I-0.0753 J0
G3 X-3.9678 Y10.3554 I0 J-0.0753
G3 X-3.8925 Y10.2801 I0.0753 J0
G3 X-3.8172 Y10.3554 I0 J0.0753
G3 X-3.8297 Y10.3679 I-0.0125 J0
G1 X-3.8422
G1 X-3.845 Z-0.0672
G1 X-3.8477 Z-0.0663
G1 X-3.85 Z-0.0648
G1 X-3.852 Z-0.0628
G1 X-3.8535 Z-0.0604
G1 X-3.8544 Z-0.0578
G1 X-3.8547 Z-0.055
G0 Z0.2625
G0 Y10.3429
G1 Z-0.0119 F30.
G1 Z-0.0713
G1 X-3.8544 Z-0.074 F6.1
G1 X-3.8535 Z-0.0767
G1 X-3.852 Z-0.079
G1 X-3.85 Z-0.081
G1 X-3.8477 Z-0.0825
G1 X-3.845 Z-0.0834
G1 X-3.8422 Z-0.0837
G1 X-3.8297
G3 X-3.8172 Y10.3554 I0 J0.0125
G3 X-3.8925 Y10.4307 I-0.0753 J0
G3 X-3.9678 Y10.3554 I0 J-0.0753
G3 X-3.8925 Y10.2801 I0.0753 J0
G3 X-3.8172 Y10.3554 I0 J0.0753
G3 X-3.8297 Y10.3679 I-0.0125 J0
G1 X-3.8422
G1 X-3.845 Z-0.0834
G1 X-3.8477 Z-0.0825
G1 X-3.85 Z-0.081
G1 X-3.852 Z-0.079
G1 X-3.8535 Z-0.0767
G1 X-3.8544 Z-0.074
G1 X-3.8547 Z-0.0713
G0 Z0.2625
G0 Y10.3429
G1 Z-0.0281 F30.
G1 Z-0.0813
G1 X-3.8544 Z-0.084 F6.1
G1 X-3.8535 Z-0.0867
G1 X-3.852 Z-0.089
G1 X-3.85 Z-0.091
G1 X-3.8477 Z-0.0925
G1 X-3.845 Z-0.0934
G1 X-3.8422 Z-0.0937
G1 X-3.8297
G3 X-3.8172 Y10.3554 I0 J0.0125
G3 X-3.8925 Y10.4307 I-0.0753 J0
G3 X-3.9678 Y10.3554 I0 J-0.0753
G3 X-3.8925 Y10.2801 I0.0753 J0
G3 X-3.8172 Y10.3554 I0 J0.0753
G3 X-3.8297 Y10.3679 I-0.0125 J0
G1 X-3.8422
G1 X-3.845 Z-0.0934
G1 X-3.8477 Z-0.0925
G1 X-3.85 Z-0.091
G1 X-3.852 Z-0.089
G1 X-3.8535 Z-0.0867
G1 X-3.8544 Z-0.084
G1 X-3.8547 Z-0.0813
G0 Z0.2625
G0 Y10.9334
G1 Z0.1181 F30.
G1 Z0.0587
G1 X-3.8544 Z0.056 F6.1
G1 X-3.8535 Z0.0533
G1 X-3.852 Z0.051
G1 X-3.85 Z0.049
G1 X-3.8477 Z0.0475
G1 X-3.845 Z0.0466
G1 X-3.8422 Z0.0462
G1 X-3.8297
G3 X-3.8172 Y10.9459 I0 J0.0125
G3 X-3.8925 Y11.0212 I-0.0753 J0
G3 X-3.9678 Y10.9459 I0 J-0.0753
G3 X-3.8925 Y10.8706 I0.0753 J0
G3 X-3.8172 Y10.9459 I0 J0.0753
G3 X-3.8297 Y10.9584 I-0.0125 J0
G1 X-3.8422
G1 X-3.845 Z0.0466
G1 X-3.8477 Z0.0475
G1 X-3.85 Z0.049
G1 X-3.852 Z0.051
G1 X-3.8535 Z0.0533
G1 X-3.8544 Z0.056
G1 X-3.8547 Z0.0587
G0 Z0.2625
G0 Y10.9334
G1 Z0.1019 F30.
G1 Z0.0425
G1 X-3.8544 Z0.0397 F6.1
G1 X-3.8535 Z0.0371
G1 X-3.852 Z0.0347
G1 X-3.85 Z0.0327
G1 X-3.8477 Z0.0312
G1 X-3.845 Z0.0303
G1 X-3.8422 Z0.03
G1 X-3.8297
G3 X-3.8172 Y10.9459 I0 J0.0125
G3 X-3.8925 Y11.0212 I-0.0753 J0
G3 X-3.9678 Y10.9459 I0 J-0.0753
G3 X-3.8925 Y10.8706 I0.0753 J0
G3 X-3.8172 Y10.9459 I0 J0.0753
G3 X-3.8297 Y10.9584 I-0.0125 J0
G1 X-3.8422
G1 X-3.845 Z0.0303
G1 X-3.8477 Z0.0312
G1 X-3.85 Z0.0327
G1 X-3.852 Z0.0347
G1 X-3.8535 Z0.0371
G1 X-3.8544 Z0.0397
G1 X-3.8547 Z0.0425
G0 Z0.2625
G0 Y10.9334
G1 Z0.0856 F30.
G1 Z0.0262
G1 X-3.8544 Z0.0235 F6.1
G1 X-3.8535 Z0.0208
G1 X-3.852 Z0.0185
G1 X-3.85 Z0.0165
G1 X-3.8477 Z0.015
G1 X-3.845 Z0.0141
G1 X-3.8422 Z0.0137
G1 X-3.8297
G3 X-3.8172 Y10.9459 I0 J0.0125
G3 X-3.8925 Y11.0212 I-0.0753 J0
G3 X-3.9678 Y10.9459 I0 J-0.0753
G3 X-3.8925 Y10.8706 I0.0753 J0
G3 X-3.8172 Y10.9459 I0 J0.0753
G3 X-3.8297 Y10.9584 I-0.0125 J0
G1 X-3.8422
G1 X-3.845 Z0.0141
G1 X-3.8477 Z0.015
G1 X-3.85 Z0.0165
G1 X-3.852 Z0.0185
G1 X-3.8535 Z0.0208
G1 X-3.8544 Z0.0235
G1 X-3.8547 Z0.0262
G0 Z0.2625
G0 Y10.9334
G1 Z0.0694 F30.
G1 Z0.01
G1 X-3.8544 Z0.0072 F6.1
G1 X-3.8535 Z0.0046
G1 X-3.852 Z0.0022
G1 X-3.85 Z0.0002
G1 X-3.8477 Z-0.0013
G1 X-3.845 Z-0.0022
G1 X-3.8422 Z-0.0025
G1 X-3.8297
G3 X-3.8172 Y10.9459 I0 J0.0125
G3 X-3.8925 Y11.0212 I-0.0753 J0
G3 X-3.9678 Y10.9459 I0 J-0.0753
G3 X-3.8925 Y10.8706 I0.0753 J0
G3 X-3.8172 Y10.9459 I0 J0.0753
G3 X-3.8297 Y10.9584 I-0.0125 J0
G1 X-3.8422
G1 X-3.845 Z-0.0022
G1 X-3.8477 Z-0.0013
G1 X-3.85 Z0.0002
G1 X-3.852 Z0.0022
G1 X-3.8535 Z0.0046
G1 X-3.8544 Z0.0072
G1 X-3.8547 Z0.01
G0 Z0.2625
G0 Y10.9334
G1 Z0.0531 F30.
G1 Z-0.0063
G1 X-3.8544 Z-0.009 F6.1
G1 X-3.8535 Z-0.0117
G1 X-3.852 Z-0.014
G1 X-3.85 Z-0.016
G1 X-3.8477 Z-0.0175
G1 X-3.845 Z-0.0184
G1 X-3.8422 Z-0.0187
G1 X-3.8297
G3 X-3.8172 Y10.9459 I0 J0.0125
G3 X-3.8925 Y11.0212 I-0.0753 J0
G3 X-3.9678 Y10.9459 I0 J-0.0753
G3 X-3.8925 Y10.8706 I0.0753 J0
G3 X-3.8172 Y10.9459 I0 J0.0753
G3 X-3.8297 Y10.9584 I-0.0125 J0
G1 X-3.8422
G1 X-3.845 Z-0.0184
G1 X-3.8477 Z-0.0175
G1 X-3.85 Z-0.016
G1 X-3.852 Z-0.014
G1 X-3.8535 Z-0.0117
G1 X-3.8544 Z-0.009
G1 X-3.8547 Z-0.0063
G0 Z0.2625
G0 Y10.9334
G1 Z0.0369 F30.
G1 Z-0.0225
G1 X-3.8544 Z-0.0253 F6.1
G1 X-3.8535 Z-0.0279
G1 X-3.852 Z-0.0303
G1 X-3.85 Z-0.0323
G1 X-3.8477 Z-0.0338
G1 X-3.845 Z-0.0347
G1 X-3.8422 Z-0.035
G1 X-3.8297
G3 X-3.8172 Y10.9459 I0 J0.0125
G3 X-3.8925 Y11.0212 I-0.0753 J0
G3 X-3.9678 Y10.9459 I0 J-0.0753
G3 X-3.8925 Y10.8706 I0.0753 J0
G3 X-3.8172 Y10.9459 I0 J0.0753
G3 X-3.8297 Y10.9584 I-0.0125 J0
G1 X-3.8422
G1 X-3.845 Z-0.0347
G1 X-3.8477 Z-0.0338
G1 X-3.85 Z-0.0323
G1 X-3.852 Z-0.0303
G1 X-3.8535 Z-0.0279
G1 X-3.8544 Z-0.0253
G1 X-3.8547 Z-0.0225
G0 Z0.2625
G0 Y10.9334
G1 Z0.0206 F30.
G1 Z-0.0388
G1 X-3.8544 Z-0.0415 F6.1
G1 X-3.8535 Z-0.0442
G1 X-3.852 Z-0.0465
G1 X-3.85 Z-0.0485
G1 X-3.8477 Z-0.05
G1 X-3.845 Z-0.0509
G1 X-3.8422 Z-0.0512
G1 X-3.8297
G3 X-3.8172 Y10.9459 I0 J0.0125
G3 X-3.8925 Y11.0212 I-0.0753 J0
G3 X-3.9678 Y10.9459 I0 J-0.0753
G3 X-3.8925 Y10.8706 I0.0753 J0
G3 X-3.8172 Y10.9459 I0 J0.0753
G3 X-3.8297 Y10.9584 I-0.0125 J0
G1 X-3.8422
G1 X-3.845 Z-0.0509
G1 X-3.8477 Z-0.05
G1 X-3.85 Z-0.0485
G1 X-3.852 Z-0.0465
G1 X-3.8535 Z-0.0442
G1 X-3.8544 Z-0.0415
G1 X-3.8547 Z-0.0388
G0 Z0.2625
G0 Y10.9334
G1 Z0.0044 F30.
G1 Z-0.055
G1 X-3.8544 Z-0.0578 F6.1
G1 X-3.8535 Z-0.0604
G1 X-3.852 Z-0.0628
G1 X-3.85 Z-0.0648
G1 X-3.8477 Z-0.0663
G1 X-3.845 Z-0.0672
G1 X-3.8422 Z-0.0675
G1 X-3.8297
G3 X-3.8172 Y10.9459 I0 J0.0125
G3 X-3.8925 Y11.0212 I-0.0753 J0
G3 X-3.9678 Y10.9459 I0 J-0.0753
G3 X-3.8925 Y10.8706 I0.0753 J0
G3 X-3.8172 Y10.9459 I0 J0.0753
G3 X-3.8297 Y10.9584 I-0.0125 J0
G1 X-3.8422
G1 X-3.845 Z-0.0672
G1 X-3.8477 Z-0.0663
G1 X-3.85 Z-0.0648
G1 X-3.852 Z-0.0628
G1 X-3.8535 Z-0.0604
G1 X-3.8544 Z-0.0578
G1 X-3.8547 Z-0.055
G0 Z0.2625
G0 Y10.9334
G1 Z-0.0119 F30.
G1 Z-0.0713
G1 X-3.8544 Z-0.074 F6.1
G1 X-3.8535 Z-0.0767
G1 X-3.852 Z-0.079
G1 X-3.85 Z-0.081
G1 X-3.8477 Z-0.0825
G1 X-3.845 Z-0.0834
G1 X-3.8422 Z-0.0837
G1 X-3.8297
G3 X-3.8172 Y10.9459 I0 J0.0125
G3 X-3.8925 Y11.0212 I-0.0753 J0
G3 X-3.9678 Y10.9459 I0 J-0.0753
G3 X-3.8925 Y10.8706 I0.0753 J0
G3 X-3.8172 Y10.9459 I0 J0.0753
G3 X-3.8297 Y10.9584 I-0.0125 J0
G1 X-3.8422
G1 X-3.845 Z-0.0834
G1 X-3.8477 Z-0.0825
G1 X-3.85 Z-0.081
G1 X-3.852 Z-0.079
G1 X-3.8535 Z-0.0767
G1 X-3.8544 Z-0.074
G1 X-3.8547 Z-0.0713
G0 Z0.2625
G0 Y10.9334
G1 Z-0.0281 F30.
G1 Z-0.0813
G1 X-3.8544 Z-0.084 F6.1
G1 X-3.8535 Z-0.0867
G1 X-3.852 Z-0.089
G1 X-3.85 Z-0.091
G1 X-3.8477 Z-0.0925
G1 X-3.845 Z-0.0934
G1 X-3.8422 Z-0.0937
G1 X-3.8297
G3 X-3.8172 Y10.9459 I0 J0.0125
G3 X-3.8925 Y11.0212 I-0.0753 J0
G3 X-3.9678 Y10.9459 I0 J-0.0753
G3 X-3.8925 Y10.8706 I0.0753 J0
G3 X-3.8172 Y10.9459 I0 J0.0753
G3 X-3.8297 Y10.9584 I-0.0125 J0
G1 X-3.8422
G1 X-3.845 Z-0.0934
G1 X-3.8477 Z-0.0925
G1 X-3.85 Z-0.091
G1 X-3.852 Z-0.089
G1 X-3.8535 Z-0.0867
G1 X-3.8544 Z-0.084
G1 X-3.8547 Z-0.0813
G0 Z0.2625
G0 X-5.2015 Y11.5669
G1 Z0.1181 F30.
G1 Z0.0587
G1 X-5.2013 Y11.5671 Z0.056 F6.1
G1 X-5.2006 Y11.5678 Z0.0533
G1 X-5.1995 Y11.5688 Z0.051
G1 X-5.1981 Y11.5702 Z0.049
G1 X-5.1964 Y11.5719 Z0.0475
G1 X-5.1946 Y11.5737 Z0.0466
G1 X-5.1926 Y11.5757 Z0.0462
G1 X-5.1837 Y11.5845
G3 X-5.1835 Y11.6021 I-0.0088 J0.0089
G1 X-5.5276 Y11.9516
G1 X-6.0717 Y11.4158
G1 Z0.5312
G1 X-6.2498 Y11.2403
G1 Z0.0462 F30.
G1 X-6.7298 Y10.7677 F6.1
G1 X-5.6725
G1 Z0.5312
G1 X-5.4225
G1 Z0.0462 F30.
G1 X-4.3619 F6.1
G1 X-4.8266 Y11.2397
G1 Z0.5312
G1 X-5.002 Y11.4178
G1 Z0.0462 F30.
G1 X-5.1835 Y11.6021 F6.1
G3 X-5.2012 Y11.6023 I-0.0089 J-0.0088
G1 X-5.2101 Y11.5935
G1 X-5.2121 Y11.5916 Z0.0466
G1 X-5.214 Y11.5897 Z0.0475
G1 X-5.2157 Y11.588 Z0.049
G1 X-5.2171 Y11.5867 Z0.051
G1 X-5.2181 Y11.5856 Z0.0533
G1 X-5.2188 Y11.585 Z0.056
G1 X-5.219 Y11.5847 Z0.0587
G0 Z0.2625
G0 X-5.2015 Y11.5669
G1 Z0.1019 F30.
G1 Z0.0425
G1 X-5.2013 Y11.5671 Z0.0397 F6.1
G1 X-5.2006 Y11.5678 Z0.0371
G1 X-5.1995 Y11.5688 Z0.0347
G1 X-5.1981 Y11.5702 Z0.0327
G1 X-5.1964 Y11.5719 Z0.0312
G1 X-5.1946 Y11.5737 Z0.0303
G1 X-5.1926 Y11.5757 Z0.03
G1 X-5.1837 Y11.5845
G3 X-5.1835 Y11.6021 I-0.0088 J0.0089
G1 X-5.5276 Y11.9516
G1 X-6.0717 Y11.4158
G1 Z0.5312
G1 X-6.2498 Y11.2403
G1 Z0.03 F30.
G1 X-6.7298 Y10.7677 F6.1
G1 X-5.6725
G1 Z0.5312
G1 X-5.4225
G1 Z0.03 F30.
G1 X-4.3619 F6.1
G1 X-4.8266 Y11.2397
G1 Z0.5312
G1 X-5.002 Y11.4178
G1 Z0.03 F30.
G1 X-5.1835 Y11.6021 F6.1
G3 X-5.2012 Y11.6023 I-0.0089 J-0.0088
G1 X-5.2101 Y11.5935
G1 X-5.2121 Y11.5916 Z0.0303
G1 X-5.214 Y11.5897 Z0.0312
G1 X-5.2157 Y11.588 Z0.0327
G1 X-5.2171 Y11.5867 Z0.0347
G1 X-5.2181 Y11.5856 Z0.0371
G1 X-5.2188 Y11.585 Z0.0397
G1 X-5.219 Y11.5847 Z0.0425
G0 Z0.2625
G0 X-5.2015 Y11.5669
G1 Z0.0856 F30.
G1 Z0.0262
G1 X-5.2013 Y11.5671 Z0.0235 F6.1
G1 X-5.2006 Y11.5678 Z0.0208
G1 X-5.1995 Y11.5688 Z0.0185
G1 X-5.1981 Y11.5702 Z0.0165
G1 X-5.1964 Y11.5719 Z0.015
G1 X-5.1946 Y11.5737 Z0.0141
G1 X-5.1926 Y11.5757 Z0.0137
G1 X-5.1837 Y11.5845
G3 X-5.1835 Y11.6021 I-0.0088 J0.0089
G1 X-5.5276 Y11.9516
G1 X-6.0717 Y11.4158
G1 Z0.5312
G1 X-6.2498 Y11.2403
G1 Z0.0137 F30.
G1 X-6.7298 Y10.7677 F6.1
G1 X-5.6725
G1 Z0.5312
G1 X-5.4225
G1 Z0.0137 F30.
G1 X-4.3619 F6.1
G1 X-4.8266 Y11.2397
G1 Z0.5312
G1 X-5.002 Y11.4178
G1 Z0.0137 F30.
G1 X-5.1835 Y11.6021 F6.1
G3 X-5.2012 Y11.6023 I-0.0089 J-0.0088
G1 X-5.2101 Y11.5935
G1 X-5.2121 Y11.5916 Z0.0141
G1 X-5.214 Y11.5897 Z0.015
G1 X-5.2157 Y11.588 Z0.0165
G1 X-5.2171 Y11.5867 Z0.0185
G1 X-5.2181 Y11.5856 Z0.0208
G1 X-5.2188 Y11.585 Z0.0235
G1 X-5.219 Y11.5847 Z0.0262
G0 Z0.2625
G0 X-5.2015 Y11.5669
G1 Z0.0694 F30.
G1 Z0.01
G1 X-5.2013 Y11.5671 Z0.0072 F6.1
G1 X-5.2006 Y11.5678 Z0.0046
G1 X-5.1995 Y11.5688 Z0.0022
G1 X-5.1981 Y11.5702 Z0.0002
G1 X-5.1964 Y11.5719 Z-0.0013
G1 X-5.1946 Y11.5737 Z-0.0022
G1 X-5.1926 Y11.5757 Z-0.0025
G1 X-5.1837 Y11.5845
G3 X-5.1835 Y11.6021 I-0.0088 J0.0089
G1 X-5.5276 Y11.9516
G1 X-6.0717 Y11.4158
G1 Z0.5312
G1 X-6.2498 Y11.2403
G1 Z-0.0025 F30.
G1 X-6.7298 Y10.7677 F6.1
G1 X-5.6725
G1 Z0.5312
G1 X-5.4225
G1 Z-0.0025 F30.
G1 X-4.3619 F6.1
G1 X-4.8266 Y11.2397
G1 Z0.5312
G1 X-5.002 Y11.4178
G1 Z-0.0025 F30.
G1 X-5.1835 Y11.6021 F6.1
G3 X-5.2012 Y11.6023 I-0.0089 J-0.0088
G1 X-5.2101 Y11.5935
G1 X-5.2121 Y11.5916 Z-0.0022
G1 X-5.214 Y11.5897 Z-0.0013
G1 X-5.2157 Y11.588 Z0.0002
G1 X-5.2171 Y11.5867 Z0.0022
G1 X-5.2181 Y11.5856 Z0.0046
G1 X-5.2188 Y11.585 Z0.0072
G1 X-5.219 Y11.5847 Z0.01
G0 Z0.2625
G0 X-5.2015 Y11.5669
G1 Z0.0531 F30.
G1 Z-0.0063
G1 X-5.2013 Y11.5671 Z-0.009 F6.1
G1 X-5.2006 Y11.5678 Z-0.0117
G1 X-5.1995 Y11.5688 Z-0.014
G1 X-5.1981 Y11.5702 Z-0.016
G1 X-5.1964 Y11.5719 Z-0.0175
G1 X-5.1946 Y11.5737 Z-0.0184
G1 X-5.1926 Y11.5757 Z-0.0187
G1 X-5.1837 Y11.5845
G3 X-5.1835 Y11.6021 I-0.0088 J0.0089
G1 X-5.5276 Y11.9516
G1 X-6.0717 Y11.4158
G1 Z0.5312
G1 X-6.2498 Y11.2403
G1 Z-0.0187 F30.
G1 X-6.7298 Y10.7677 F6.1
G1 X-5.6725
G1 Z0.5312
G1 X-5.4225
G1 Z-0.0187 F30.
G1 X-4.3619 F6.1
G1 X-4.8266 Y11.2397
G1 Z0.5312
G1 X-5.002 Y11.4178
G1 Z-0.0187 F30.
G1 X-5.1835 Y11.6021 F6.1
G3 X-5.2012 Y11.6023 I-0.0089 J-0.0088
G1 X-5.2101 Y11.5935
G1 X-5.2121 Y11.5916 Z-0.0184
G1 X-5.214 Y11.5897 Z-0.0175
G1 X-5.2157 Y11.588 Z-0.016
G1 X-5.2171 Y11.5867 Z-0.014
G1 X-5.2181 Y11.5856 Z-0.0117
G1 X-5.2188 Y11.585 Z-0.009
G1 X-5.219 Y11.5847 Z-0.0063
G0 Z0.2625
G0 X-5.2015 Y11.5669
G1 Z0.0369 F30.
G1 Z-0.0225
G1 X-5.2013 Y11.5671 Z-0.0253 F6.1
G1 X-5.2006 Y11.5678 Z-0.0279
G1 X-5.1995 Y11.5688 Z-0.0303
G1 X-5.1981 Y11.5702 Z-0.0323
G1 X-5.1964 Y11.5719 Z-0.0338
G1 X-5.1946 Y11.5737 Z-0.0347
G1 X-5.1926 Y11.5757 Z-0.035
G1 X-5.1837 Y11.5845
G3 X-5.1835 Y11.6021 I-0.0088 J0.0089
G1 X-5.5276 Y11.9516
G1 X-6.0717 Y11.4158
G1 Z0.5312
G1 X-6.2498 Y11.2403
G1 Z-0.035 F30.
G1 X-6.7298 Y10.7677 F6.1
G1 X-5.6725
G1 Z0.5312
G1 X-5.4225
G1 Z-0.035 F30.
G1 X-4.3619 F6.1
G1 X-4.8266 Y11.2397
G1 Z0.5312
G1 X-5.002 Y11.4178
G1 Z-0.035 F30.
G1 X-5.1835 Y11.6021 F6.1
G3 X-5.2012 Y11.6023 I-0.0089 J-0.0088
G1 X-5.2101 Y11.5935
G1 X-5.2121 Y11.5916 Z-0.0347
G1 X-5.214 Y11.5897 Z-0.0338
G1 X-5.2157 Y11.588 Z-0.0323
G1 X-5.2171 Y11.5867 Z-0.0303
G1 X-5.2181 Y11.5856 Z-0.0279
G1 X-5.2188 Y11.585 Z-0.0253
G1 X-5.219 Y11.5847 Z-0.0225
G0 Z0.2625
G0 X-5.2015 Y11.5669
G1 Z0.0206 F30.
G1 Z-0.0388
G1 X-5.2013 Y11.5671 Z-0.0415 F6.1
G1 X-5.2006 Y11.5678 Z-0.0442
G1 X-5.1995 Y11.5688 Z-0.0465
G1 X-5.1981 Y11.5702 Z-0.0485
G1 X-5.1964 Y11.5719 Z-0.05
G1 X-5.1946 Y11.5737 Z-0.0509
G1 X-5.1926 Y11.5757 Z-0.0512
G1 X-5.1837 Y11.5845
G3 X-5.1835 Y11.6021 I-0.0088 J0.0089
G1 X-5.5276 Y11.9516
G1 X-6.0717 Y11.4158
G1 Z0.5312
G1 X-6.2498 Y11.2403
G1 Z-0.0512 F30.
G1 X-6.7298 Y10.7677 F6.1
G1 X-5.6725
G1 Z0.5312
G1 X-5.4225
G1 Z-0.0512 F30.
G1 X-4.3619 F6.1
G1 X-4.8266 Y11.2397
G1 Z0.5312
G1 X-5.002 Y11.4178
G1 Z-0.0512 F30.
G1 X-5.1835 Y11.6021 F6.1
G3 X-5.2012 Y11.6023 I-0.0089 J-0.0088
G1 X-5.2101 Y11.5935
G1 X-5.2121 Y11.5916 Z-0.0509
G1 X-5.214 Y11.5897 Z-0.05
G1 X-5.2157 Y11.588 Z-0.0485
G1 X-5.2171 Y11.5867 Z-0.0465
G1 X-5.2181 Y11.5856 Z-0.0442
G1 X-5.2188 Y11.585 Z-0.0415
G1 X-5.219 Y11.5847 Z-0.0388
G0 Z0.2625
G0 X-5.2015 Y11.5669
G1 Z0.0044 F30.
G1 Z-0.055
G1 X-5.2013 Y11.5671 Z-0.0578 F6.1
G1 X-5.2006 Y11.5678 Z-0.0604
G1 X-5.1995 Y11.5688 Z-0.0628
G1 X-5.1981 Y11.5702 Z-0.0648
G1 X-5.1964 Y11.5719 Z-0.0663
G1 X-5.1946 Y11.5737 Z-0.0672
G1 X-5.1926 Y11.5757 Z-0.0675
G1 X-5.1837 Y11.5845
G3 X-5.1835 Y11.6021 I-0.0088 J0.0089
G1 X-5.5276 Y11.9516
G1 X-6.0717 Y11.4158
G1 Z0.5312
G1 X-6.2498 Y11.2403
G1 Z-0.0675 F30.
G1 X-6.7298 Y10.7677 F6.1
G1 X-5.6725
G1 Z0.5312
G1 X-5.4225
G1 Z-0.0675 F30.
G1 X-4.3619 F6.1
G1 X-4.8266 Y11.2397
G1 Z0.5312
G1 X-5.002 Y11.4178
G1 Z-0.0675 F30.
G1 X-5.1835 Y11.6021 F6.1
G3 X-5.2012 Y11.6023 I-0.0089 J-0.0088
G1 X-5.2101 Y11.5935
G1 X-5.2121 Y11.5916 Z-0.0672
G1 X-5.214 Y11.5897 Z-0.0663
G1 X-5.2157 Y11.588 Z-0.0648
G1 X-5.2171 Y11.5867 Z-0.0628
G1 X-5.2181 Y11.5856 Z-0.0604
G1 X-5.2188 Y11.585 Z-0.0578
G1 X-5.219 Y11.5847 Z-0.055
G0 Z0.2625
G0 X-5.2015 Y11.5669
G1 Z-0.0119 F30.
G1 Z-0.0713
G1 X-5.2013 Y11.5671 Z-0.074 F6.1
G1 X-5.2006 Y11.5678 Z-0.0767
G1 X-5.1995 Y11.5688 Z-0.079
G1 X-5.1981 Y11.5702 Z-0.081
G1 X-5.1964 Y11.5719 Z-0.0825
G1 X-5.1946 Y11.5737 Z-0.0834
G1 X-5.1926 Y11.5757 Z-0.0837
G1 X-5.1837 Y11.5845
G3 X-5.1835 Y11.6021 I-0.0088 J0.0089
G1 X-5.5276 Y11.9516
G1 X-6.0717 Y11.4158
G1 Z0.5312
G1 X-6.2498 Y11.2403
G1 Z-0.0837 F30.
G1 X-6.7298 Y10.7677 F6.1
G1 X-5.6725
G1 Z0.5312
G1 X-5.4225
G1 Z-0.0837 F30.
G1 X-4.3619 F6.1
G1 X-4.8266 Y11.2397
G1 Z0.5312
G1 X-5.002 Y11.4178
G1 Z-0.0837 F30.
G1 X-5.1835 Y11.6021 F6.1
G3 X-5.2012 Y11.6023 I-0.0089 J-0.0088
G1 X-5.2101 Y11.5935
G1 X-5.2121 Y11.5916 Z-0.0834
G1 X-5.214 Y11.5897 Z-0.0825
G1 X-5.2157 Y11.588 Z-0.081
G1 X-5.2171 Y11.5867 Z-0.079
G1 X-5.2181 Y11.5856 Z-0.0767
G1 X-5.2188 Y11.585 Z-0.074
G1 X-5.219 Y11.5847 Z-0.0713
G0 Z0.2625
G0 X-5.2015 Y11.5669
G1 Z-0.0281 F30.
G1 Z-0.0813
G1 X-5.2013 Y11.5671 Z-0.084 F6.1
G1 X-5.2006 Y11.5678 Z-0.0867
G1 X-5.1995 Y11.5688 Z-0.089
G1 X-5.1981 Y11.5702 Z-0.091
G1 X-5.1964 Y11.5719 Z-0.0925
G1 X-5.1946 Y11.5737 Z-0.0934
G1 X-5.1926 Y11.5757 Z-0.0937
G1 X-5.1837 Y11.5845
G3 X-5.1835 Y11.6021 I-0.0088 J0.0089
G1 X-5.5276 Y11.9516
G1 X-6.0717 Y11.4158
G1 Z0.5312
G1 X-6.2498 Y11.2403
G1 Z-0.0937 F30.
G1 X-6.7298 Y10.7677 F6.1
G1 X-5.6725
G1 Z0.5312
G1 X-5.4225
G1 Z-0.0937 F30.
G1 X-4.3619 F6.1
G1 X-4.8266 Y11.2397
G1 Z0.5312
G1 X-5.002 Y11.4178
G1 Z-0.0937 F30.
G1 X-5.1835 Y11.6021 F6.1
G3 X-5.2012 Y11.6023 I-0.0089 J-0.0088
G1 X-5.2101 Y11.5935
G1 X-5.2121 Y11.5916 Z-0.0934
G1 X-5.214 Y11.5897 Z-0.0925
G1 X-5.2157 Y11.588 Z-0.091
G1 X-5.2171 Y11.5867 Z-0.089
G1 X-5.2181 Y11.5856 Z-0.0867
G1 X-5.2188 Y11.585 Z-0.084
G1 X-5.219 Y11.5847 Z-0.0813
G0 Z0.5312
G0 X-5.1284 Y13.0553
G1 X-5.1159 Y13.0556 F6.1
G1 X-5.1034 Y13.0559
G3 X-5.0912 Y13.0687 I-0.0003 J0.0125
G3 X-5.1069 Y13.1814 I-0.4994 J-0.0123
G1 Z0.0462 F30.
G3 X-5.7156 Y13.54 I-0.4836 J-0.125 F6.1
G3 X-6.0742 Y13.1814 I0.125 J-0.4836
G1 Z0.5312
G3 Y12.9314 I0.4836 J-0.125
G1 Z0.0462 F30.
G3 X-5.4656 Y12.5728 I0.4836 J0.125 F6.1
G3 X-5.1069 Y12.9314 I-0.125 J0.4836
G1 Z0.5312
G3 X-5.0912 Y13.0687 I-0.4836 J0.125
G3 X-5.0951 Y13.0774 I-0.0125 J-0.0003
G3 X-5.104 Y13.0809 I-0.0086 J-0.0091
G1 X-5.129 Y13.0803
G0 X-5.1284 Y13.0553
G1 X-5.1159 Y13.0556 F6.1
G1 X-5.1034 Y13.0559
G3 X-5.0912 Y13.0687 I-0.0003 J0.0125
G3 X-5.1069 Y13.1814 I-0.4994 J-0.0123
G1 Z0.03 F30.
G3 X-5.7156 Y13.54 I-0.4836 J-0.125 F6.1
G3 X-6.0742 Y13.1814 I0.125 J-0.4836
G1 Z0.5312
G3 Y12.9314 I0.4836 J-0.125
G1 Z0.03 F30.
G3 X-5.4656 Y12.5728 I0.4836 J0.125 F6.1
G3 X-5.1069 Y12.9314 I-0.125 J0.4836
G1 Z0.5312
G3 X-5.0912 Y13.0687 I-0.4836 J0.125
G3 X-5.0951 Y13.0774 I-0.0125 J-0.0003
G3 X-5.104 Y13.0809 I-0.0086 J-0.0091
G1 X-5.129 Y13.0803
G0 X-5.1284 Y13.0553
G1 X-5.1159 Y13.0556 F6.1
G1 X-5.1034 Y13.0559
G3 X-5.0912 Y13.0687 I-0.0003 J0.0125
G3 X-5.1069 Y13.1814 I-0.4994 J-0.0123
G1 Z0.0137 F30.
G3 X-5.7156 Y13.54 I-0.4836 J-0.125 F6.1
G3 X-6.0742 Y13.1814 I0.125 J-0.4836
G1 Z0.5312
G3 Y12.9314 I0.4836 J-0.125
G1 Z0.0137 F30.
G3 X-5.4656 Y12.5728 I0.4836 J0.125 F6.1
G3 X-5.1069 Y12.9314 I-0.125 J0.4836
G1 Z0.5312
G3 X-5.0912 Y13.0687 I-0.4836 J0.125
G3 X-5.0951 Y13.0774 I-0.0125 J-0.0003
G3 X-5.104 Y13.0809 I-0.0086 J-0.0091
G1 X-5.129 Y13.0803
G0 X-5.1284 Y13.0553
G1 X-5.1159 Y13.0556 F6.1
G1 X-5.1034 Y13.0559
G3 X-5.0912 Y13.0687 I-0.0003 J0.0125
G3 X-5.1069 Y13.1814 I-0.4994 J-0.0123
G1 Z-0.0025 F30.
G3 X-5.7156 Y13.54 I-0.4836 J-0.125 F6.1
G3 X-6.0742 Y13.1814 I0.125 J-0.4836
G1 Z0.5312
G3 Y12.9314 I0.4836 J-0.125
G1 Z-0.0025 F30.
G3 X-5.4656 Y12.5728 I0.4836 J0.125 F6.1
G3 X-5.1069 Y12.9314 I-0.125 J0.4836
G1 Z0.5312
G3 X-5.0912 Y13.0687 I-0.4836 J0.125
G3 X-5.0951 Y13.0774 I-0.0125 J-0.0003
G3 X-5.104 Y13.0809 I-0.0086 J-0.0091
G1 X-5.129 Y13.0803
G0 X-5.1284 Y13.0553
G1 X-5.1159 Y13.0556 F6.1
G1 X-5.1034 Y13.0559
G3 X-5.0912 Y13.0687 I-0.0003 J0.0125
G3 X-5.1069 Y13.1814 I-0.4994 J-0.0123
G1 Z-0.0187 F30.
G3 X-5.7156 Y13.54 I-0.4836 J-0.125 F6.1
G3 X-6.0742 Y13.1814 I0.125 J-0.4836
G1 Z0.5312
G3 Y12.9314 I0.4836 J-0.125
G1 Z-0.0187 F30.
G3 X-5.4656 Y12.5728 I0.4836 J0.125 F6.1
G3 X-5.1069 Y12.9314 I-0.125 J0.4836
G1 Z0.5312
G3 X-5.0912 Y13.0687 I-0.4836 J0.125
G3 X-5.0951 Y13.0774 I-0.0125 J-0.0003
G3 X-5.104 Y13.0809 I-0.0086 J-0.0091
G1 X-5.129 Y13.0803
G0 X-5.1284 Y13.0553
G1 X-5.1159 Y13.0556 F6.1
G1 X-5.1034 Y13.0559
G3 X-5.0912 Y13.0687 I-0.0003 J0.0125
G3 X-5.1069 Y13.1814 I-0.4994 J-0.0123
G1 Z-0.035 F30.
G3 X-5.7156 Y13.54 I-0.4836 J-0.125 F6.1
G3 X-6.0742 Y13.1814 I0.125 J-0.4836
G1 Z0.5312
G3 Y12.9314 I0.4836 J-0.125
G1 Z-0.035 F30.
G3 X-5.4656 Y12.5728 I0.4836 J0.125 F6.1
G3 X-5.1069 Y12.9314 I-0.125 J0.4836
G1 Z0.5312
G3 X-5.0912 Y13.0687 I-0.4836 J0.125
G3 X-5.0951 Y13.0774 I-0.0125 J-0.0003
G3 X-5.104 Y13.0809 I-0.0086 J-0.0091
G1 X-5.129 Y13.0803
G0 X-5.1284 Y13.0553
G1 X-5.1159 Y13.0556 F6.1
G1 X-5.1034 Y13.0559
G3 X-5.0912 Y13.0687 I-0.0003 J0.0125
G3 X-5.1069 Y13.1814 I-0.4994 J-0.0123
G1 Z-0.0512 F30.
G3 X-5.7156 Y13.54 I-0.4836 J-0.125 F6.1
G3 X-6.0742 Y13.1814 I0.125 J-0.4836
G1 Z0.5312
G3 Y12.9314 I0.4836 J-0.125
G1 Z-0.0512 F30.
G3 X-5.4656 Y12.5728 I0.4836 J0.125 F6.1
G3 X-5.1069 Y12.9314 I-0.125 J0.4836
G1 Z0.5312
G3 X-5.0912 Y13.0687 I-0.4836 J0.125
G3 X-5.0951 Y13.0774 I-0.0125 J-0.0003
G3 X-5.104 Y13.0809 I-0.0086 J-0.0091
G1 X-5.129 Y13.0803
G0 X-5.1284 Y13.0553
G1 X-5.1159 Y13.0556 F6.1
G1 X-5.1034 Y13.0559
G3 X-5.0912 Y13.0687 I-0.0003 J0.0125
G3 X-5.1069 Y13.1814 I-0.4994 J-0.0123
G1 Z-0.0675 F30.
G3 X-5.7156 Y13.54 I-0.4836 J-0.125 F6.1
G3 X-6.0742 Y13.1814 I0.125 J-0.4836
G1 Z0.5312
G3 Y12.9314 I0.4836 J-0.125
G1 Z-0.0675 F30.
G3 X-5.4656 Y12.5728 I0.4836 J0.125 F6.1
G3 X-5.1069 Y12.9314 I-0.125 J0.4836
G1 Z0.5312
G3 X-5.0912 Y13.0687 I-0.4836 J0.125
G3 X-5.0951 Y13.0774 I-0.0125 J-0.0003
G3 X-5.104 Y13.0809 I-0.0086 J-0.0091
G1 X-5.129 Y13.0803
G0 X-5.1284 Y13.0553
G1 X-5.1159 Y13.0556 F6.1
G1 X-5.1034 Y13.0559
G3 X-5.0912 Y13.0687 I-0.0003 J0.0125
G3 X-5.1069 Y13.1814 I-0.4994 J-0.0123
G1 Z-0.0837 F30.
G3 X-5.7156 Y13.54 I-0.4836 J-0.125 F6.1
G3 X-6.0742 Y13.1814 I0.125 J-0.4836
G1 Z0.5312
G3 Y12.9314 I0.4836 J-0.125
G1 Z-0.0837 F30.
G3 X-5.4656 Y12.5728 I0.4836 J0.125 F6.1
G3 X-5.1069 Y12.9314 I-0.125 J0.4836
G1 Z0.5312
G3 X-5.0912 Y13.0687 I-0.4836 J0.125
G3 X-5.0951 Y13.0774 I-0.0125 J-0.0003
G3 X-5.104 Y13.0809 I-0.0086 J-0.0091
G1 X-5.129 Y13.0803
G0 X-5.1284 Y13.0553
G1 X-5.1159 Y13.0556 F6.1
G1 X-5.1034 Y13.0559
G3 X-5.0912 Y13.0687 I-0.0003 J0.0125
G3 X-5.1069 Y13.1814 I-0.4994 J-0.0123
G1 Z-0.0937 F30.
G3 X-5.7156 Y13.54 I-0.4836 J-0.125 F6.1
G3 X-6.0742 Y13.1814 I0.125 J-0.4836
G1 Z0.5312
G3 Y12.9314 I0.4836 J-0.125
G1 Z-0.0937 F30.
G3 X-5.4656 Y12.5728 I0.4836 J0.125 F6.1
G3 X-5.1069 Y12.9314 I-0.125 J0.4836
G1 Z0.5312
G3 X-5.0912 Y13.0687 I-0.4836 J0.125
G3 X-5.0951 Y13.0774 I-0.0125 J-0.0003
G3 X-5.104 Y13.0809 I-0.0086 J-0.0091
G1 X-5.129 Y13.0803
G0 X-6.3996 Y12.7837
G0 Z0.2625
G1 Z0.1181 F30.
G1 Z0.0587
G1 X-6.3994 Y12.7839 Z0.056 F6.1
G1 X-6.3987 Y12.7845 Z0.0533
G1 X-6.3976 Y12.7856 Z0.051
G1 X-6.3962 Y12.787 Z0.049
G1 X-6.3945 Y12.7886 Z0.0475
G1 X-6.3927 Y12.7905 Z0.0466
G1 X-6.3907 Y12.7924 Z0.0462
G1 X-6.3818 Y12.8012
G3 X-6.3816 Y12.8189 I-0.0088 J0.0089
G1 X-6.5791 Y13.0194
G1 Z0.5312
G1 X-6.7545 Y13.1975
G1 Z0.0462 F30.
G1 X-7.2407 Y13.6913 F6.1
G1 Y12.6067
G1 Z0.5312
G1 Y12.3567
G1 Z0.0462 F30.
G1 Y11.2689 F6.1
G1 X-6.7552 Y11.747
G1 Z0.5312
G1 X-6.577 Y11.9224
G1 Z0.0462 F30.
G1 X-6.0296 Y12.4614 F6.1
G1 X-6.3816 Y12.8189
G3 X-6.3993 Y12.819 I-0.0089 J-0.0088
G1 X-6.4082 Y12.8102
G1 X-6.4102 Y12.8083 Z0.0466
G1 X-6.4121 Y12.8064 Z0.0475
G1 X-6.4138 Y12.8048 Z0.049
G1 X-6.4152 Y12.8034 Z0.051
G1 X-6.4162 Y12.8023 Z0.0533
G1 X-6.4169 Y12.8017 Z0.056
G1 X-6.4171 Y12.8015 Z0.0587
G0 Z0.2625
G0 X-6.3996 Y12.7837
G1 Z0.1019 F30.
G1 Z0.0425
G1 X-6.3994 Y12.7839 Z0.0397 F6.1
G1 X-6.3987 Y12.7845 Z0.0371
G1 X-6.3976 Y12.7856 Z0.0347
G1 X-6.3962 Y12.787 Z0.0327
G1 X-6.3945 Y12.7886 Z0.0312
G1 X-6.3927 Y12.7905 Z0.0303
G1 X-6.3907 Y12.7924 Z0.03
G1 X-6.3818 Y12.8012
G3 X-6.3816 Y12.8189 I-0.0088 J0.0089
G1 X-6.5791 Y13.0194
G1 Z0.5312
G1 X-6.7545 Y13.1975
G1 Z0.03 F30.
G1 X-7.2407 Y13.6913 F6.1
G1 Y12.6067
G1 Z0.5312
G1 Y12.3567
G1 Z0.03 F30.
G1 Y11.2689 F6.1
G1 X-6.7552 Y11.747
G1 Z0.5312
G1 X-6.577 Y11.9224
G1 Z0.03 F30.
G1 X-6.0296 Y12.4614 F6.1
G1 X-6.3816 Y12.8189
G3 X-6.3993 Y12.819 I-0.0089 J-0.0088
G1 X-6.4082 Y12.8102
G1 X-6.4102 Y12.8083 Z0.0303
G1 X-6.4121 Y12.8064 Z0.0312
G1 X-6.4138 Y12.8048 Z0.0327
G1 X-6.4152 Y12.8034 Z0.0347
G1 X-6.4162 Y12.8023 Z0.0371
G1 X-6.4169 Y12.8017 Z0.0397
G1 X-6.4171 Y12.8015 Z0.0425
G0 Z0.2625
G0 X-6.3996 Y12.7837
G1 Z0.0856 F30.
G1 Z0.0262
G1 X-6.3994 Y12.7839 Z0.0235 F6.1
G1 X-6.3987 Y12.7845 Z0.0208
G1 X-6.3976 Y12.7856 Z0.0185
G1 X-6.3962 Y12.787 Z0.0165
G1 X-6.3945 Y12.7886 Z0.015
G1 X-6.3927 Y12.7905 Z0.0141
G1 X-6.3907 Y12.7924 Z0.0137
G1 X-6.3818 Y12.8012
G3 X-6.3816 Y12.8189 I-0.0088 J0.0089
G1 X-6.5791 Y13.0194
G1 Z0.5312
G1 X-6.7545 Y13.1975
G1 Z0.0137 F30.
G1 X-7.2407 Y13.6913 F6.1
G1 Y12.6067
G1 Z0.5312
G1 Y12.3567
G1 Z0.0137 F30.
G1 Y11.2689 F6.1
G1 X-6.7552 Y11.747
G1 Z0.5312
G1 X-6.577 Y11.9224
G1 Z0.0137 F30.
G1 X-6.0296 Y12.4614 F6.1
G1 X-6.3816 Y12.8189
G3 X-6.3993 Y12.819 I-0.0089 J-0.0088
G1 X-6.4082 Y12.8102
G1 X-6.4102 Y12.8083 Z0.0141
G1 X-6.4121 Y12.8064 Z0.015
G1 X-6.4138 Y12.8048 Z0.0165
G1 X-6.4152 Y12.8034 Z0.0185
G1 X-6.4162 Y12.8023 Z0.0208
G1 X-6.4169 Y12.8017 Z0.0235
G1 X-6.4171 Y12.8015 Z0.0262
G0 Z0.2625
G0 X-6.3996 Y12.7837
G1 Z0.0694 F30.
G1 Z0.01
G1 X-6.3994 Y12.7839 Z0.0072 F6.1
G1 X-6.3987 Y12.7845 Z0.0046
G1 X-6.3976 Y12.7856 Z0.0022
G1 X-6.3962 Y12.787 Z0.0002
G1 X-6.3945 Y12.7886 Z-0.0013
G1 X-6.3927 Y12.7905 Z-0.0022
G1 X-6.3907 Y12.7924 Z-0.0025
G1 X-6.3818 Y12.8012
G3 X-6.3816 Y12.8189 I-0.0088 J0.0089
G1 X-6.5791 Y13.0194
G1 Z0.5312
G1 X-6.7545 Y13.1975
G1 Z-0.0025 F30.
G1 X-7.2407 Y13.6913 F6.1
G1 Y12.6067
G1 Z0.5312
G1 Y12.3567
G1 Z-0.0025 F30.
G1 Y11.2689 F6.1
G1 X-6.7552 Y11.747
G1 Z0.5312
G1 X-6.577 Y11.9224
G1 Z-0.0025 F30.
G1 X-6.0296 Y12.4614 F6.1
G1 X-6.3816 Y12.8189
G3 X-6.3993 Y12.819 I-0.0089 J-0.0088
G1 X-6.4082 Y12.8102
G1 X-6.4102 Y12.8083 Z-0.0022
G1 X-6.4121 Y12.8064 Z-0.0013
G1 X-6.4138 Y12.8048 Z0.0002
G1 X-6.4152 Y12.8034 Z0.0022
G1 X-6.4162 Y12.8023 Z0.0046
G1 X-6.4169 Y12.8017 Z0.0072
G1 X-6.4171 Y12.8015 Z0.01
G0 Z0.2625
G0 X-6.3996 Y12.7837
G1 Z0.0531 F30.
G1 Z-0.0063
G1 X-6.3994 Y12.7839 Z-0.009 F6.1
G1 X-6.3987 Y12.7845 Z-0.0117
G1 X-6.3976 Y12.7856 Z-0.014
G1 X-6.3962 Y12.787 Z-0.016
G1 X-6.3945 Y12.7886 Z-0.0175
G1 X-6.3927 Y12.7905 Z-0.0184
G1 X-6.3907 Y12.7924 Z-0.0187
G1 X-6.3818 Y12.8012
G3 X-6.3816 Y12.8189 I-0.0088 J0.0089
G1 X-6.5791 Y13.0194
G1 Z0.5312
G1 X-6.7545 Y13.1975
G1 Z-0.0187 F30.
G1 X-7.2407 Y13.6913 F6.1
G1 Y12.6067
G1 Z0.5312
G1 Y12.3567
G1 Z-0.0187 F30.
G1 Y11.2689 F6.1
G1 X-6.7552 Y11.747
G1 Z0.5312
G1 X-6.577 Y11.9224
G1 Z-0.0187 F30.
G1 X-6.0296 Y12.4614 F6.1
G1 X-6.3816 Y12.8189
G3 X-6.3993 Y12.819 I-0.0089 J-0.0088
G1 X-6.4082 Y12.8102
G1 X-6.4102 Y12.8083 Z-0.0184
G1 X-6.4121 Y12.8064 Z-0.0175
G1 X-6.4138 Y12.8048 Z-0.016
G1 X-6.4152 Y12.8034 Z-0.014
G1 X-6.4162 Y12.8023 Z-0.0117
G1 X-6.4169 Y12.8017 Z-0.009
G1 X-6.4171 Y12.8015 Z-0.0063
G0 Z0.2625
G0 X-6.3996 Y12.7837
G1 Z0.0369 F30.
G1 Z-0.0225
G1 X-6.3994 Y12.7839 Z-0.0253 F6.1
G1 X-6.3987 Y12.7845 Z-0.0279
G1 X-6.3976 Y12.7856 Z-0.0303
G1 X-6.3962 Y12.787 Z-0.0323
G1 X-6.3945 Y12.7886 Z-0.0338
G1 X-6.3927 Y12.7905 Z-0.0347
G1 X-6.3907 Y12.7924 Z-0.035
G1 X-6.3818 Y12.8012
G3 X-6.3816 Y12.8189 I-0.0088 J0.0089
G1 X-6.5791 Y13.0194
G1 Z0.5312
G1 X-6.7545 Y13.1975
G1 Z-0.035 F30.
G1 X-7.2407 Y13.6913 F6.1
G1 Y12.6067
G1 Z0.5312
G1 Y12.3567
G1 Z-0.035 F30.
G1 Y11.2689 F6.1
G1 X-6.7552 Y11.747
G1 Z0.5312
G1 X-6.577 Y11.9224
G1 Z-0.035 F30.
G1 X-6.0296 Y12.4614 F6.1
G1 X-6.3816 Y12.8189
G3 X-6.3993 Y12.819 I-0.0089 J-0.0088
G1 X-6.4082 Y12.8102
G1 X-6.4102 Y12.8083 Z-0.0347
G1 X-6.4121 Y12.8064 Z-0.0338
G1 X-6.4138 Y12.8048 Z-0.0323
G1 X-6.4152 Y12.8034 Z-0.0303
G1 X-6.4162 Y12.8023 Z-0.0279
G1 X-6.4169 Y12.8017 Z-0.0253
G1 X-6.4171 Y12.8015 Z-0.0225
G0 Z0.2625
G0 X-6.3996 Y12.7837
G1 Z0.0206 F30.
G1 Z-0.0388
G1 X-6.3994 Y12.7839 Z-0.0415 F6.1
G1 X-6.3987 Y12.7845 Z-0.0442
G1 X-6.3976 Y12.7856 Z-0.0465
G1 X-6.3962 Y12.787 Z-0.0485
G1 X-6.3945 Y12.7886 Z-0.05
G1 X-6.3927 Y12.7905 Z-0.0509
G1 X-6.3907 Y12.7924 Z-0.0512
G1 X-6.3818 Y12.8012
G3 X-6.3816 Y12.8189 I-0.0088 J0.0089
G1 X-6.5791 Y13.0194
G1 Z0.5312
G1 X-6.7545 Y13.1975
G1 Z-0.0512 F30.
G1 X-7.2407 Y13.6913 F6.1
G1 Y12.6067
G1 Z0.5312
G1 Y12.3567
G1 Z-0.0512 F30.
G1 Y11.2689 F6.1
G1 X-6.7552 Y11.747
G1 Z0.5312
G1 X-6.577 Y11.9224
G1 Z-0.0512 F30.
G1 X-6.0296 Y12.4614 F6.1
G1 X-6.3816 Y12.8189
G3 X-6.3993 Y12.819 I-0.0089 J-0.0088
G1 X-6.4082 Y12.8102
G1 X-6.4102 Y12.8083 Z-0.0509
G1 X-6.4121 Y12.8064 Z-0.05
G1 X-6.4138 Y12.8048 Z-0.0485
G1 X-6.4152 Y12.8034 Z-0.0465
G1 X-6.4162 Y12.8023 Z-0.0442
G1 X-6.4169 Y12.8017 Z-0.0415
G1 X-6.4171 Y12.8015 Z-0.0388
G0 Z0.2625
G0 X-6.3996 Y12.7837
G1 Z0.0044 F30.
G1 Z-0.055
G1 X-6.3994 Y12.7839 Z-0.0578 F6.1
G1 X-6.3987 Y12.7845 Z-0.0604
G1 X-6.3976 Y12.7856 Z-0.0628
G1 X-6.3962 Y12.787 Z-0.0648
G1 X-6.3945 Y12.7886 Z-0.0663
G1 X-6.3927 Y12.7905 Z-0.0672
G1 X-6.3907 Y12.7924 Z-0.0675
G1 X-6.3818 Y12.8012
G3 X-6.3816 Y12.8189 I-0.0088 J0.0089
G1 X-6.5791 Y13.0194
G1 Z0.5312
G1 X-6.7545 Y13.1975
G1 Z-0.0675 F30.
G1 X-7.2407 Y13.6913 F6.1
G1 Y12.6067
G1 Z0.5312
G1 Y12.3567
G1 Z-0.0675 F30.
G1 Y11.2689 F6.1
G1 X-6.7552 Y11.747
G1 Z0.5312
G1 X-6.577 Y11.9224
G1 Z-0.0675 F30.
G1 X-6.0296 Y12.4614 F6.1
G1 X-6.3816 Y12.8189
G3 X-6.3993 Y12.819 I-0.0089 J-0.0088
G1 X-6.4082 Y12.8102
G1 X-6.4102 Y12.8083 Z-0.0672
G1 X-6.4121 Y12.8064 Z-0.0663
G1 X-6.4138 Y12.8048 Z-0.0648
G1 X-6.4152 Y12.8034 Z-0.0628
G1 X-6.4162 Y12.8023 Z-0.0604
G1 X-6.4169 Y12.8017 Z-0.0578
G1 X-6.4171 Y12.8015 Z-0.055
G0 Z0.2625
G0 X-6.3996 Y12.7837
G1 Z-0.0119 F30.
G1 Z-0.0713
G1 X-6.3994 Y12.7839 Z-0.074 F6.1
G1 X-6.3987 Y12.7845 Z-0.0767
G1 X-6.3976 Y12.7856 Z-0.079
G1 X-6.3962 Y12.787 Z-0.081
G1 X-6.3945 Y12.7886 Z-0.0825
G1 X-6.3927 Y12.7905 Z-0.0834
G1 X-6.3907 Y12.7924 Z-0.0837
G1 X-6.3818 Y12.8012
G3 X-6.3816 Y12.8189 I-0.0088 J0.0089
G1 X-6.5791 Y13.0194
G1 Z0.5312
G1 X-6.7545 Y13.1975
G1 Z-0.0837 F30.
G1 X-7.2407 Y13.6913 F6.1
G1 Y12.6067
G1 Z0.5312
G1 Y12.3567
G1 Z-0.0837 F30.
G1 Y11.2689 F6.1
G1 X-6.7552 Y11.747
G1 Z0.5312
G1 X-6.577 Y11.9224
G1 Z-0.0837 F30.
G1 X-6.0296 Y12.4614 F6.1
G1 X-6.3816 Y12.8189
G3 X-6.3993 Y12.819 I-0.0089 J-0.0088
G1 X-6.4082 Y12.8102
G1 X-6.4102 Y12.8083 Z-0.0834
G1 X-6.4121 Y12.8064 Z-0.0825
G1 X-6.4138 Y12.8048 Z-0.081
G1 X-6.4152 Y12.8034 Z-0.079
G1 X-6.4162 Y12.8023 Z-0.0767
G1 X-6.4169 Y12.8017 Z-0.074
G1 X-6.4171 Y12.8015 Z-0.0713
G0 Z0.2625
G0 X-6.3996 Y12.7837
G1 Z-0.0281 F30.
G1 Z-0.0813
G1 X-6.3994 Y12.7839 Z-0.084 F6.1
G1 X-6.3987 Y12.7845 Z-0.0867
G1 X-6.3976 Y12.7856 Z-0.089
G1 X-6.3962 Y12.787 Z-0.091
G1 X-6.3945 Y12.7886 Z-0.0925
G1 X-6.3927 Y12.7905 Z-0.0934
G1 X-6.3907 Y12.7924 Z-0.0937
G1 X-6.3818 Y12.8012
G3 X-6.3816 Y12.8189 I-0.0088 J0.0089
G1 X-6.5791 Y13.0194
G1 Z0.5312
G1 X-6.7545 Y13.1975
G1 Z-0.0937 F30.
G1 X-7.2407 Y13.6913 F6.1
G1 Y12.6067
G1 Z0.5312
G1 Y12.3567
G1 Z-0.0937 F30.
G1 Y11.2689 F6.1
G1 X-6.7552 Y11.747
G1 Z0.5312
G1 X-6.577 Y11.9224
G1 Z-0.0937 F30.
G1 X-6.0296 Y12.4614 F6.1
G1 X-6.3816 Y12.8189
G3 X-6.3993 Y12.819 I-0.0089 J-0.0088
G1 X-6.4082 Y12.8102
G1 X-6.4102 Y12.8083 Z-0.0934
G1 X-6.4121 Y12.8064 Z-0.0925
G1 X-6.4138 Y12.8048 Z-0.091
G1 X-6.4152 Y12.8034 Z-0.089
G1 X-6.4162 Y12.8023 Z-0.0867
G1 X-6.4169 Y12.8017 Z-0.084
G1 X-6.4171 Y12.8015 Z-0.0813
G0 Z0.5312
G0 X-7.6286 Y11.4691
G1 X-7.6161 F6.1
G1 X-7.6036
G3 X-7.5911 Y11.4816 I0 J0.0125
G3 X-7.607 Y11.6066 I-0.4995 J0
G1 Z0.0462 F30.
G3 X-8.2156 Y11.9652 I-0.4836 J-0.125 F6.1
G3 X-8.5742 Y11.6066 I0.125 J-0.4836
G1 Z0.5312
G3 Y11.3566 I0.4836 J-0.125
G1 Z0.0462 F30.
G3 X-7.9656 Y10.998 I0.4836 J0.125 F6.1
G3 X-7.607 Y11.3566 I-0.125 J0.4836
G1 Z0.5312
G3 X-7.5911 Y11.4816 I-0.4836 J0.125
G3 X-7.6036 Y11.4941 I-0.0125 J0
G1 X-7.6286
G0 Y11.4691
G1 X-7.6161 F6.1
G1 X-7.6036
G3 X-7.5911 Y11.4816 I0 J0.0125
G3 X-7.607 Y11.6066 I-0.4995 J0
G1 Z0.03 F30.
G3 X-8.2156 Y11.9652 I-0.4836 J-0.125 F6.1
G3 X-8.5742 Y11.6066 I0.125 J-0.4836
G1 Z0.5312
G3 Y11.3566 I0.4836 J-0.125
G1 Z0.03 F30.
G3 X-7.9656 Y10.998 I0.4836 J0.125 F6.1
G3 X-7.607 Y11.3566 I-0.125 J0.4836
G1 Z0.5312
G3 X-7.5911 Y11.4816 I-0.4836 J0.125
G3 X-7.6036 Y11.4941 I-0.0125 J0
G1 X-7.6286
G0 Y11.4691
G1 X-7.6161 F6.1
G1 X-7.6036
G3 X-7.5911 Y11.4816 I0 J0.0125
G3 X-7.607 Y11.6066 I-0.4995 J0
G1 Z0.0137 F30.
G3 X-8.2156 Y11.9652 I-0.4836 J-0.125 F6.1
G3 X-8.5742 Y11.6066 I0.125 J-0.4836
G1 Z0.5312
G3 Y11.3566 I0.4836 J-0.125
G1 Z0.0137 F30.
G3 X-7.9656 Y10.998 I0.4836 J0.125 F6.1
G3 X-7.607 Y11.3566 I-0.125 J0.4836
G1 Z0.5312
G3 X-7.5911 Y11.4816 I-0.4836 J0.125
G3 X-7.6036 Y11.4941 I-0.0125 J0
G1 X-7.6286
G0 Y11.4691
G1 X-7.6161 F6.1
G1 X-7.6036
G3 X-7.5911 Y11.4816 I0 J0.0125
G3 X-7.607 Y11.6066 I-0.4995 J0
G1 Z-0.0025 F30.
G3 X-8.2156 Y11.9652 I-0.4836 J-0.125 F6.1
G3 X-8.5742 Y11.6066 I0.125 J-0.4836
G1 Z0.5312
G3 Y11.3566 I0.4836 J-0.125
G1 Z-0.0025 F30.
G3 X-7.9656 Y10.998 I0.4836 J0.125 F6.1
G3 X-7.607 Y11.3566 I-0.125 J0.4836
G1 Z0.5312
G3 X-7.5911 Y11.4816 I-0.4836 J0.125
G3 X-7.6036 Y11.4941 I-0.0125 J0
G1 X-7.6286
G0 Y11.4691
G1 X-7.6161 F6.1
G1 X-7.6036
G3 X-7.5911 Y11.4816 I0 J0.0125
G3 X-7.607 Y11.6066 I-0.4995 J0
G1 Z-0.0187 F30.
G3 X-8.2156 Y11.9652 I-0.4836 J-0.125 F6.1
G3 X-8.5742 Y11.6066 I0.125 J-0.4836
G1 Z0.5312
G3 Y11.3566 I0.4836 J-0.125
G1 Z-0.0187 F30.
G3 X-7.9656 Y10.998 I0.4836 J0.125 F6.1
G3 X-7.607 Y11.3566 I-0.125 J0.4836
G1 Z0.5312
G3 X-7.5911 Y11.4816 I-0.4836 J0.125
G3 X-7.6036 Y11.4941 I-0.0125 J0
G1 X-7.6286
G0 Y11.4691
G1 X-7.6161 F6.1
G1 X-7.6036
G3 X-7.5911 Y11.4816 I0 J0.0125
G3 X-7.607 Y11.6066 I-0.4995 J0
G1 Z-0.035 F30.
G3 X-8.2156 Y11.9652 I-0.4836 J-0.125 F6.1
G3 X-8.5742 Y11.6066 I0.125 J-0.4836
G1 Z0.5312
G3 Y11.3566 I0.4836 J-0.125
G1 Z-0.035 F30.
G3 X-7.9656 Y10.998 I0.4836 J0.125 F6.1
G3 X-7.607 Y11.3566 I-0.125 J0.4836
G1 Z0.5312
G3 X-7.5911 Y11.4816 I-0.4836 J0.125
G3 X-7.6036 Y11.4941 I-0.0125 J0
G1 X-7.6286
G0 Y11.4691
G1 X-7.6161 F6.1
G1 X-7.6036
G3 X-7.5911 Y11.4816 I0 J0.0125
G3 X-7.607 Y11.6066 I-0.4995 J0
G1 Z-0.0512 F30.
G3 X-8.2156 Y11.9652 I-0.4836 J-0.125 F6.1
G3 X-8.5742 Y11.6066 I0.125 J-0.4836
G1 Z0.5312
G3 Y11.3566 I0.4836 J-0.125
G1 Z-0.0512 F30.
G3 X-7.9656 Y10.998 I0.4836 J0.125 F6.1
G3 X-7.607 Y11.3566 I-0.125 J0.4836
G1 Z0.5312
G3 X-7.5911 Y11.4816 I-0.4836 J0.125
G3 X-7.6036 Y11.4941 I-0.0125 J0
G1 X-7.6286
G0 Y11.4691
G1 X-7.6161 F6.1
G1 X-7.6036
G3 X-7.5911 Y11.4816 I0 J0.0125
G3 X-7.607 Y11.6066 I-0.4995 J0
G1 Z-0.0675 F30.
G3 X-8.2156 Y11.9652 I-0.4836 J-0.125 F6.1
G3 X-8.5742 Y11.6066 I0.125 J-0.4836
G1 Z0.5312
G3 Y11.3566 I0.4836 J-0.125
G1 Z-0.0675 F30.
G3 X-7.9656 Y10.998 I0.4836 J0.125 F6.1
G3 X-7.607 Y11.3566 I-0.125 J0.4836
G1 Z0.5312
G3 X-7.5911 Y11.4816 I-0.4836 J0.125
G3 X-7.6036 Y11.4941 I-0.0125 J0
G1 X-7.6286
G0 Y11.4691
G1 X-7.6161 F6.1
G1 X-7.6036
G3 X-7.5911 Y11.4816 I0 J0.0125
G3 X-7.607 Y11.6066 I-0.4995 J0
G1 Z-0.0837 F30.
G3 X-8.2156 Y11.9652 I-0.4836 J-0.125 F6.1
G3 X-8.5742 Y11.6066 I0.125 J-0.4836
G1 Z0.5312
G3 Y11.3566 I0.4836 J-0.125
G1 Z-0.0837 F30.
G3 X-7.9656 Y10.998 I0.4836 J0.125 F6.1
G3 X-7.607 Y11.3566 I-0.125 J0.4836
G1 Z0.5312
G3 X-7.5911 Y11.4816 I-0.4836 J0.125
G3 X-7.6036 Y11.4941 I-0.0125 J0
G1 X-7.6286
G0 Y11.4691
G1 X-7.6161 F6.1
G1 X-7.6036
G3 X-7.5911 Y11.4816 I0 J0.0125
G3 X-7.607 Y11.6066 I-0.4995 J0
G1 Z-0.0937 F30.
G3 X-8.2156 Y11.9652 I-0.4836 J-0.125 F6.1
G3 X-8.5742 Y11.6066 I0.125 J-0.4836
G1 Z0.5312
G3 Y11.3566 I0.4836 J-0.125
G1 Z-0.0937 F30.
G3 X-7.9656 Y10.998 I0.4836 J0.125 F6.1
G3 X-7.607 Y11.3566 I-0.125 J0.4836
G1 Z0.5312
G3 X-7.5911 Y11.4816 I-0.4836 J0.125
G3 X-7.6036 Y11.4941 I-0.0125 J0
G1 X-7.6286
G0 X-9.9743 Y11.8181
G1 X-9.9655 Y11.827 F6.1
G1 X-9.9566 Y11.8358
G3 Y11.8535 I-0.0088 J0.0088
G1 X-10.045 Y11.9419
G1 Z0.0462 F30.
G1 X-11.0424 Y12.9393 F6.1
G1 Y12.1043
G1 Z0.5312
G1 Y11.8543
G1 Z0.0462 F30.
G1 Y10.8942 F6.1
G1 X-10.9159 Y10.7677
G1 X-9.9559
G1 Z0.5312
G1 X-9.7059
G1 Z0.0462 F30.
G1 X-8.8709 F6.1
G1 X-9.8683 Y11.7651
G1 Z0.5312
G1 X-9.9566 Y11.8535
G3 X-9.9743 I-0.0088 J-0.0088
G1 X-9.992 Y11.8358
G0 X-9.9743 Y11.8181
G1 X-9.9655 Y11.827 F6.1
G1 X-9.9566 Y11.8358
G3 Y11.8535 I-0.0088 J0.0088
G1 X-10.045 Y11.9419
G1 Z0.03 F30.
G1 X-11.0424 Y12.9393 F6.1
G1 Y12.1043
G1 Z0.5312
G1 Y11.8543
G1 Z0.03 F30.
G1 Y10.8942 F6.1
G1 X-10.9159 Y10.7677
G1 X-9.9559
G1 Z0.5312
G1 X-9.7059
G1 Z0.03 F30.
G1 X-8.8709 F6.1
G1 X-9.8683 Y11.7651
G1 Z0.5312
G1 X-9.9566 Y11.8535
G3 X-9.9743 I-0.0088 J-0.0088
G1 X-9.992 Y11.8358
G0 X-9.9743 Y11.8181
G1 X-9.9655 Y11.827 F6.1
G1 X-9.9566 Y11.8358
G3 Y11.8535 I-0.0088 J0.0088
G1 X-10.045 Y11.9419
G1 Z0.0137 F30.
G1 X-11.0424 Y12.9393 F6.1
G1 Y12.1043
G1 Z0.5312
G1 Y11.8543
G1 Z0.0137 F30.
G1 Y10.8942 F6.1
G1 X-10.9159 Y10.7677
G1 X-9.9559
G1 Z0.5312
G1 X-9.7059
G1 Z0.0137 F30.
G1 X-8.8709 F6.1
G1 X-9.8683 Y11.7651
G1 Z0.5312
G1 X-9.9566 Y11.8535
G3 X-9.9743 I-0.0088 J-0.0088
G1 X-9.992 Y11.8358
G0 X-9.9743 Y11.8181
G1 X-9.9655 Y11.827 F6.1
G1 X-9.9566 Y11.8358
G3 Y11.8535 I-0.0088 J0.0088
G1 X-10.045 Y11.9419
G1 Z-0.0025 F30.
G1 X-11.0424 Y12.9393 F6.1
G1 Y12.1043
G1 Z0.5312
G1 Y11.8543
G1 Z-0.0025 F30.
G1 Y10.8942 F6.1
G1 X-10.9159 Y10.7677
G1 X-9.9559
G1 Z0.5312
G1 X-9.7059
G1 Z-0.0025 F30.
G1 X-8.8709 F6.1
G1 X-9.8683 Y11.7651
G1 Z0.5312
G1 X-9.9566 Y11.8535
G3 X-9.9743 I-0.0088 J-0.0088
G1 X-9.992 Y11.8358
G0 X-9.9743 Y11.8181
G1 X-9.9655 Y11.827 F6.1
G1 X-9.9566 Y11.8358
G3 Y11.8535 I-0.0088 J0.0088
G1 X-10.045 Y11.9419
G1 Z-0.0187 F30.
G1 X-11.0424 Y12.9393 F6.1
G1 Y12.1043
G1 Z0.5312
G1 Y11.8543
G1 Z-0.0187 F30.
G1 Y10.8942 F6.1
G1 X-10.9159 Y10.7677
G1 X-9.9559
G1 Z0.5312
G1 X-9.7059
G1 Z-0.0187 F30.
G1 X-8.8709 F6.1
G1 X-9.8683 Y11.7651
G1 Z0.5312
G1 X-9.9566 Y11.8535
G3 X-9.9743 I-0.0088 J-0.0088
G1 X-9.992 Y11.8358
G0 X-9.9743 Y11.8181
G1 X-9.9655 Y11.827 F6.1
G1 X-9.9566 Y11.8358
G3 Y11.8535 I-0.0088 J0.0088
G1 X-10.045 Y11.9419
G1 Z-0.035 F30.
G1 X-11.0424 Y12.9393 F6.1
G1 Y12.1043
G1 Z0.5312
G1 Y11.8543
G1 Z-0.035 F30.
G1 Y10.8942 F6.1
G1 X-10.9159 Y10.7677
G1 X-9.9559
G1 Z0.5312
G1 X-9.7059
G1 Z-0.035 F30.
G1 X-8.8709 F6.1
G1 X-9.8683 Y11.7651
G1 Z0.5312
G1 X-9.9566 Y11.8535
G3 X-9.9743 I-0.0088 J-0.0088
G1 X-9.992 Y11.8358
G0 X-9.9743 Y11.8181
G1 X-9.9655 Y11.827 F6.1
G1 X-9.9566 Y11.8358
G3 Y11.8535 I-0.0088 J0.0088
G1 X-10.045 Y11.9419
G1 Z-0.0512 F30.
G1 X-11.0424 Y12.9393 F6.1
G1 Y12.1043
G1 Z0.5312
G1 Y11.8543
G1 Z-0.0512 F30.
G1 Y10.8942 F6.1
G1 X-10.9159 Y10.7677
G1 X-9.9559
G1 Z0.5312
G1 X-9.7059
G1 Z-0.0512 F30.
G1 X-8.8709 F6.1
G1 X-9.8683 Y11.7651
G1 Z0.5312
G1 X-9.9566 Y11.8535
G3 X-9.9743 I-0.0088 J-0.0088
G1 X-9.992 Y11.8358
G0 X-9.9743 Y11.8181
G1 X-9.9655 Y11.827 F6.1
G1 X-9.9566 Y11.8358
G3 Y11.8535 I-0.0088 J0.0088
G1 X-10.045 Y11.9419
G1 Z-0.0675 F30.
G1 X-11.0424 Y12.9393 F6.1
G1 Y12.1043
G1 Z0.5312
G1 Y11.8543
G1 Z-0.0675 F30.
G1 Y10.8942 F6.1
G1 X-10.9159 Y10.7677
G1 X-9.9559
G1 Z0.5312
G1 X-9.7059
G1 Z-0.0675 F30.
G1 X-8.8709 F6.1
G1 X-9.8683 Y11.7651
G1 Z0.5312
G1 X-9.9566 Y11.8535
G3 X-9.9743 I-0.0088 J-0.0088
G1 X-9.992 Y11.8358
G0 X-9.9743 Y11.8181
G1 X-9.9655 Y11.827 F6.1
G1 X-9.9566 Y11.8358
G3 Y11.8535 I-0.0088 J0.0088
G1 X-10.045 Y11.9419
G1 Z-0.0837 F30.
G1 X-11.0424 Y12.9393 F6.1
G1 Y12.1043
G1 Z0.5312
G1 Y11.8543
G1 Z-0.0837 F30.
G1 Y10.8942 F6.1
G1 X-10.9159 Y10.7677
G1 X-9.9559
G1 Z0.5312
G1 X-9.7059
G1 Z-0.0837 F30.
G1 X-8.8709 F6.1
G1 X-9.8683 Y11.7651
G1 Z0.5312
G1 X-9.9566 Y11.8535
G3 X-9.9743 I-0.0088 J-0.0088
G1 X-9.992 Y11.8358
G0 X-9.9743 Y11.8181
G1 X-9.9655 Y11.827 F6.1
G1 X-9.9566 Y11.8358
G3 Y11.8535 I-0.0088 J0.0088
G1 X-10.045 Y11.9419
G1 Z-0.0937 F30.
G1 X-11.0424 Y12.9393 F6.1
G1 Y12.1043
G1 Z0.5312
G1 Y11.8543
G1 Z-0.0937 F30.
G1 Y10.8942 F6.1
G1 X-10.9159 Y10.7677
G1 X-9.9559
G1 Z0.5312
G1 X-9.7059
G1 Z-0.0937 F30.
G1 X-8.8709 F6.1
G1 X-9.8683 Y11.7651
G1 Z0.5312
G1 X-9.9566 Y11.8535
G3 X-9.9743 I-0.0088 J-0.0088
G1 X-9.992 Y11.8358
G0 X-11.7955 Y13.1328
G0 Z0.2625
G1 Z0.1181 F30.
G1 Z0.0587
G1 X-11.7952 Z0.056 F6.1
G1 X-11.7942 Z0.0533
G1 X-11.7927 Z0.051
G1 X-11.7908 Z0.049
G1 X-11.7884 Z0.0475
G1 X-11.7858 Z0.0466
G1 X-11.783 Z0.0462
G1 X-11.7705
G3 X-11.758 Y13.1453 I0 J0.0125
G1 Y13.6548
G1 X-11.8845 Y13.7813
G1 X-12.8445
G1 Z0.5312
G1 X-13.0945
G1 Z0.0462 F30.
G1 X-13.9295 F6.1
G1 X-12.9322 Y12.784
G1 Z0.5312
G1 X-12.7554 Y12.6072
G1 Z0.0462 F30.
G1 X-11.758 Y11.6098 F6.1
G1 Y12.4448
G1 Z0.5312
G1 Y12.6948
G1 Z0.0462 F30.
G1 Y13.1453 F6.1
G3 X-11.7705 Y13.1578 I-0.0125 J0
G1 X-11.783
G1 X-11.7858 Z0.0466
G1 X-11.7884 Z0.0475
G1 X-11.7908 Z0.049
G1 X-11.7927 Z0.051
G1 X-11.7942 Z0.0533
G1 X-11.7952 Z0.056
G1 X-11.7955 Z0.0587
G0 Z0.2625
G0 Y13.1328
G1 Z0.1019 F30.
G1 Z0.0425
G1 X-11.7952 Z0.0397 F6.1
G1 X-11.7942 Z0.0371
G1 X-11.7927 Z0.0347
G1 X-11.7908 Z0.0327
G1 X-11.7884 Z0.0312
G1 X-11.7858 Z0.0303
G1 X-11.783 Z0.03
G1 X-11.7705
G3 X-11.758 Y13.1453 I0 J0.0125
G1 Y13.6548
G1 X-11.8845 Y13.7813
G1 X-12.8445
G1 Z0.5312
G1 X-13.0945
G1 Z0.03 F30.
G1 X-13.9295 F6.1
G1 X-12.9322 Y12.784
G1 Z0.5312
G1 X-12.7554 Y12.6072
G1 Z0.03 F30.
G1 X-11.758 Y11.6098 F6.1
G1 Y12.4448
G1 Z0.5312
G1 Y12.6948
G1 Z0.03 F30.
G1 Y13.1453 F6.1
G3 X-11.7705 Y13.1578 I-0.0125 J0
G1 X-11.783
G1 X-11.7858 Z0.0303
G1 X-11.7884 Z0.0312
G1 X-11.7908 Z0.0327
G1 X-11.7927 Z0.0347
G1 X-11.7942 Z0.0371
G1 X-11.7952 Z0.0397
G1 X-11.7955 Z0.0425
G0 Z0.2625
G0 Y13.1328
G1 Z0.0856 F30.
G1 Z0.0262
G1 X-11.7952 Z0.0235 F6.1
G1 X-11.7942 Z0.0208
G1 X-11.7927 Z0.0185
G1 X-11.7908 Z0.0165
G1 X-11.7884 Z0.015
G1 X-11.7858 Z0.0141
G1 X-11.783 Z0.0137
G1 X-11.7705
G3 X-11.758 Y13.1453 I0 J0.0125
G1 Y13.6548
G1 X-11.8845 Y13.7813
G1 X-12.8445
G1 Z0.5312
G1 X-13.0945
G1 Z0.0137 F30.
G1 X-13.9295 F6.1
G1 X-12.9322 Y12.784
G1 Z0.5312
G1 X-12.7554 Y12.6072
G1 Z0.0137 F30.
G1 X-11.758 Y11.6098 F6.1
G1 Y12.4448
G1 Z0.5312
G1 Y12.6948
G1 Z0.0137 F30.
G1 Y13.1453 F6.1
G3 X-11.7705 Y13.1578 I-0.0125 J0
G1 X-11.783
G1 X-11.7858 Z0.0141
G1 X-11.7884 Z0.015
G1 X-11.7908 Z0.0165
G1 X-11.7927 Z0.0185
G1 X-11.7942 Z0.0208
G1 X-11.7952 Z0.0235
G1 X-11.7955 Z0.0262
G0 Z0.2625
G0 Y13.1328
G1 Z0.0694 F30.
G1 Z0.01
G1 X-11.7952 Z0.0072 F6.1
G1 X-11.7942 Z0.0046
G1 X-11.7927 Z0.0022
G1 X-11.7908 Z0.0002
G1 X-11.7884 Z-0.0013
G1 X-11.7858 Z-0.0022
G1 X-11.783 Z-0.0025
G1 X-11.7705
G3 X-11.758 Y13.1453 I0 J0.0125
G1 Y13.6548
G1 X-11.8845 Y13.7813
G1 X-12.8445
G1 Z0.5312
G1 X-13.0945
G1 Z-0.0025 F30.
G1 X-13.9295 F6.1
G1 X-12.9322 Y12.784
G1 Z0.5312
G1 X-12.7554 Y12.6072
G1 Z-0.0025 F30.
G1 X-11.758 Y11.6098 F6.1
G1 Y12.4448
G1 Z0.5312
G1 Y12.6948
G1 Z-0.0025 F30.
G1 Y13.1453 F6.1
G3 X-11.7705 Y13.1578 I-0.0125 J0
G1 X-11.783
G1 X-11.7858 Z-0.0022
G1 X-11.7884 Z-0.0013
G1 X-11.7908 Z0.0002
G1 X-11.7927 Z0.0022
G1 X-11.7942 Z0.0046
G1 X-11.7952 Z0.0072
G1 X-11.7955 Z0.01
G0 Z0.2625
G0 Y13.1328
G1 Z0.0531 F30.
G1 Z-0.0063
G1 X-11.7952 Z-0.009 F6.1
G1 X-11.7942 Z-0.0117
G1 X-11.7927 Z-0.014
G1 X-11.7908 Z-0.016
G1 X-11.7884 Z-0.0175
G1 X-11.7858 Z-0.0184
G1 X-11.783 Z-0.0187
G1 X-11.7705
G3 X-11.758 Y13.1453 I0 J0.0125
G1 Y13.6548
G1 X-11.8845 Y13.7813
G1 X-12.8445
G1 Z0.5312
G1 X-13.0945
G1 Z-0.0187 F30.
G1 X-13.9295 F6.1
G1 X-12.9322 Y12.784
G1 Z0.5312
G1 X-12.7554 Y12.6072
G1 Z-0.0187 F30.
G1 X-11.758 Y11.6098 F6.1
G1 Y12.4448
G1 Z0.5312
G1 Y12.6948
G1 Z-0.0187 F30.
G1 Y13.1453 F6.1
G3 X-11.7705 Y13.1578 I-0.0125 J0
G1 X-11.783
G1 X-11.7858 Z-0.0184
G1 X-11.7884 Z-0.0175
G1 X-11.7908 Z-0.016
G1 X-11.7927 Z-0.014
G1 X-11.7942 Z-0.0117
G1 X-11.7952 Z-0.009
G1 X-11.7955 Z-0.0063
G0 Z0.2625
G0 Y13.1328
G1 Z0.0369 F30.
G1 Z-0.0225
G1 X-11.7952 Z-0.0253 F6.1
G1 X-11.7942 Z-0.0279
G1 X-11.7927 Z-0.0303
G1 X-11.7908 Z-0.0323
G1 X-11.7884 Z-0.0338
G1 X-11.7858 Z-0.0347
G1 X-11.783 Z-0.035
G1 X-11.7705
G3 X-11.758 Y13.1453 I0 J0.0125
G1 Y13.6548
G1 X-11.8845 Y13.7813
G1 X-12.8445
G1 Z0.5312
G1 X-13.0945
G1 Z-0.035 F30.
G1 X-13.9295 F6.1
G1 X-12.9322 Y12.784
G1 Z0.5312
G1 X-12.7554 Y12.6072
G1 Z-0.035 F30.
G1 X-11.758 Y11.6098 F6.1
G1 Y12.4448
G1 Z0.5312
G1 Y12.6948
G1 Z-0.035 F30.
G1 Y13.1453 F6.1
G3 X-11.7705 Y13.1578 I-0.0125 J0
G1 X-11.783
G1 X-11.7858 Z-0.0347
G1 X-11.7884 Z-0.0338
G1 X-11.7908 Z-0.0323
G1 X-11.7927 Z-0.0303
G1 X-11.7942 Z-0.0279
G1 X-11.7952 Z-0.0253
G1 X-11.7955 Z-0.0225
G0 Z0.2625
G0 Y13.1328
G1 Z0.0206 F30.
G1 Z-0.0388
G1 X-11.7952 Z-0.0415 F6.1
G1 X-11.7942 Z-0.0442
G1 X-11.7927 Z-0.0465
G1 X-11.7908 Z-0.0485
G1 X-11.7884 Z-0.05
G1 X-11.7858 Z-0.0509
G1 X-11.783 Z-0.0512
G1 X-11.7705
G3 X-11.758 Y13.1453 I0 J0.0125
G1 Y13.6548
G1 X-11.8845 Y13.7813
G1 X-12.8445
G1 Z0.5312
G1 X-13.0945
G1 Z-0.0512 F30.
G1 X-13.9295 F6.1
G1 X-12.9322 Y12.784
G1 Z0.5312
G1 X-12.7554 Y12.6072
G1 Z-0.0512 F30.
G1 X-11.758 Y11.6098 F6.1
G1 Y12.4448
G1 Z0.5312
G1 Y12.6948
G1 Z-0.0512 F30.
G1 Y13.1453 F6.1
G3 X-11.7705 Y13.1578 I-0.0125 J0
G1 X-11.783
G1 X-11.7858 Z-0.0509
G1 X-11.7884 Z-0.05
G1 X-11.7908 Z-0.0485
G1 X-11.7927 Z-0.0465
G1 X-11.7942 Z-0.0442
G1 X-11.7952 Z-0.0415
G1 X-11.7955 Z-0.0388
G0 Z0.2625
G0 Y13.1328
G1 Z0.0044 F30.
G1 Z-0.055
G1 X-11.7952 Z-0.0578 F6.1
G1 X-11.7942 Z-0.0604
G1 X-11.7927 Z-0.0628
G1 X-11.7908 Z-0.0648
G1 X-11.7884 Z-0.0663
G1 X-11.7858 Z-0.0672
G1 X-11.783 Z-0.0675
G1 X-11.7705
G3 X-11.758 Y13.1453 I0 J0.0125
G1 Y13.6548
G1 X-11.8845 Y13.7813
G1 X-12.8445
G1 Z0.5312
G1 X-13.0945
G1 Z-0.0675 F30.
G1 X-13.9295 F6.1
G1 X-12.9322 Y12.784
G1 Z0.5312
G1 X-12.7554 Y12.6072
G1 Z-0.0675 F30.
G1 X-11.758 Y11.6098 F6.1
G1 Y12.4448
G1 Z0.5312
G1 Y12.6948
G1 Z-0.0675 F30.
G1 Y13.1453 F6.1
G3 X-11.7705 Y13.1578 I-0.0125 J0
G1 X-11.783
G1 X-11.7858 Z-0.0672
G1 X-11.7884 Z-0.0663
G1 X-11.7908 Z-0.0648
G1 X-11.7927 Z-0.0628
G1 X-11.7942 Z-0.0604
G1 X-11.7952 Z-0.0578
G1 X-11.7955 Z-0.055
G0 Z0.2625
G0 Y13.1328
G1 Z-0.0119 F30.
G1 Z-0.0713
G1 X-11.7952 Z-0.074 F6.1
G1 X-11.7942 Z-0.0767
G1 X-11.7927 Z-0.079
G1 X-11.7908 Z-0.081
G1 X-11.7884 Z-0.0825
G1 X-11.7858 Z-0.0834
G1 X-11.783 Z-0.0837
G1 X-11.7705
G3 X-11.758 Y13.1453 I0 J0.0125
G1 Y13.6548
G1 X-11.8845 Y13.7813
G1 X-12.8445
G1 Z0.5312
G1 X-13.0945
G1 Z-0.0837 F30.
G1 X-13.9295 F6.1
G1 X-12.9322 Y12.784
G1 Z0.5312
G1 X-12.7554 Y12.6072
G1 Z-0.0837 F30.
G1 X-11.758 Y11.6098 F6.1
G1 Y12.4448
G1 Z0.5312
G1 Y12.6948
G1 Z-0.0837 F30.
G1 Y13.1453 F6.1
G3 X-11.7705 Y13.1578 I-0.0125 J0
G1 X-11.783
G1 X-11.7858 Z-0.0834
G1 X-11.7884 Z-0.0825
G1 X-11.7908 Z-0.081
G1 X-11.7927 Z-0.079
G1 X-11.7942 Z-0.0767
G1 X-11.7952 Z-0.074
G1 X-11.7955 Z-0.0713
G0 Z0.2625
G0 Y13.1328
G1 Z-0.0281 F30.
G1 Z-0.0813
G1 X-11.7952 Z-0.084 F6.1
G1 X-11.7942 Z-0.0867
G1 X-11.7927 Z-0.089
G1 X-11.7908 Z-0.091
G1 X-11.7884 Z-0.0925
G1 X-11.7858 Z-0.0934
G1 X-11.783 Z-0.0937
G1 X-11.7705
G3 X-11.758 Y13.1453 I0 J0.0125
G1 Y13.6548
G1 X-11.8845 Y13.7813
G1 X-12.8445
G1 Z0.5312
G1 X-13.0945
G1 Z-0.0937 F30.
G1 X-13.9295 F6.1
G1 X-12.9322 Y12.784
G1 Z0.5312
G1 X-12.7554 Y12.6072
G1 Z-0.0937 F30.
G1 X-11.758 Y11.6098 F6.1
G1 Y12.4448
G1 Z0.5312
G1 Y12.6948
G1 Z-0.0937 F30.
G1 Y13.1453 F6.1
G3 X-11.7705 Y13.1578 I-0.0125 J0
G1 X-11.783
G1 X-11.7858 Z-0.0934
G1 X-11.7884 Z-0.0925
G1 X-11.7908 Z-0.091
G1 X-11.7927 Z-0.089
G1 X-11.7942 Z-0.0867
G1 X-11.7952 Z-0.084
G1 X-11.7955 Z-0.0813
G0 Z0.5312
G0 X-14.2368 Y13.0439
G1 X-14.2243 F6.1
G1 X-14.2118
G3 X-14.1993 Y13.0564 I0 J0.0125
G3 X-14.2152 Y13.1814 I-0.4995 J0
G1 Z0.0462 F30.
G3 X-14.8238 Y13.54 I-0.4836 J-0.125 F6.1
G3 X-15.1824 Y13.1814 I0.125 J-0.4836
G1 Z0.5312
G3 Y12.9314 I0.4836 J-0.125
G1 Z0.0462 F30.
G3 X-14.5738 Y12.5728 I0.4836 J0.125 F6.1
G3 X-14.2152 Y12.9314 I-0.125 J0.4836
G1 Z0.5312
G3 X-14.1993 Y13.0564 I-0.4836 J0.125
G3 X-14.2118 Y13.0689 I-0.0125 J0
G1 X-14.2368
G0 Y13.0439
G1 X-14.2243 F6.1
G1 X-14.2118
G3 X-14.1993 Y13.0564 I0 J0.0125
G3 X-14.2152 Y13.1814 I-0.4995 J0
G1 Z0.03 F30.
G3 X-14.8238 Y13.54 I-0.4836 J-0.125 F6.1
G3 X-15.1824 Y13.1814 I0.125 J-0.4836
G1 Z0.5312
G3 Y12.9314 I0.4836 J-0.125
G1 Z0.03 F30.
G3 X-14.5738 Y12.5728 I0.4836 J0.125 F6.1
G3 X-14.2152 Y12.9314 I-0.125 J0.4836
G1 Z0.5312
G3 X-14.1993 Y13.0564 I-0.4836 J0.125
G3 X-14.2118 Y13.0689 I-0.0125 J0
G1 X-14.2368
G0 Y13.0439
G1 X-14.2243 F6.1
G1 X-14.2118
G3 X-14.1993 Y13.0564 I0 J0.0125
G3 X-14.2152 Y13.1814 I-0.4995 J0
G1 Z0.0137 F30.
G3 X-14.8238 Y13.54 I-0.4836 J-0.125 F6.1
G3 X-15.1824 Y13.1814 I0.125 J-0.4836
G1 Z0.5312
G3 Y12.9314 I0.4836 J-0.125
G1 Z0.0137 F30.
G3 X-14.5738 Y12.5728 I0.4836 J0.125 F6.1
G3 X-14.2152 Y12.9314 I-0.125 J0.4836
G1 Z0.5312
G3 X-14.1993 Y13.0564 I-0.4836 J0.125
G3 X-14.2118 Y13.0689 I-0.0125 J0
G1 X-14.2368
G0 Y13.0439
G1 X-14.2243 F6.1
G1 X-14.2118
G3 X-14.1993 Y13.0564 I0 J0.0125
G3 X-14.2152 Y13.1814 I-0.4995 J0
G1 Z-0.0025 F30.
G3 X-14.8238 Y13.54 I-0.4836 J-0.125 F6.1
G3 X-15.1824 Y13.1814 I0.125 J-0.4836
G1 Z0.5312
G3 Y12.9314 I0.4836 J-0.125
G1 Z-0.0025 F30.
G3 X-14.5738 Y12.5728 I0.4836 J0.125 F6.1
G3 X-14.2152 Y12.9314 I-0.125 J0.4836
G1 Z0.5312
G3 X-14.1993 Y13.0564 I-0.4836 J0.125
G3 X-14.2118 Y13.0689 I-0.0125 J0
G1 X-14.2368
G0 Y13.0439
G1 X-14.2243 F6.1
G1 X-14.2118
G3 X-14.1993 Y13.0564 I0 J0.0125
G3 X-14.2152 Y13.1814 I-0.4995 J0
G1 Z-0.0187 F30.
G3 X-14.8238 Y13.54 I-0.4836 J-0.125 F6.1
G3 X-15.1824 Y13.1814 I0.125 J-0.4836
G1 Z0.5312
G3 Y12.9314 I0.4836 J-0.125
G1 Z-0.0187 F30.
G3 X-14.5738 Y12.5728 I0.4836 J0.125 F6.1
G3 X-14.2152 Y12.9314 I-0.125 J0.4836
G1 Z0.5312
G3 X-14.1993 Y13.0564 I-0.4836 J0.125
G3 X-14.2118 Y13.0689 I-0.0125 J0
G1 X-14.2368
G0 Y13.0439
G1 X-14.2243 F6.1
G1 X-14.2118
G3 X-14.1993 Y13.0564 I0 J0.0125
G3 X-14.2152 Y13.1814 I-0.4995 J0
G1 Z-0.035 F30.
G3 X-14.8238 Y13.54 I-0.4836 J-0.125 F6.1
G3 X-15.1824 Y13.1814 I0.125 J-0.4836
G1 Z0.5312
G3 Y12.9314 I0.4836 J-0.125
G1 Z-0.035 F30.
G3 X-14.5738 Y12.5728 I0.4836 J0.125 F6.1
G3 X-14.2152 Y12.9314 I-0.125 J0.4836
G1 Z0.5312
G3 X-14.1993 Y13.0564 I-0.4836 J0.125
G3 X-14.2118 Y13.0689 I-0.0125 J0
G1 X-14.2368
G0 Y13.0439
G1 X-14.2243 F6.1
G1 X-14.2118
G3 X-14.1993 Y13.0564 I0 J0.0125
G3 X-14.2152 Y13.1814 I-0.4995 J0
G1 Z-0.0512 F30.
G3 X-14.8238 Y13.54 I-0.4836 J-0.125 F6.1
G3 X-15.1824 Y13.1814 I0.125 J-0.4836
G1 Z0.5312
G3 Y12.9314 I0.4836 J-0.125
G1 Z-0.0512 F30.
G3 X-14.5738 Y12.5728 I0.4836 J0.125 F6.1
G3 X-14.2152 Y12.9314 I-0.125 J0.4836
G1 Z0.5312
G3 X-14.1993 Y13.0564 I-0.4836 J0.125
G3 X-14.2118 Y13.0689 I-0.0125 J0
G1 X-14.2368
G0 Y13.0439
G1 X-14.2243 F6.1
G1 X-14.2118
G3 X-14.1993 Y13.0564 I0 J0.0125
G3 X-14.2152 Y13.1814 I-0.4995 J0
G1 Z-0.0675 F30.
G3 X-14.8238 Y13.54 I-0.4836 J-0.125 F6.1
G3 X-15.1824 Y13.1814 I0.125 J-0.4836
G1 Z0.5312
G3 Y12.9314 I0.4836 J-0.125
G1 Z-0.0675 F30.
G3 X-14.5738 Y12.5728 I0.4836 J0.125 F6.1
G3 X-14.2152 Y12.9314 I-0.125 J0.4836
G1 Z0.5312
G3 X-14.1993 Y13.0564 I-0.4836 J0.125
G3 X-14.2118 Y13.0689 I-0.0125 J0
G1 X-14.2368
G0 Y13.0439
G1 X-14.2243 F6.1
G1 X-14.2118
G3 X-14.1993 Y13.0564 I0 J0.0125
G3 X-14.2152 Y13.1814 I-0.4995 J0
G1 Z-0.0837 F30.
G3 X-14.8238 Y13.54 I-0.4836 J-0.125 F6.1
G3 X-15.1824 Y13.1814 I0.125 J-0.4836
G1 Z0.5312
G3 Y12.9314 I0.4836 J-0.125
G1 Z-0.0837 F30.
G3 X-14.5738 Y12.5728 I0.4836 J0.125 F6.1
G3 X-14.2152 Y12.9314 I-0.125 J0.4836
G1 Z0.5312
G3 X-14.1993 Y13.0564 I-0.4836 J0.125
G3 X-14.2118 Y13.0689 I-0.0125 J0
G1 X-14.2368
G0 Y13.0439
G1 X-14.2243 F6.1
G1 X-14.2118
G3 X-14.1993 Y13.0564 I0 J0.0125
G3 X-14.2152 Y13.1814 I-0.4995 J0
G1 Z-0.0937 F30.
G3 X-14.8238 Y13.54 I-0.4836 J-0.125 F6.1
G3 X-15.1824 Y13.1814 I0.125 J-0.4836
G1 Z0.5312
G3 Y12.9314 I0.4836 J-0.125
G1 Z-0.0937 F30.
G3 X-14.5738 Y12.5728 I0.4836 J0.125 F6.1
G3 X-14.2152 Y12.9314 I-0.125 J0.4836
G1 Z0.5312
G3 X-14.1993 Y13.0564 I-0.4836 J0.125
G3 X-14.2118 Y13.0689 I-0.0125 J0
G1 X-14.2368
G0 X-15.5862 Y12.5979
G1 X-15.5737 F6.1
G1 X-15.5612
G3 X-15.5487 Y12.6104 I0 J0.0125
G1 Y12.622
G1 Z0.0462 F30.
G1 Y13.7048 F6.1
G1 X-16.0199 Y13.2867
G1 Z0.5312
G1 X-16.2069 Y13.1208
G1 Z0.0462 F30.
G1 X-16.7353 Y12.6519 F6.1
G1 X-16.1911 Y12.0386
G1 Z0.5312
G1 X-16.0252 Y11.8516
G1 Z0.0462 F30.
G1 X-15.5487 Y11.3147 F6.1
G1 Y12.372
G1 Z0.5312
G1 Y12.6104
G3 X-15.5565 Y12.622 I-0.0125 J0
G1 Z0.0462 F30.
G1 X-15.5588 Y12.6227 F6.1
G1 X-15.5612 Y12.6229
G1 X-15.5737
G1 X-15.5765 Z0.0466
G1 X-15.5791 Z0.0475
G1 X-15.5815 Z0.049
G1 X-15.5835 Z0.051
G1 X-15.585 Z0.0533
G1 X-15.5859 Z0.056
G1 X-15.5862 Z0.0587
G0 Z0.5312
G0 Y12.5979
G1 X-15.5737 F6.1
G1 X-15.5612
G3 X-15.5487 Y12.6104 I0 J0.0125
G1 Y12.622
G1 Z0.03 F30.
G1 Y13.7048 F6.1
G1 X-16.0199 Y13.2867
G1 Z0.5312
G1 X-16.2069 Y13.1208
G1 Z0.03 F30.
G1 X-16.7353 Y12.6519 F6.1
G1 X-16.1911 Y12.0386
G1 Z0.5312
G1 X-16.0252 Y11.8516
G1 Z0.03 F30.
G1 X-15.5487 Y11.3147 F6.1
G1 Y12.372
G1 Z0.5312
G1 Y12.6104
G3 X-15.5565 Y12.622 I-0.0125 J0
G1 Z0.03 F30.
G1 X-15.5588 Y12.6227 F6.1
G1 X-15.5612 Y12.6229
G1 X-15.5737
G1 X-15.5765 Z0.0303
G1 X-15.5791 Z0.0312
G1 X-15.5815 Z0.0327
G1 X-15.5835 Z0.0347
G1 X-15.585 Z0.0371
G1 X-15.5859 Z0.0397
G1 X-15.5862 Z0.0425
G0 Z0.5312
G0 Y12.5979
G1 X-15.5737 F6.1
G1 X-15.5612
G3 X-15.5487 Y12.6104 I0 J0.0125
G1 Y12.622
G1 Z0.0137 F30.
G1 Y13.7048 F6.1
G1 X-16.0199 Y13.2867
G1 Z0.5312
G1 X-16.2069 Y13.1208
G1 Z0.0137 F30.
G1 X-16.7353 Y12.6519 F6.1
G1 X-16.1911 Y12.0386
G1 Z0.5312
G1 X-16.0252 Y11.8516
G1 Z0.0137 F30.
G1 X-15.5487 Y11.3147 F6.1
G1 Y12.372
G1 Z0.5312
G1 Y12.6104
G3 X-15.5565 Y12.622 I-0.0125 J0
G1 Z0.0137 F30.
G1 X-15.5588 Y12.6227 F6.1
G1 X-15.5612 Y12.6229
G1 X-15.5737
G1 X-15.5765 Z0.0141
G1 X-15.5791 Z0.015
G1 X-15.5815 Z0.0165
G1 X-15.5835 Z0.0185
G1 X-15.585 Z0.0208
G1 X-15.5859 Z0.0235
G1 X-15.5862 Z0.0262
G0 Z0.5312
G0 Y12.5979
G1 X-15.5737 F6.1
G1 X-15.5612
G3 X-15.5487 Y12.6104 I0 J0.0125
G1 Y12.622
G1 Z-0.0025 F30.
G1 Y13.7048 F6.1
G1 X-16.0199 Y13.2867
G1 Z0.5312
G1 X-16.2069 Y13.1208
G1 Z-0.0025 F30.
G1 X-16.7353 Y12.6519 F6.1
G1 X-16.1911 Y12.0386
G1 Z0.5312
G1 X-16.0252 Y11.8516
G1 Z-0.0025 F30.
G1 X-15.5487 Y11.3147 F6.1
G1 Y12.372
G1 Z0.5312
G1 Y12.6104
G3 X-15.5565 Y12.622 I-0.0125 J0
G1 Z-0.0025 F30.
G1 X-15.5588 Y12.6227 F6.1
G1 X-15.5612 Y12.6229
G1 X-15.5737
G1 X-15.5765 Z-0.0022
G1 X-15.5791 Z-0.0013
G1 X-15.5815 Z0.0002
G1 X-15.5835 Z0.0022
G1 X-15.585 Z0.0046
G1 X-15.5859 Z0.0072
G1 X-15.5862 Z0.01
G0 Z0.5312
G0 Y12.5979
G1 X-15.5737 F6.1
G1 X-15.5612
G3 X-15.5487 Y12.6104 I0 J0.0125
G1 Y12.622
G1 Z-0.0187 F30.
G1 Y13.7048 F6.1
G1 X-16.0199 Y13.2867
G1 Z0.5312
G1 X-16.2069 Y13.1208
G1 Z-0.0187 F30.
G1 X-16.7353 Y12.6519 F6.1
G1 X-16.1911 Y12.0386
G1 Z0.5312
G1 X-16.0252 Y11.8516
G1 Z-0.0187 F30.
G1 X-15.5487 Y11.3147 F6.1
G1 Y12.372
G1 Z0.5312
G1 Y12.6104
G3 X-15.5565 Y12.622 I-0.0125 J0
G1 Z-0.0187 F30.
G1 X-15.5588 Y12.6227 F6.1
G1 X-15.5612 Y12.6229
G1 X-15.5737
G1 X-15.5765 Z-0.0184
G1 X-15.5791 Z-0.0175
G1 X-15.5815 Z-0.016
G1 X-15.5835 Z-0.014
G1 X-15.585 Z-0.0117
G1 X-15.5859 Z-0.009
G1 X-15.5862 Z-0.0063
G0 Z0.5312
G0 Y12.5979
G1 X-15.5737 F6.1
G1 X-15.5612
G3 X-15.5487 Y12.6104 I0 J0.0125
G1 Y12.622
G1 Z-0.035 F30.
G1 Y13.7048 F6.1
G1 X-16.0199 Y13.2867
G1 Z0.5312
G1 X-16.2069 Y13.1208
G1 Z-0.035 F30.
G1 X-16.7353 Y12.6519 F6.1
G1 X-16.1911 Y12.0386
G1 Z0.5312
G1 X-16.0252 Y11.8516
G1 Z-0.035 F30.
G1 X-15.5487 Y11.3147 F6.1
G1 Y12.372
G1 Z0.5312
G1 Y12.6104
G3 X-15.5565 Y12.622 I-0.0125 J0
G1 Z-0.035 F30.
G1 X-15.5588 Y12.6227 F6.1
G1 X-15.5612 Y12.6229
G1 X-15.5737
G1 X-15.5765 Z-0.0347
G1 X-15.5791 Z-0.0338
G1 X-15.5815 Z-0.0323
G1 X-15.5835 Z-0.0303
G1 X-15.585 Z-0.0279
G1 X-15.5859 Z-0.0253
G1 X-15.5862 Z-0.0225
G0 Z0.5312
G0 Y12.5979
G1 X-15.5737 F6.1
G1 X-15.5612
G3 X-15.5487 Y12.6104 I0 J0.0125
G1 Y12.622
G1 Z-0.0512 F30.
G1 Y13.7048 F6.1
G1 X-16.0199 Y13.2867
G1 Z0.5312
G1 X-16.2069 Y13.1208
G1 Z-0.0512 F30.
G1 X-16.7353 Y12.6519 F6.1
G1 X-16.1911 Y12.0386
G1 Z0.5312
G1 X-16.0252 Y11.8516
G1 Z-0.0512 F30.
G1 X-15.5487 Y11.3147 F6.1
G1 Y12.372
G1 Z0.5312
G1 Y12.6104
G3 X-15.5565 Y12.622 I-0.0125 J0
G1 Z-0.0512 F30.
G1 X-15.5588 Y12.6227 F6.1
G1 X-15.5612 Y12.6229
G1 X-15.5737
G1 X-15.5765 Z-0.0509
G1 X-15.5791 Z-0.05
G1 X-15.5815 Z-0.0485
G1 X-15.5835 Z-0.0465
G1 X-15.585 Z-0.0442
G1 X-15.5859 Z-0.0415
G1 X-15.5862 Z-0.0388
G0 Z0.5312
G0 Y12.5979
G1 X-15.5737 F6.1
G1 X-15.5612
G3 X-15.5487 Y12.6104 I0 J0.0125
G1 Y12.622
G1 Z-0.0675 F30.
G1 Y13.7048 F6.1
G1 X-16.0199 Y13.2867
G1 Z0.5312
G1 X-16.2069 Y13.1208
G1 Z-0.0675 F30.
G1 X-16.7353 Y12.6519 F6.1
G1 X-16.1911 Y12.0386
G1 Z0.5312
G1 X-16.0252 Y11.8516
G1 Z-0.0675 F30.
G1 X-15.5487 Y11.3147 F6.1
G1 Y12.372
G1 Z0.5312
G1 Y12.6104
G3 X-15.5565 Y12.622 I-0.0125 J0
G1 Z-0.0675 F30.
G1 X-15.5588 Y12.6227 F6.1
G1 X-15.5612 Y12.6229
G1 X-15.5737
G1 X-15.5765 Z-0.0672
G1 X-15.5791 Z-0.0663
G1 X-15.5815 Z-0.0648
G1 X-15.5835 Z-0.0628
G1 X-15.585 Z-0.0604
G1 X-15.5859 Z-0.0578
G1 X-15.5862 Z-0.055
G0 Z0.5312
G0 Y12.5979
G1 X-15.5737 F6.1
G1 X-15.5612
G3 X-15.5487 Y12.6104 I0 J0.0125
G1 Y12.622
G1 Z-0.0837 F30.
G1 Y13.7048 F6.1
G1 X-16.0199 Y13.2867
G1 Z0.5312
G1 X-16.2069 Y13.1208
G1 Z-0.0837 F30.
G1 X-16.7353 Y12.6519 F6.1
G1 X-16.1911 Y12.0386
G1 Z0.5312
G1 X-16.0252 Y11.8516
G1 Z-0.0837 F30.
G1 X-15.5487 Y11.3147 F6.1
G1 Y12.372
G1 Z0.5312
G1 Y12.6104
G3 X-15.5565 Y12.622 I-0.0125 J0
G1 Z-0.0837 F30.
G1 X-15.5588 Y12.6227 F6.1
G1 X-15.5612 Y12.6229
G1 X-15.5737
G1 X-15.5765 Z-0.0834
G1 X-15.5791 Z-0.0825
G1 X-15.5815 Z-0.081
G1 X-15.5835 Z-0.079
G1 X-15.585 Z-0.0767
G1 X-15.5859 Z-0.074
G1 X-15.5862 Z-0.0713
G0 Z0.5312
G0 Y12.5979
G1 X-15.5737 F6.1
G1 X-15.5612
G3 X-15.5487 Y12.6104 I0 J0.0125
G1 Y12.622
G1 Z-0.0937 F30.
G1 Y13.7048 F6.1
G1 X-16.0199 Y13.2867
G1 Z0.5312
G1 X-16.2069 Y13.1208
G1 Z-0.0937 F30.
G1 X-16.7353 Y12.6519 F6.1
G1 X-16.1911 Y12.0386
G1 Z0.5312
G1 X-16.0252 Y11.8516
G1 Z-0.0937 F30.
G1 X-15.5487 Y11.3147 F6.1
G1 Y12.372
G1 Z0.5312
G1 Y12.6104
G3 X-15.5565 Y12.622 I-0.0125 J0
G1 Z-0.0937 F30.
G1 X-15.5588 Y12.6227 F6.1
G1 X-15.5612 Y12.6229
G1 X-15.5737
G1 X-15.5765 Z-0.0934
G1 X-15.5791 Z-0.0925
G1 X-15.5815 Z-0.091
G1 X-15.5835 Z-0.089
G1 X-15.585 Z-0.0867
G1 X-15.5859 Z-0.084
G1 X-15.5862 Z-0.0813
G0 Z0.2625
G0 X-14.661 Y11.2723
G1 Z0.1181 F30.
G1 Z0.0587
G1 X-14.6607 Z0.056 F6.1
G1 X-14.6598 Z0.0533
G1 X-14.6583 Z0.051
G1 X-14.6563 Z0.049
G1 X-14.6539 Z0.0475
G1 X-14.6513 Z0.0466
G1 X-14.6485 Z0.0462
G1 X-14.636
G3 X-14.6235 Y11.2848 I0 J0.0125
G3 X-14.6988 Y11.3601 I-0.0753 J0
G3 X-14.7741 Y11.2848 I0 J-0.0753
G3 X-14.6988 Y11.2095 I0.0753 J0
G3 X-14.6235 Y11.2848 I0 J0.0753
G3 X-14.636 Y11.2973 I-0.0125 J0
G1 X-14.6485
G1 X-14.6513 Z0.0466
G1 X-14.6539 Z0.0475
G1 X-14.6563 Z0.049
G1 X-14.6583 Z0.051
G1 X-14.6598 Z0.0533
G1 X-14.6607 Z0.056
G1 X-14.661 Z0.0587
G0 Z0.2625
G0 Y11.2723
G1 Z0.1019 F30.
G1 Z0.0425
G1 X-14.6607 Z0.0397 F6.1
G1 X-14.6598 Z0.0371
G1 X-14.6583 Z0.0347
G1 X-14.6563 Z0.0327
G1 X-14.6539 Z0.0312
G1 X-14.6513 Z0.0303
G1 X-14.6485 Z0.03
G1 X-14.636
G3 X-14.6235 Y11.2848 I0 J0.0125
G3 X-14.6988 Y11.3601 I-0.0753 J0
G3 X-14.7741 Y11.2848 I0 J-0.0753
G3 X-14.6988 Y11.2095 I0.0753 J0
G3 X-14.6235 Y11.2848 I0 J0.0753
G3 X-14.636 Y11.2973 I-0.0125 J0
G1 X-14.6485
G1 X-14.6513 Z0.0303
G1 X-14.6539 Z0.0312
G1 X-14.6563 Z0.0327
G1 X-14.6583 Z0.0347
G1 X-14.6598 Z0.0371
G1 X-14.6607 Z0.0397
G1 X-14.661 Z0.0425
G0 Z0.2625
G0 Y11.2723
G1 Z0.0856 F30.
G1 Z0.0262
G1 X-14.6607 Z0.0235 F6.1
G1 X-14.6598 Z0.0208
G1 X-14.6583 Z0.0185
G1 X-14.6563 Z0.0165
G1 X-14.6539 Z0.015
G1 X-14.6513 Z0.0141
G1 X-14.6485 Z0.0137
G1 X-14.636
G3 X-14.6235 Y11.2848 I0 J0.0125
G3 X-14.6988 Y11.3601 I-0.0753 J0
G3 X-14.7741 Y11.2848 I0 J-0.0753
G3 X-14.6988 Y11.2095 I0.0753 J0
G3 X-14.6235 Y11.2848 I0 J0.0753
G3 X-14.636 Y11.2973 I-0.0125 J0
G1 X-14.6485
G1 X-14.6513 Z0.0141
G1 X-14.6539 Z0.015
G1 X-14.6563 Z0.0165
G1 X-14.6583 Z0.0185
G1 X-14.6598 Z0.0208
G1 X-14.6607 Z0.0235
G1 X-14.661 Z0.0262
G0 Z0.2625
G0 Y11.2723
G1 Z0.0694 F30.
G1 Z0.01
G1 X-14.6607 Z0.0072 F6.1
G1 X-14.6598 Z0.0046
G1 X-14.6583 Z0.0022
G1 X-14.6563 Z0.0002
G1 X-14.6539 Z-0.0013
G1 X-14.6513 Z-0.0022
G1 X-14.6485 Z-0.0025
G1 X-14.636
G3 X-14.6235 Y11.2848 I0 J0.0125
G3 X-14.6988 Y11.3601 I-0.0753 J0
G3 X-14.7741 Y11.2848 I0 J-0.0753
G3 X-14.6988 Y11.2095 I0.0753 J0
G3 X-14.6235 Y11.2848 I0 J0.0753
G3 X-14.636 Y11.2973 I-0.0125 J0
G1 X-14.6485
G1 X-14.6513 Z-0.0022
G1 X-14.6539 Z-0.0013
G1 X-14.6563 Z0.0002
G1 X-14.6583 Z0.0022
G1 X-14.6598 Z0.0046
G1 X-14.6607 Z0.0072
G1 X-14.661 Z0.01
G0 Z0.2625
G0 Y11.2723
G1 Z0.0531 F30.
G1 Z-0.0063
G1 X-14.6607 Z-0.009 F6.1
G1 X-14.6598 Z-0.0117
G1 X-14.6583 Z-0.014
G1 X-14.6563 Z-0.016
G1 X-14.6539 Z-0.0175
G1 X-14.6513 Z-0.0184
G1 X-14.6485 Z-0.0187
G1 X-14.636
G3 X-14.6235 Y11.2848 I0 J0.0125
G3 X-14.6988 Y11.3601 I-0.0753 J0
G3 X-14.7741 Y11.2848 I0 J-0.0753
G3 X-14.6988 Y11.2095 I0.0753 J0
G3 X-14.6235 Y11.2848 I0 J0.0753
G3 X-14.636 Y11.2973 I-0.0125 J0
G1 X-14.6485
G1 X-14.6513 Z-0.0184
G1 X-14.6539 Z-0.0175
G1 X-14.6563 Z-0.016
G1 X-14.6583 Z-0.014
G1 X-14.6598 Z-0.0117
G1 X-14.6607 Z-0.009
G1 X-14.661 Z-0.0063
G0 Z0.2625
G0 Y11.2723
G1 Z0.0369 F30.
G1 Z-0.0225
G1 X-14.6607 Z-0.0253 F6.1
G1 X-14.6598 Z-0.0279
G1 X-14.6583 Z-0.0303
G1 X-14.6563 Z-0.0323
G1 X-14.6539 Z-0.0338
G1 X-14.6513 Z-0.0347
G1 X-14.6485 Z-0.035
G1 X-14.636
G3 X-14.6235 Y11.2848 I0 J0.0125
G3 X-14.6988 Y11.3601 I-0.0753 J0
G3 X-14.7741 Y11.2848 I0 J-0.0753
G3 X-14.6988 Y11.2095 I0.0753 J0
G3 X-14.6235 Y11.2848 I0 J0.0753
G3 X-14.636 Y11.2973 I-0.0125 J0
G1 X-14.6485
G1 X-14.6513 Z-0.0347
G1 X-14.6539 Z-0.0338
G1 X-14.6563 Z-0.0323
G1 X-14.6583 Z-0.0303
G1 X-14.6598 Z-0.0279
G1 X-14.6607 Z-0.0253
G1 X-14.661 Z-0.0225
G0 Z0.2625
G0 Y11.2723
G1 Z0.0206 F30.
G1 Z-0.0388
G1 X-14.6607 Z-0.0415 F6.1
G1 X-14.6598 Z-0.0442
G1 X-14.6583 Z-0.0465
G1 X-14.6563 Z-0.0485
G1 X-14.6539 Z-0.05
G1 X-14.6513 Z-0.0509
G1 X-14.6485 Z-0.0512
G1 X-14.636
G3 X-14.6235 Y11.2848 I0 J0.0125
G3 X-14.6988 Y11.3601 I-0.0753 J0
G3 X-14.7741 Y11.2848 I0 J-0.0753
G3 X-14.6988 Y11.2095 I0.0753 J0
G3 X-14.6235 Y11.2848 I0 J0.0753
G3 X-14.636 Y11.2973 I-0.0125 J0
G1 X-14.6485
G1 X-14.6513 Z-0.0509
G1 X-14.6539 Z-0.05
G1 X-14.6563 Z-0.0485
G1 X-14.6583 Z-0.0465
G1 X-14.6598 Z-0.0442
G1 X-14.6607 Z-0.0415
G1 X-14.661 Z-0.0388
G0 Z0.2625
G0 Y11.2723
G1 Z0.0044 F30.
G1 Z-0.055
G1 X-14.6607 Z-0.0578 F6.1
G1 X-14.6598 Z-0.0604
G1 X-14.6583 Z-0.0628
G1 X-14.6563 Z-0.0648
G1 X-14.6539 Z-0.0663
G1 X-14.6513 Z-0.0672
G1 X-14.6485 Z-0.0675
G1 X-14.636
G3 X-14.6235 Y11.2848 I0 J0.0125
G3 X-14.6988 Y11.3601 I-0.0753 J0
G3 X-14.7741 Y11.2848 I0 J-0.0753
G3 X-14.6988 Y11.2095 I0.0753 J0
G3 X-14.6235 Y11.2848 I0 J0.0753
G3 X-14.636 Y11.2973 I-0.0125 J0
G1 X-14.6485
G1 X-14.6513 Z-0.0672
G1 X-14.6539 Z-0.0663
G1 X-14.6563 Z-0.0648
G1 X-14.6583 Z-0.0628
G1 X-14.6598 Z-0.0604
G1 X-14.6607 Z-0.0578
G1 X-14.661 Z-0.055
G0 Z0.2625
G0 Y11.2723
G1 Z-0.0119 F30.
G1 Z-0.0713
G1 X-14.6607 Z-0.074 F6.1
G1 X-14.6598 Z-0.0767
G1 X-14.6583 Z-0.079
G1 X-14.6563 Z-0.081
G1 X-14.6539 Z-0.0825
G1 X-14.6513 Z-0.0834
G1 X-14.6485 Z-0.0837
G1 X-14.636
G3 X-14.6235 Y11.2848 I0 J0.0125
G3 X-14.6988 Y11.3601 I-0.0753 J0
G3 X-14.7741 Y11.2848 I0 J-0.0753
G3 X-14.6988 Y11.2095 I0.0753 J0
G3 X-14.6235 Y11.2848 I0 J0.0753
G3 X-14.636 Y11.2973 I-0.0125 J0
G1 X-14.6485
G1 X-14.6513 Z-0.0834
G1 X-14.6539 Z-0.0825
G1 X-14.6563 Z-0.081
G1 X-14.6583 Z-0.079
G1 X-14.6598 Z-0.0767
G1 X-14.6607 Z-0.074
G1 X-14.661 Z-0.0713
G0 Z0.2625
G0 Y11.2723
G1 Z-0.0281 F30.
G1 Z-0.0813
G1 X-14.6607 Z-0.084 F6.1
G1 X-14.6598 Z-0.0867
G1 X-14.6583 Z-0.089
G1 X-14.6563 Z-0.091
G1 X-14.6539 Z-0.0925
G1 X-14.6513 Z-0.0934
G1 X-14.6485 Z-0.0937
G1 X-14.636
G3 X-14.6235 Y11.2848 I0 J0.0125
G3 X-14.6988 Y11.3601 I-0.0753 J0
G3 X-14.7741 Y11.2848 I0 J-0.0753
G3 X-14.6988 Y11.2095 I0.0753 J0
G3 X-14.6235 Y11.2848 I0 J0.0753
G3 X-14.636 Y11.2973 I-0.0125 J0
G1 X-14.6485
G1 X-14.6513 Z-0.0934
G1 X-14.6539 Z-0.0925
G1 X-14.6563 Z-0.091
G1 X-14.6583 Z-0.089
G1 X-14.6598 Z-0.0867
G1 X-14.6607 Z-0.084
G1 X-14.661 Z-0.0813
G0 Z0.2625
G0 X-14.0705 Y11.2723
G1 Z0.1181 F30.
G1 Z0.0587
G1 X-14.0702 Z0.056 F6.1
G1 X-14.0692 Z0.0533
G1 X-14.0677 Z0.051
G1 X-14.0658 Z0.049
G1 X-14.0634 Z0.0475
G1 X-14.0608 Z0.0466
G1 X-14.058 Z0.0462
G1 X-14.0455
G3 X-14.033 Y11.2848 I0 J0.0125
G3 X-14.1083 Y11.3601 I-0.0753 J0
G3 X-14.1836 Y11.2848 I0 J-0.0753
G3 X-14.1083 Y11.2095 I0.0753 J0
G3 X-14.033 Y11.2848 I0 J0.0753
G3 X-14.0455 Y11.2973 I-0.0125 J0
G1 X-14.058
G1 X-14.0608 Z0.0466
G1 X-14.0634 Z0.0475
G1 X-14.0658 Z0.049
G1 X-14.0677 Z0.051
G1 X-14.0692 Z0.0533
G1 X-14.0702 Z0.056
G1 X-14.0705 Z0.0587
G0 Z0.2625
G0 Y11.2723
G1 Z0.1019 F30.
G1 Z0.0425
G1 X-14.0702 Z0.0397 F6.1
G1 X-14.0692 Z0.0371
G1 X-14.0677 Z0.0347
G1 X-14.0658 Z0.0327
G1 X-14.0634 Z0.0312
G1 X-14.0608 Z0.0303
G1 X-14.058 Z0.03
G1 X-14.0455
G3 X-14.033 Y11.2848 I0 J0.0125
G3 X-14.1083 Y11.3601 I-0.0753 J0
G3 X-14.1836 Y11.2848 I0 J-0.0753
G3 X-14.1083 Y11.2095 I0.0753 J0
G3 X-14.033 Y11.2848 I0 J0.0753
G3 X-14.0455 Y11.2973 I-0.0125 J0
G1 X-14.058
G1 X-14.0608 Z0.0303
G1 X-14.0634 Z0.0312
G1 X-14.0658 Z0.0327
G1 X-14.0677 Z0.0347
G1 X-14.0692 Z0.0371
G1 X-14.0702 Z0.0397
G1 X-14.0705 Z0.0425
G0 Z0.2625
G0 Y11.2723
G1 Z0.0856 F30.
G1 Z0.0262
G1 X-14.0702 Z0.0235 F6.1
G1 X-14.0692 Z0.0208
G1 X-14.0677 Z0.0185
G1 X-14.0658 Z0.0165
G1 X-14.0634 Z0.015
G1 X-14.0608 Z0.0141
G1 X-14.058 Z0.0137
G1 X-14.0455
G3 X-14.033 Y11.2848 I0 J0.0125
G3 X-14.1083 Y11.3601 I-0.0753 J0
G3 X-14.1836 Y11.2848 I0 J-0.0753
G3 X-14.1083 Y11.2095 I0.0753 J0
G3 X-14.033 Y11.2848 I0 J0.0753
G3 X-14.0455 Y11.2973 I-0.0125 J0
G1 X-14.058
G1 X-14.0608 Z0.0141
G1 X-14.0634 Z0.015
G1 X-14.0658 Z0.0165
G1 X-14.0677 Z0.0185
G1 X-14.0692 Z0.0208
G1 X-14.0702 Z0.0235
G1 X-14.0705 Z0.0262
G0 Z0.2625
G0 Y11.2723
G1 Z0.0694 F30.
G1 Z0.01
G1 X-14.0702 Z0.0072 F6.1
G1 X-14.0692 Z0.0046
G1 X-14.0677 Z0.0022
G1 X-14.0658 Z0.0002
G1 X-14.0634 Z-0.0013
G1 X-14.0608 Z-0.0022
G1 X-14.058 Z-0.0025
G1 X-14.0455
G3 X-14.033 Y11.2848 I0 J0.0125
G3 X-14.1083 Y11.3601 I-0.0753 J0
G3 X-14.1836 Y11.2848 I0 J-0.0753
G3 X-14.1083 Y11.2095 I0.0753 J0
G3 X-14.033 Y11.2848 I0 J0.0753
G3 X-14.0455 Y11.2973 I-0.0125 J0
G1 X-14.058
G1 X-14.0608 Z-0.0022
G1 X-14.0634 Z-0.0013
G1 X-14.0658 Z0.0002
G1 X-14.0677 Z0.0022
G1 X-14.0692 Z0.0046
G1 X-14.0702 Z0.0072
G1 X-14.0705 Z0.01
G0 Z0.2625
G0 Y11.2723
G1 Z0.0531 F30.
G1 Z-0.0063
G1 X-14.0702 Z-0.009 F6.1
G1 X-14.0692 Z-0.0117
G1 X-14.0677 Z-0.014
G1 X-14.0658 Z-0.016
G1 X-14.0634 Z-0.0175
G1 X-14.0608 Z-0.0184
G1 X-14.058 Z-0.0187
G1 X-14.0455
G3 X-14.033 Y11.2848 I0 J0.0125
G3 X-14.1083 Y11.3601 I-0.0753 J0
G3 X-14.1836 Y11.2848 I0 J-0.0753
G3 X-14.1083 Y11.2095 I0.0753 J0
G3 X-14.033 Y11.2848 I0 J0.0753
G3 X-14.0455 Y11.2973 I-0.0125 J0
G1 X-14.058
G1 X-14.0608 Z-0.0184
G1 X-14.0634 Z-0.0175
G1 X-14.0658 Z-0.016
G1 X-14.0677 Z-0.014
G1 X-14.0692 Z-0.0117
G1 X-14.0702 Z-0.009
G1 X-14.0705 Z-0.0063
G0 Z0.2625
G0 Y11.2723
G1 Z0.0369 F30.
G1 Z-0.0225
G1 X-14.0702 Z-0.0253 F6.1
G1 X-14.0692 Z-0.0279
G1 X-14.0677 Z-0.0303
G1 X-14.0658 Z-0.0323
G1 X-14.0634 Z-0.0338
G1 X-14.0608 Z-0.0347
G1 X-14.058 Z-0.035
G1 X-14.0455
G3 X-14.033 Y11.2848 I0 J0.0125
G3 X-14.1083 Y11.3601 I-0.0753 J0
G3 X-14.1836 Y11.2848 I0 J-0.0753
G3 X-14.1083 Y11.2095 I0.0753 J0
G3 X-14.033 Y11.2848 I0 J0.0753
G3 X-14.0455 Y11.2973 I-0.0125 J0
G1 X-14.058
G1 X-14.0608 Z-0.0347
G1 X-14.0634 Z-0.0338
G1 X-14.0658 Z-0.0323
G1 X-14.0677 Z-0.0303
G1 X-14.0692 Z-0.0279
G1 X-14.0702 Z-0.0253
G1 X-14.0705 Z-0.0225
G0 Z0.2625
G0 Y11.2723
G1 Z0.0206 F30.
G1 Z-0.0388
G1 X-14.0702 Z-0.0415 F6.1
G1 X-14.0692 Z-0.0442
G1 X-14.0677 Z-0.0465
G1 X-14.0658 Z-0.0485
G1 X-14.0634 Z-0.05
G1 X-14.0608 Z-0.0509
G1 X-14.058 Z-0.0512
G1 X-14.0455
G3 X-14.033 Y11.2848 I0 J0.0125
G3 X-14.1083 Y11.3601 I-0.0753 J0
G3 X-14.1836 Y11.2848 I0 J-0.0753
G3 X-14.1083 Y11.2095 I0.0753 J0
G3 X-14.033 Y11.2848 I0 J0.0753
G3 X-14.0455 Y11.2973 I-0.0125 J0
G1 X-14.058
G1 X-14.0608 Z-0.0509
G1 X-14.0634 Z-0.05
G1 X-14.0658 Z-0.0485
G1 X-14.0677 Z-0.0465
G1 X-14.0692 Z-0.0442
G1 X-14.0702 Z-0.0415
G1 X-14.0705 Z-0.0388
G0 Z0.2625
G0 Y11.2723
G1 Z0.0044 F30.
G1 Z-0.055
G1 X-14.0702 Z-0.0578 F6.1
G1 X-14.0692 Z-0.0604
G1 X-14.0677 Z-0.0628
G1 X-14.0658 Z-0.0648
G1 X-14.0634 Z-0.0663
G1 X-14.0608 Z-0.0672
G1 X-14.058 Z-0.0675
G1 X-14.0455
G3 X-14.033 Y11.2848 I0 J0.0125
G3 X-14.1083 Y11.3601 I-0.0753 J0
G3 X-14.1836 Y11.2848 I0 J-0.0753
G3 X-14.1083 Y11.2095 I0.0753 J0
G3 X-14.033 Y11.2848 I0 J0.0753
G3 X-14.0455 Y11.2973 I-0.0125 J0
G1 X-14.058
G1 X-14.0608 Z-0.0672
G1 X-14.0634 Z-0.0663
G1 X-14.0658 Z-0.0648
G1 X-14.0677 Z-0.0628
G1 X-14.0692 Z-0.0604
G1 X-14.0702 Z-0.0578
G1 X-14.0705 Z-0.055
G0 Z0.2625
G0 Y11.2723
G1 Z-0.0119 F30.
G1 Z-0.0713
G1 X-14.0702 Z-0.074 F6.1
G1 X-14.0692 Z-0.0767
G1 X-14.0677 Z-0.079
G1 X-14.0658 Z-0.081
G1 X-14.0634 Z-0.0825
G1 X-14.0608 Z-0.0834
G1 X-14.058 Z-0.0837
G1 X-14.0455
G3 X-14.033 Y11.2848 I0 J0.0125
G3 X-14.1083 Y11.3601 I-0.0753 J0
G3 X-14.1836 Y11.2848 I0 J-0.0753
G3 X-14.1083 Y11.2095 I0.0753 J0
G3 X-14.033 Y11.2848 I0 J0.0753
G3 X-14.0455 Y11.2973 I-0.0125 J0
G1 X-14.058
G1 X-14.0608 Z-0.0834
G1 X-14.0634 Z-0.0825
G1 X-14.0658 Z-0.081
G1 X-14.0677 Z-0.079
G1 X-14.0692 Z-0.0767
G1 X-14.0702 Z-0.074
G1 X-14.0705 Z-0.0713
G0 Z0.2625
G0 Y11.2723
G1 Z-0.0281 F30.
G1 Z-0.0813
G1 X-14.0702 Z-0.084 F6.1
G1 X-14.0692 Z-0.0867
G1 X-14.0677 Z-0.089
G1 X-14.0658 Z-0.091
G1 X-14.0634 Z-0.0925
G1 X-14.0608 Z-0.0934
G1 X-14.058 Z-0.0937
G1 X-14.0455
G3 X-14.033 Y11.2848 I0 J0.0125
G3 X-14.1083 Y11.3601 I-0.0753 J0
G3 X-14.1836 Y11.2848 I0 J-0.0753
G3 X-14.1083 Y11.2095 I0.0753 J0
G3 X-14.033 Y11.2848 I0 J0.0753
G3 X-14.0455 Y11.2973 I-0.0125 J0
G1 X-14.058
G1 X-14.0608 Z-0.0934
G1 X-14.0634 Z-0.0925
G1 X-14.0658 Z-0.091
G1 X-14.0677 Z-0.089
G1 X-14.0692 Z-0.0867
G1 X-14.0702 Z-0.084
G1 X-14.0705 Z-0.0813
G0 Z0.2625
G0 X-16.9024 Y11.7056
G1 Z0.1181 F30.
G1 Z0.0587
G1 X-16.9022 Y11.7058 Z0.056 F6.1
G1 X-16.9015 Y11.7064 Z0.0533
G1 X-16.9004 Y11.7074 Z0.051
G1 X-16.8989 Y11.7087 Z0.049
G1 X-16.8971 Y11.7103 Z0.0475
G1 X-16.8951 Y11.7121 Z0.0466
G1 X-16.8931 Y11.7139 Z0.0462
G1 X-16.8837 Y11.7222
G3 X-16.8795 Y11.7308 I-0.0083 J0.0093
G3 X-16.8827 Y11.7399 I-0.0125 J0.0007
G1 X-17.2705 Y12.1769
G1 X-18.0092 Y11.5214
G1 Z0.5312
G1 X-18.1962 Y11.3555
G1 Z0.0462 F30.
G1 X-18.8586 Y10.7677 F6.1
G1 X-17.577
G1 Z0.5312
G1 X-17.327
G1 Z0.0462 F30.
G1 X-16.02 F6.1
G1 X-16.5369 Y11.3502
G1 Z0.5312
G1 X-16.7028 Y11.5372
G1 Z0.0462 F30.
G1 X-16.8827 Y11.7399 F6.1
G3 X-16.9003 Y11.7409 I-0.0093 J-0.0083
G1 X-16.9097 Y11.7326
G1 X-16.9117 Y11.7308 Z0.0466
G1 X-16.9137 Y11.729 Z0.0475
G1 X-16.9155 Y11.7274 Z0.049
G1 X-16.917 Y11.7261 Z0.051
G1 X-16.9181 Y11.7251 Z0.0533
G1 X-16.9188 Y11.7245 Z0.056
G1 X-16.919 Y11.7243 Z0.0587
G0 Z0.2625
G0 X-16.9024 Y11.7056
G1 Z0.1019 F30.
G1 Z0.0425
G1 X-16.9022 Y11.7058 Z0.0397 F6.1
G1 X-16.9015 Y11.7064 Z0.0371
G1 X-16.9004 Y11.7074 Z0.0347
G1 X-16.8989 Y11.7087 Z0.0327
G1 X-16.8971 Y11.7103 Z0.0312
G1 X-16.8951 Y11.7121 Z0.0303
G1 X-16.8931 Y11.7139 Z0.03
G1 X-16.8837 Y11.7222
G3 X-16.8795 Y11.7308 I-0.0083 J0.0093
G3 X-16.8827 Y11.7399 I-0.0125 J0.0007
G1 X-17.2705 Y12.1769
G1 X-18.0092 Y11.5214
G1 Z0.5312
G1 X-18.1962 Y11.3555
G1 Z0.03 F30.
G1 X-18.8586 Y10.7677 F6.1
G1 X-17.577
G1 Z0.5312
G1 X-17.327
G1 Z0.03 F30.
G1 X-16.02 F6.1
G1 X-16.5369 Y11.3502
G1 Z0.5312
G1 X-16.7028 Y11.5372
G1 Z0.03 F30.
G1 X-16.8827 Y11.7399 F6.1
G3 X-16.9003 Y11.7409 I-0.0093 J-0.0083
G1 X-16.9097 Y11.7326
G1 X-16.9117 Y11.7308 Z0.0303
G1 X-16.9137 Y11.729 Z0.0312
G1 X-16.9155 Y11.7274 Z0.0327
G1 X-16.917 Y11.7261 Z0.0347
G1 X-16.9181 Y11.7251 Z0.0371
G1 X-16.9188 Y11.7245 Z0.0397
G1 X-16.919 Y11.7243 Z0.0425
G0 Z0.2625
G0 X-16.9024 Y11.7056
G1 Z0.0856 F30.
G1 Z0.0262
G1 X-16.9022 Y11.7058 Z0.0235 F6.1
G1 X-16.9015 Y11.7064 Z0.0208
G1 X-16.9004 Y11.7074 Z0.0185
G1 X-16.8989 Y11.7087 Z0.0165
G1 X-16.8971 Y11.7103 Z0.015
G1 X-16.8951 Y11.7121 Z0.0141
G1 X-16.8931 Y11.7139 Z0.0137
G1 X-16.8837 Y11.7222
G3 X-16.8795 Y11.7308 I-0.0083 J0.0093
G3 X-16.8827 Y11.7399 I-0.0125 J0.0007
G1 X-17.2705 Y12.1769
G1 X-18.0092 Y11.5214
G1 Z0.5312
G1 X-18.1962 Y11.3555
G1 Z0.0137 F30.
G1 X-18.8586 Y10.7677 F6.1
G1 X-17.577
G1 Z0.5312
G1 X-17.327
G1 Z0.0137 F30.
G1 X-16.02 F6.1
G1 X-16.5369 Y11.3502
G1 Z0.5312
G1 X-16.7028 Y11.5372
G1 Z0.0137 F30.
G1 X-16.8827 Y11.7399 F6.1
G3 X-16.9003 Y11.7409 I-0.0093 J-0.0083
G1 X-16.9097 Y11.7326
G1 X-16.9117 Y11.7308 Z0.0141
G1 X-16.9137 Y11.729 Z0.015
G1 X-16.9155 Y11.7274 Z0.0165
G1 X-16.917 Y11.7261 Z0.0185
G1 X-16.9181 Y11.7251 Z0.0208
G1 X-16.9188 Y11.7245 Z0.0235
G1 X-16.919 Y11.7243 Z0.0262
G0 Z0.2625
G0 X-16.9024 Y11.7056
G1 Z0.0694 F30.
G1 Z0.01
G1 X-16.9022 Y11.7058 Z0.0072 F6.1
G1 X-16.9015 Y11.7064 Z0.0046
G1 X-16.9004 Y11.7074 Z0.0022
G1 X-16.8989 Y11.7087 Z0.0002
G1 X-16.8971 Y11.7103 Z-0.0013
G1 X-16.8951 Y11.7121 Z-0.0022
G1 X-16.8931 Y11.7139 Z-0.0025
G1 X-16.8837 Y11.7222
G3 X-16.8795 Y11.7308 I-0.0083 J0.0093
G3 X-16.8827 Y11.7399 I-0.0125 J0.0007
G1 X-17.2705 Y12.1769
G1 X-18.0092 Y11.5214
G1 Z0.5312
G1 X-18.1962 Y11.3555
G1 Z-0.0025 F30.
G1 X-18.8586 Y10.7677 F6.1
G1 X-17.577
G1 Z0.5312
G1 X-17.327
G1 Z-0.0025 F30.
G1 X-16.02 F6.1
G1 X-16.5369 Y11.3502
G1 Z0.5312
G1 X-16.7028 Y11.5372
G1 Z-0.0025 F30.
G1 X-16.8827 Y11.7399 F6.1
G3 X-16.9003 Y11.7409 I-0.0093 J-0.0083
G1 X-16.9097 Y11.7326
G1 X-16.9117 Y11.7308 Z-0.0022
G1 X-16.9137 Y11.729 Z-0.0013
G1 X-16.9155 Y11.7274 Z0.0002
G1 X-16.917 Y11.7261 Z0.0022
G1 X-16.9181 Y11.7251 Z0.0046
G1 X-16.9188 Y11.7245 Z0.0072
G1 X-16.919 Y11.7243 Z0.01
G0 Z0.2625
G0 X-16.9024 Y11.7056
G1 Z0.0531 F30.
G1 Z-0.0063
G1 X-16.9022 Y11.7058 Z-0.009 F6.1
G1 X-16.9015 Y11.7064 Z-0.0117
G1 X-16.9004 Y11.7074 Z-0.014
G1 X-16.8989 Y11.7087 Z-0.016
G1 X-16.8971 Y11.7103 Z-0.0175
G1 X-16.8951 Y11.7121 Z-0.0184
G1 X-16.8931 Y11.7139 Z-0.0187
G1 X-16.8837 Y11.7222
G3 X-16.8795 Y11.7308 I-0.0083 J0.0093
G3 X-16.8827 Y11.7399 I-0.0125 J0.0007
G1 X-17.2705 Y12.1769
G1 X-18.0092 Y11.5214
G1 Z0.5312
G1 X-18.1962 Y11.3555
G1 Z-0.0187 F30.
G1 X-18.8586 Y10.7677 F6.1
G1 X-17.577
G1 Z0.5312
G1 X-17.327
G1 Z-0.0187 F30.
G1 X-16.02 F6.1
G1 X-16.5369 Y11.3502
G1 Z0.5312
G1 X-16.7028 Y11.5372
G1 Z-0.0187 F30.
G1 X-16.8827 Y11.7399 F6.1
G3 X-16.9003 Y11.7409 I-0.0093 J-0.0083
G1 X-16.9097 Y11.7326
G1 X-16.9117 Y11.7308 Z-0.0184
G1 X-16.9137 Y11.729 Z-0.0175
G1 X-16.9155 Y11.7274 Z-0.016
G1 X-16.917 Y11.7261 Z-0.014
G1 X-16.9181 Y11.7251 Z-0.0117
G1 X-16.9188 Y11.7245 Z-0.009
G1 X-16.919 Y11.7243 Z-0.0063
G0 Z0.2625
G0 X-16.9024 Y11.7056
G1 Z0.0369 F30.
G1 Z-0.0225
G1 X-16.9022 Y11.7058 Z-0.0253 F6.1
G1 X-16.9015 Y11.7064 Z-0.0279
G1 X-16.9004 Y11.7074 Z-0.0303
G1 X-16.8989 Y11.7087 Z-0.0323
G1 X-16.8971 Y11.7103 Z-0.0338
G1 X-16.8951 Y11.7121 Z-0.0347
G1 X-16.8931 Y11.7139 Z-0.035
G1 X-16.8837 Y11.7222
G3 X-16.8795 Y11.7308 I-0.0083 J0.0093
G3 X-16.8827 Y11.7399 I-0.0125 J0.0007
G1 X-17.2705 Y12.1769
G1 X-18.0092 Y11.5214
G1 Z0.5312
G1 X-18.1962 Y11.3555
G1 Z-0.035 F30.
G1 X-18.8586 Y10.7677 F6.1
G1 X-17.577
G1 Z0.5312
G1 X-17.327
G1 Z-0.035 F30.
G1 X-16.02 F6.1
G1 X-16.5369 Y11.3502
G1 Z0.5312
G1 X-16.7028 Y11.5372
G1 Z-0.035 F30.
G1 X-16.8827 Y11.7399 F6.1
G3 X-16.9003 Y11.7409 I-0.0093 J-0.0083
G1 X-16.9097 Y11.7326
G1 X-16.9117 Y11.7308 Z-0.0347
G1 X-16.9137 Y11.729 Z-0.0338
G1 X-16.9155 Y11.7274 Z-0.0323
G1 X-16.917 Y11.7261 Z-0.0303
G1 X-16.9181 Y11.7251 Z-0.0279
G1 X-16.9188 Y11.7245 Z-0.0253
G1 X-16.919 Y11.7243 Z-0.0225
G0 Z0.2625
G0 X-16.9024 Y11.7056
G1 Z0.0206 F30.
G1 Z-0.0388
G1 X-16.9022 Y11.7058 Z-0.0415 F6.1
G1 X-16.9015 Y11.7064 Z-0.0442
G1 X-16.9004 Y11.7074 Z-0.0465
G1 X-16.8989 Y11.7087 Z-0.0485
G1 X-16.8971 Y11.7103 Z-0.05
G1 X-16.8951 Y11.7121 Z-0.0509
G1 X-16.8931 Y11.7139 Z-0.0512
G1 X-16.8837 Y11.7222
G3 X-16.8795 Y11.7308 I-0.0083 J0.0093
G3 X-16.8827 Y11.7399 I-0.0125 J0.0007
G1 X-17.2705 Y12.1769
G1 X-18.0092 Y11.5214
G1 Z0.5312
G1 X-18.1962 Y11.3555
G1 Z-0.0512 F30.
G1 X-18.8586 Y10.7677 F6.1
G1 X-17.577
G1 Z0.5312
G1 X-17.327
G1 Z-0.0512 F30.
G1 X-16.02 F6.1
G1 X-16.5369 Y11.3502
G1 Z0.5312
G1 X-16.7028 Y11.5372
G1 Z-0.0512 F30.
G1 X-16.8827 Y11.7399 F6.1
G3 X-16.9003 Y11.7409 I-0.0093 J-0.0083
G1 X-16.9097 Y11.7326
G1 X-16.9117 Y11.7308 Z-0.0509
G1 X-16.9137 Y11.729 Z-0.05
G1 X-16.9155 Y11.7274 Z-0.0485
G1 X-16.917 Y11.7261 Z-0.0465
G1 X-16.9181 Y11.7251 Z-0.0442
G1 X-16.9188 Y11.7245 Z-0.0415
G1 X-16.919 Y11.7243 Z-0.0388
G0 Z0.2625
G0 X-16.9024 Y11.7056
G1 Z0.0044 F30.
G1 Z-0.055
G1 X-16.9022 Y11.7058 Z-0.0578 F6.1
G1 X-16.9015 Y11.7064 Z-0.0604
G1 X-16.9004 Y11.7074 Z-0.0628
G1 X-16.8989 Y11.7087 Z-0.0648
G1 X-16.8971 Y11.7103 Z-0.0663
G1 X-16.8951 Y11.7121 Z-0.0672
G1 X-16.8931 Y11.7139 Z-0.0675
G1 X-16.8837 Y11.7222
G3 X-16.8795 Y11.7308 I-0.0083 J0.0093
G3 X-16.8827 Y11.7399 I-0.0125 J0.0007
G1 X-17.2705 Y12.1769
G1 X-18.0092 Y11.5214
G1 Z0.5312
G1 X-18.1962 Y11.3555
G1 Z-0.0675 F30.
G1 X-18.8586 Y10.7677 F6.1
G1 X-17.577
G1 Z0.5312
G1 X-17.327
G1 Z-0.0675 F30.
G1 X-16.02 F6.1
G1 X-16.5369 Y11.3502
G1 Z0.5312
G1 X-16.7028 Y11.5372
G1 Z-0.0675 F30.
G1 X-16.8827 Y11.7399 F6.1
G3 X-16.9003 Y11.7409 I-0.0093 J-0.0083
G1 X-16.9097 Y11.7326
G1 X-16.9117 Y11.7308 Z-0.0672
G1 X-16.9137 Y11.729 Z-0.0663
G1 X-16.9155 Y11.7274 Z-0.0648
G1 X-16.917 Y11.7261 Z-0.0628
G1 X-16.9181 Y11.7251 Z-0.0604
G1 X-16.9188 Y11.7245 Z-0.0578
G1 X-16.919 Y11.7243 Z-0.055
G0 Z0.2625
G0 X-16.9024 Y11.7056
G1 Z-0.0119 F30.
G1 Z-0.0713
G1 X-16.9022 Y11.7058 Z-0.074 F6.1
G1 X-16.9015 Y11.7064 Z-0.0767
G1 X-16.9004 Y11.7074 Z-0.079
G1 X-16.8989 Y11.7087 Z-0.081
G1 X-16.8971 Y11.7103 Z-0.0825
G1 X-16.8951 Y11.7121 Z-0.0834
G1 X-16.8931 Y11.7139 Z-0.0837
G1 X-16.8837 Y11.7222
G3 X-16.8795 Y11.7308 I-0.0083 J0.0093
G3 X-16.8827 Y11.7399 I-0.0125 J0.0007
G1 X-17.2705 Y12.1769
G1 X-18.0092 Y11.5214
G1 Z0.5312
G1 X-18.1962 Y11.3555
G1 Z-0.0837 F30.
G1 X-18.8586 Y10.7677 F6.1
G1 X-17.577
G1 Z0.5312
G1 X-17.327
G1 Z-0.0837 F30.
G1 X-16.02 F6.1
G1 X-16.5369 Y11.3502
G1 Z0.5312
G1 X-16.7028 Y11.5372
G1 Z-0.0837 F30.
G1 X-16.8827 Y11.7399 F6.1
G3 X-16.9003 Y11.7409 I-0.0093 J-0.0083
G1 X-16.9097 Y11.7326
G1 X-16.9117 Y11.7308 Z-0.0834
G1 X-16.9137 Y11.729 Z-0.0825
G1 X-16.9155 Y11.7274 Z-0.081
G1 X-16.917 Y11.7261 Z-0.079
G1 X-16.9181 Y11.7251 Z-0.0767
G1 X-16.9188 Y11.7245 Z-0.074
G1 X-16.919 Y11.7243 Z-0.0713
G0 Z0.2625
G0 X-16.9024 Y11.7056
G1 Z-0.0281 F30.
G1 Z-0.0813
G1 X-16.9022 Y11.7058 Z-0.084 F6.1
G1 X-16.9015 Y11.7064 Z-0.0867
G1 X-16.9004 Y11.7074 Z-0.089
G1 X-16.8989 Y11.7087 Z-0.091
G1 X-16.8971 Y11.7103 Z-0.0925
G1 X-16.8951 Y11.7121 Z-0.0934
G1 X-16.8931 Y11.7139 Z-0.0937
G1 X-16.8837 Y11.7222
G3 X-16.8795 Y11.7308 I-0.0083 J0.0093
G3 X-16.8827 Y11.7399 I-0.0125 J0.0007
G1 X-17.2705 Y12.1769
G1 X-18.0092 Y11.5214
G1 Z0.5312
G1 X-18.1962 Y11.3555
G1 Z-0.0937 F30.
G1 X-18.8586 Y10.7677 F6.1
G1 X-17.577
G1 Z0.5312
G1 X-17.327
G1 Z-0.0937 F30.
G1 X-16.02 F6.1
G1 X-16.5369 Y11.3502
G1 Z0.5312
G1 X-16.7028 Y11.5372
G1 Z-0.0937 F30.
G1 X-16.8827 Y11.7399 F6.1
G3 X-16.9003 Y11.7409 I-0.0093 J-0.0083
G1 X-16.9097 Y11.7326
G1 X-16.9117 Y11.7308 Z-0.0934
G1 X-16.9137 Y11.729 Z-0.0925
G1 X-16.9155 Y11.7274 Z-0.091
G1 X-16.917 Y11.7261 Z-0.089
G1 X-16.9181 Y11.7251 Z-0.0867
G1 X-16.9188 Y11.7245 Z-0.084
G1 X-16.919 Y11.7243 Z-0.0813
G0 Z0.5312
G0 X-17.1914 Y13.0553
G1 X-17.1789 Y13.0556 F6.1
G1 X-17.1664 Y13.0559
G3 X-17.1542 Y13.0687 I-0.0003 J0.0125
G3 X-17.1699 Y13.1814 I-0.4994 J-0.0123
G1 Z0.0462 F30.
G3 X-17.7785 Y13.54 I-0.4836 J-0.125 F6.1
G3 X-18.1372 Y13.1814 I0.125 J-0.4836
G1 Z0.5312
G3 Y12.9314 I0.4836 J-0.125
G1 Z0.0462 F30.
G3 X-17.5285 Y12.5728 I0.4836 J0.125 F6.1
G3 X-17.1699 Y12.9314 I-0.125 J0.4836
G1 Z0.5312
G3 X-17.1542 Y13.0687 I-0.4836 J0.125
G3 X-17.1581 Y13.0774 I-0.0125 J-0.0003
G3 X-17.167 Y13.0809 I-0.0086 J-0.0091
G1 X-17.192 Y13.0803
G0 X-17.1914 Y13.0553
G1 X-17.1789 Y13.0556 F6.1
G1 X-17.1664 Y13.0559
G3 X-17.1542 Y13.0687 I-0.0003 J0.0125
G3 X-17.1699 Y13.1814 I-0.4994 J-0.0123
G1 Z0.03 F30.
G3 X-17.7785 Y13.54 I-0.4836 J-0.125 F6.1
G3 X-18.1372 Y13.1814 I0.125 J-0.4836
G1 Z0.5312
G3 Y12.9314 I0.4836 J-0.125
G1 Z0.03 F30.
G3 X-17.5285 Y12.5728 I0.4836 J0.125 F6.1
G3 X-17.1699 Y12.9314 I-0.125 J0.4836
G1 Z0.5312
G3 X-17.1542 Y13.0687 I-0.4836 J0.125
G3 X-17.1581 Y13.0774 I-0.0125 J-0.0003
G3 X-17.167 Y13.0809 I-0.0086 J-0.0091
G1 X-17.192 Y13.0803
G0 X-17.1914 Y13.0553
G1 X-17.1789 Y13.0556 F6.1
G1 X-17.1664 Y13.0559
G3 X-17.1542 Y13.0687 I-0.0003 J0.0125
G3 X-17.1699 Y13.1814 I-0.4994 J-0.0123
G1 Z0.0137 F30.
G3 X-17.7785 Y13.54 I-0.4836 J-0.125 F6.1
G3 X-18.1372 Y13.1814 I0.125 J-0.4836
G1 Z0.5312
G3 Y12.9314 I0.4836 J-0.125
G1 Z0.0137 F30.
G3 X-17.5285 Y12.5728 I0.4836 J0.125 F6.1
G3 X-17.1699 Y12.9314 I-0.125 J0.4836
G1 Z0.5312
G3 X-17.1542 Y13.0687 I-0.4836 J0.125
G3 X-17.1581 Y13.0774 I-0.0125 J-0.0003
G3 X-17.167 Y13.0809 I-0.0086 J-0.0091
G1 X-17.192 Y13.0803
G0 X-17.1914 Y13.0553
G1 X-17.1789 Y13.0556 F6.1
G1 X-17.1664 Y13.0559
G3 X-17.1542 Y13.0687 I-0.0003 J0.0125
G3 X-17.1699 Y13.1814 I-0.4994 J-0.0123
G1 Z-0.0025 F30.
G3 X-17.7785 Y13.54 I-0.4836 J-0.125 F6.1
G3 X-18.1372 Y13.1814 I0.125 J-0.4836
G1 Z0.5312
G3 Y12.9314 I0.4836 J-0.125
G1 Z-0.0025 F30.
G3 X-17.5285 Y12.5728 I0.4836 J0.125 F6.1
G3 X-17.1699 Y12.9314 I-0.125 J0.4836
G1 Z0.5312
G3 X-17.1542 Y13.0687 I-0.4836 J0.125
G3 X-17.1581 Y13.0774 I-0.0125 J-0.0003
G3 X-17.167 Y13.0809 I-0.0086 J-0.0091
G1 X-17.192 Y13.0803
G0 X-17.1914 Y13.0553
G1 X-17.1789 Y13.0556 F6.1
G1 X-17.1664 Y13.0559
G3 X-17.1542 Y13.0687 I-0.0003 J0.0125
G3 X-17.1699 Y13.1814 I-0.4994 J-0.0123
G1 Z-0.0187 F30.
G3 X-17.7785 Y13.54 I-0.4836 J-0.125 F6.1
G3 X-18.1372 Y13.1814 I0.125 J-0.4836
G1 Z0.5312
G3 Y12.9314 I0.4836 J-0.125
G1 Z-0.0187 F30.
G3 X-17.5285 Y12.5728 I0.4836 J0.125 F6.1
G3 X-17.1699 Y12.9314 I-0.125 J0.4836
G1 Z0.5312
G3 X-17.1542 Y13.0687 I-0.4836 J0.125
G3 X-17.1581 Y13.0774 I-0.0125 J-0.0003
G3 X-17.167 Y13.0809 I-0.0086 J-0.0091
G1 X-17.192 Y13.0803
G0 X-17.1914 Y13.0553
G1 X-17.1789 Y13.0556 F6.1
G1 X-17.1664 Y13.0559
G3 X-17.1542 Y13.0687 I-0.0003 J0.0125
G3 X-17.1699 Y13.1814 I-0.4994 J-0.0123
G1 Z-0.035 F30.
G3 X-17.7785 Y13.54 I-0.4836 J-0.125 F6.1
G3 X-18.1372 Y13.1814 I0.125 J-0.4836
G1 Z0.5312
G3 Y12.9314 I0.4836 J-0.125
G1 Z-0.035 F30.
G3 X-17.5285 Y12.5728 I0.4836 J0.125 F6.1
G3 X-17.1699 Y12.9314 I-0.125 J0.4836
G1 Z0.5312
G3 X-17.1542 Y13.0687 I-0.4836 J0.125
G3 X-17.1581 Y13.0774 I-0.0125 J-0.0003
G3 X-17.167 Y13.0809 I-0.0086 J-0.0091
G1 X-17.192 Y13.0803
G0 X-17.1914 Y13.0553
G1 X-17.1789 Y13.0556 F6.1
G1 X-17.1664 Y13.0559
G3 X-17.1542 Y13.0687 I-0.0003 J0.0125
G3 X-17.1699 Y13.1814 I-0.4994 J-0.0123
G1 Z-0.0512 F30.
G3 X-17.7785 Y13.54 I-0.4836 J-0.125 F6.1
G3 X-18.1372 Y13.1814 I0.125 J-0.4836
G1 Z0.5312
G3 Y12.9314 I0.4836 J-0.125
G1 Z-0.0512 F30.
G3 X-17.5285 Y12.5728 I0.4836 J0.125 F6.1
G3 X-17.1699 Y12.9314 I-0.125 J0.4836
G1 Z0.5312
G3 X-17.1542 Y13.0687 I-0.4836 J0.125
G3 X-17.1581 Y13.0774 I-0.0125 J-0.0003
G3 X-17.167 Y13.0809 I-0.0086 J-0.0091
G1 X-17.192 Y13.0803
G0 X-17.1914 Y13.0553
G1 X-17.1789 Y13.0556 F6.1
G1 X-17.1664 Y13.0559
G3 X-17.1542 Y13.0687 I-0.0003 J0.0125
G3 X-17.1699 Y13.1814 I-0.4994 J-0.0123
G1 Z-0.0675 F30.
G3 X-17.7785 Y13.54 I-0.4836 J-0.125 F6.1
G3 X-18.1372 Y13.1814 I0.125 J-0.4836
G1 Z0.5312
G3 Y12.9314 I0.4836 J-0.125
G1 Z-0.0675 F30.
G3 X-17.5285 Y12.5728 I0.4836 J0.125 F6.1
G3 X-17.1699 Y12.9314 I-0.125 J0.4836
G1 Z0.5312
G3 X-17.1542 Y13.0687 I-0.4836 J0.125
G3 X-17.1581 Y13.0774 I-0.0125 J-0.0003
G3 X-17.167 Y13.0809 I-0.0086 J-0.0091
G1 X-17.192 Y13.0803
G0 X-17.1914 Y13.0553
G1 X-17.1789 Y13.0556 F6.1
G1 X-17.1664 Y13.0559
G3 X-17.1542 Y13.0687 I-0.0003 J0.0125
G3 X-17.1699 Y13.1814 I-0.4994 J-0.0123
G1 Z-0.0837 F30.
G3 X-17.7785 Y13.54 I-0.4836 J-0.125 F6.1
G3 X-18.1372 Y13.1814 I0.125 J-0.4836
G1 Z0.5312
G3 Y12.9314 I0.4836 J-0.125
G1 Z-0.0837 F30.
G3 X-17.5285 Y12.5728 I0.4836 J0.125 F6.1
G3 X-17.1699 Y12.9314 I-0.125 J0.4836
G1 Z0.5312
G3 X-17.1542 Y13.0687 I-0.4836 J0.125
G3 X-17.1581 Y13.0774 I-0.0125 J-0.0003
G3 X-17.167 Y13.0809 I-0.0086 J-0.0091
G1 X-17.192 Y13.0803
G0 X-17.1914 Y13.0553
G1 X-17.1789 Y13.0556 F6.1
G1 X-17.1664 Y13.0559
G3 X-17.1542 Y13.0687 I-0.0003 J0.0125
G3 X-17.1699 Y13.1814 I-0.4994 J-0.0123
G1 Z-0.0937 F30.
G3 X-17.7785 Y13.54 I-0.4836 J-0.125 F6.1
G3 X-18.1372 Y13.1814 I0.125 J-0.4836
G1 Z0.5312
G3 Y12.9314 I0.4836 J-0.125
G1 Z-0.0937 F30.
G3 X-17.5285 Y12.5728 I0.4836 J0.125 F6.1
G3 X-17.1699 Y12.9314 I-0.125 J0.4836
G1 Z0.5312
G3 X-17.1542 Y13.0687 I-0.4836 J0.125
G3 X-17.1581 Y13.0774 I-0.0125 J-0.0003
G3 X-17.167 Y13.0809 I-0.0086 J-0.0091
G1 X-17.192 Y13.0803
G0 X-16.9024 Y16.4556
G0 Z0.2625
G1 Z0.1181 F30.
G1 Z0.0587
G1 X-16.9022 Y16.4558 Z0.056 F6.1
G1 X-16.9015 Y16.4564 Z0.0533
G1 X-16.9004 Y16.4574 Z0.051
G1 X-16.8989 Y16.4587 Z0.049
G1 X-16.8971 Y16.4603 Z0.0475
G1 X-16.8951 Y16.4621 Z0.0466
G1 X-16.8931 Y16.4639 Z0.0462
G1 X-16.8837 Y16.4722
G3 X-16.8827 Y16.4899 I-0.0083 J0.0093
G1 X-17.2705 Y16.9269
G1 X-18.0092 Y16.2714
G1 Z0.5312
G1 X-18.1962 Y16.1055
G1 Z0.0462 F30.
G1 X-18.8586 Y15.5177 F6.1
G1 X-17.577
G1 Z0.5312
G1 X-17.327
G1 Z0.0462 F30.
G1 X-16.02 F6.1
G1 X-16.5369 Y16.1002
G1 Z0.5312
G1 X-16.7028 Y16.2872
G1 Z0.0462 F30.
G1 X-16.8827 Y16.4899 F6.1
G3 X-16.8913 Y16.494 I-0.0093 J-0.0083
G3 X-16.9003 Y16.4909 I-0.0007 J-0.0125
G1 X-16.9097 Y16.4826
G1 X-16.9117 Y16.4808 Z0.0466
G1 X-16.9137 Y16.479 Z0.0475
G1 X-16.9155 Y16.4774 Z0.049
G1 X-16.917 Y16.4761 Z0.051
G1 X-16.9181 Y16.4751 Z0.0533
G1 X-16.9188 Y16.4745 Z0.056
G1 X-16.919 Y16.4743 Z0.0587
G0 Z0.2625
G0 X-16.9024 Y16.4556
G1 Z0.1019 F30.
G1 Z0.0425
G1 X-16.9022 Y16.4558 Z0.0397 F6.1
G1 X-16.9015 Y16.4564 Z0.0371
G1 X-16.9004 Y16.4574 Z0.0347
G1 X-16.8989 Y16.4587 Z0.0327
G1 X-16.8971 Y16.4603 Z0.0312
G1 X-16.8951 Y16.4621 Z0.0303
G1 X-16.8931 Y16.4639 Z0.03
G1 X-16.8837 Y16.4722
G3 X-16.8827 Y16.4899 I-0.0083 J0.0093
G1 X-17.2705 Y16.9269
G1 X-18.0092 Y16.2714
G1 Z0.5312
G1 X-18.1962 Y16.1055
G1 Z0.03 F30.
G1 X-18.8586 Y15.5177 F6.1
G1 X-17.577
G1 Z0.5312
G1 X-17.327
G1 Z0.03 F30.
G1 X-16.02 F6.1
G1 X-16.5369 Y16.1002
G1 Z0.5312
G1 X-16.7028 Y16.2872
G1 Z0.03 F30.
G1 X-16.8827 Y16.4899 F6.1
G3 X-16.8913 Y16.494 I-0.0093 J-0.0083
G3 X-16.9003 Y16.4909 I-0.0007 J-0.0125
G1 X-16.9097 Y16.4826
G1 X-16.9117 Y16.4808 Z0.0303
G1 X-16.9137 Y16.479 Z0.0312
G1 X-16.9155 Y16.4774 Z0.0327
G1 X-16.917 Y16.4761 Z0.0347
G1 X-16.9181 Y16.4751 Z0.0371
G1 X-16.9188 Y16.4745 Z0.0397
G1 X-16.919 Y16.4743 Z0.0425
G0 Z0.2625
G0 X-16.9024 Y16.4556
G1 Z0.0856 F30.
G1 Z0.0262
G1 X-16.9022 Y16.4558 Z0.0235 F6.1
G1 X-16.9015 Y16.4564 Z0.0208
G1 X-16.9004 Y16.4574 Z0.0185
G1 X-16.8989 Y16.4587 Z0.0165
G1 X-16.8971 Y16.4603 Z0.015
G1 X-16.8951 Y16.4621 Z0.0141
G1 X-16.8931 Y16.4639 Z0.0137
G1 X-16.8837 Y16.4722
G3 X-16.8827 Y16.4899 I-0.0083 J0.0093
G1 X-17.2705 Y16.9269
G1 X-18.0092 Y16.2714
G1 Z0.5312
G1 X-18.1962 Y16.1055
G1 Z0.0137 F30.
G1 X-18.8586 Y15.5177 F6.1
G1 X-17.577
G1 Z0.5312
G1 X-17.327
G1 Z0.0137 F30.
G1 X-16.02 F6.1
G1 X-16.5369 Y16.1002
G1 Z0.5312
G1 X-16.7028 Y16.2872
G1 Z0.0137 F30.
G1 X-16.8827 Y16.4899 F6.1
G3 X-16.8913 Y16.494 I-0.0093 J-0.0083
G3 X-16.9003 Y16.4909 I-0.0007 J-0.0125
G1 X-16.9097 Y16.4826
G1 X-16.9117 Y16.4808 Z0.0141
G1 X-16.9137 Y16.479 Z0.015
G1 X-16.9155 Y16.4774 Z0.0165
G1 X-16.917 Y16.4761 Z0.0185
G1 X-16.9181 Y16.4751 Z0.0208
G1 X-16.9188 Y16.4745 Z0.0235
G1 X-16.919 Y16.4743 Z0.0262
G0 Z0.2625
G0 X-16.9024 Y16.4556
G1 Z0.0694 F30.
G1 Z0.01
G1 X-16.9022 Y16.4558 Z0.0072 F6.1
G1 X-16.9015 Y16.4564 Z0.0046
G1 X-16.9004 Y16.4574 Z0.0022
G1 X-16.8989 Y16.4587 Z0.0002
G1 X-16.8971 Y16.4603 Z-0.0013
G1 X-16.8951 Y16.4621 Z-0.0022
G1 X-16.8931 Y16.4639 Z-0.0025
G1 X-16.8837 Y16.4722
G3 X-16.8827 Y16.4899 I-0.0083 J0.0093
G1 X-17.2705 Y16.9269
G1 X-18.0092 Y16.2714
G1 Z0.5312
G1 X-18.1962 Y16.1055
G1 Z-0.0025 F30.
G1 X-18.8586 Y15.5177 F6.1
G1 X-17.577
G1 Z0.5312
G1 X-17.327
G1 Z-0.0025 F30.
G1 X-16.02 F6.1
G1 X-16.5369 Y16.1002
G1 Z0.5312
G1 X-16.7028 Y16.2872
G1 Z-0.0025 F30.
G1 X-16.8827 Y16.4899 F6.1
G3 X-16.8913 Y16.494 I-0.0093 J-0.0083
G3 X-16.9003 Y16.4909 I-0.0007 J-0.0125
G1 X-16.9097 Y16.4826
G1 X-16.9117 Y16.4808 Z-0.0022
G1 X-16.9137 Y16.479 Z-0.0013
G1 X-16.9155 Y16.4774 Z0.0002
G1 X-16.917 Y16.4761 Z0.0022
G1 X-16.9181 Y16.4751 Z0.0046
G1 X-16.9188 Y16.4745 Z0.0072
G1 X-16.919 Y16.4743 Z0.01
G0 Z0.2625
G0 X-16.9024 Y16.4556
G1 Z0.0531 F30.
G1 Z-0.0063
G1 X-16.9022 Y16.4558 Z-0.009 F6.1
G1 X-16.9015 Y16.4564 Z-0.0117
G1 X-16.9004 Y16.4574 Z-0.014
G1 X-16.8989 Y16.4587 Z-0.016
G1 X-16.8971 Y16.4603 Z-0.0175
G1 X-16.8951 Y16.4621 Z-0.0184
G1 X-16.8931 Y16.4639 Z-0.0187
G1 X-16.8837 Y16.4722
G3 X-16.8827 Y16.4899 I-0.0083 J0.0093
G1 X-17.2705 Y16.9269
G1 X-18.0092 Y16.2714
G1 Z0.5312
G1 X-18.1962 Y16.1055
G1 Z-0.0187 F30.
G1 X-18.8586 Y15.5177 F6.1
G1 X-17.577
G1 Z0.5312
G1 X-17.327
G1 Z-0.0187 F30.
G1 X-16.02 F6.1
G1 X-16.5369 Y16.1002
G1 Z0.5312
G1 X-16.7028 Y16.2872
G1 Z-0.0187 F30.
G1 X-16.8827 Y16.4899 F6.1
G3 X-16.8913 Y16.494 I-0.0093 J-0.0083
G3 X-16.9003 Y16.4909 I-0.0007 J-0.0125
G1 X-16.9097 Y16.4826
G1 X-16.9117 Y16.4808 Z-0.0184
G1 X-16.9137 Y16.479 Z-0.0175
G1 X-16.9155 Y16.4774 Z-0.016
G1 X-16.917 Y16.4761 Z-0.014
G1 X-16.9181 Y16.4751 Z-0.0117
G1 X-16.9188 Y16.4745 Z-0.009
G1 X-16.919 Y16.4743 Z-0.0063
G0 Z0.2625
G0 X-16.9024 Y16.4556
G1 Z0.0369 F30.
G1 Z-0.0225
G1 X-16.9022 Y16.4558 Z-0.0253 F6.1
G1 X-16.9015 Y16.4564 Z-0.0279
G1 X-16.9004 Y16.4574 Z-0.0303
G1 X-16.8989 Y16.4587 Z-0.0323
G1 X-16.8971 Y16.4603 Z-0.0338
G1 X-16.8951 Y16.4621 Z-0.0347
G1 X-16.8931 Y16.4639 Z-0.035
G1 X-16.8837 Y16.4722
G3 X-16.8827 Y16.4899 I-0.0083 J0.0093
G1 X-17.2705 Y16.9269
G1 X-18.0092 Y16.2714
G1 Z0.5312
G1 X-18.1962 Y16.1055
G1 Z-0.035 F30.
G1 X-18.8586 Y15.5177 F6.1
G1 X-17.577
G1 Z0.5312
G1 X-17.327
G1 Z-0.035 F30.
G1 X-16.02 F6.1
G1 X-16.5369 Y16.1002
G1 Z0.5312
G1 X-16.7028 Y16.2872
G1 Z-0.035 F30.
G1 X-16.8827 Y16.4899 F6.1
G3 X-16.8913 Y16.494 I-0.0093 J-0.0083
G3 X-16.9003 Y16.4909 I-0.0007 J-0.0125
G1 X-16.9097 Y16.4826
G1 X-16.9117 Y16.4808 Z-0.0347
G1 X-16.9137 Y16.479 Z-0.0338
G1 X-16.9155 Y16.4774 Z-0.0323
G1 X-16.917 Y16.4761 Z-0.0303
G1 X-16.9181 Y16.4751 Z-0.0279
G1 X-16.9188 Y16.4745 Z-0.0253
G1 X-16.919 Y16.4743 Z-0.0225
G0 Z0.2625
G0 X-16.9024 Y16.4556
G1 Z0.0206 F30.
G1 Z-0.0388
G1 X-16.9022 Y16.4558 Z-0.0415 F6.1
G1 X-16.9015 Y16.4564 Z-0.0442
G1 X-16.9004 Y16.4574 Z-0.0465
G1 X-16.8989 Y16.4587 Z-0.0485
G1 X-16.8971 Y16.4603 Z-0.05
G1 X-16.8951 Y16.4621 Z-0.0509
G1 X-16.8931 Y16.4639 Z-0.0512
G1 X-16.8837 Y16.4722
G3 X-16.8827 Y16.4899 I-0.0083 J0.0093
G1 X-17.2705 Y16.9269
G1 X-18.0092 Y16.2714
G1 Z0.5312
G1 X-18.1962 Y16.1055
G1 Z-0.0512 F30.
G1 X-18.8586 Y15.5177 F6.1
G1 X-17.577
G1 Z0.5312
G1 X-17.327
G1 Z-0.0512 F30.
G1 X-16.02 F6.1
G1 X-16.5369 Y16.1002
G1 Z0.5312
G1 X-16.7028 Y16.2872
G1 Z-0.0512 F30.
G1 X-16.8827 Y16.4899 F6.1
G3 X-16.8913 Y16.494 I-0.0093 J-0.0083
G3 X-16.9003 Y16.4909 I-0.0007 J-0.0125
G1 X-16.9097 Y16.4826
G1 X-16.9117 Y16.4808 Z-0.0509
G1 X-16.9137 Y16.479 Z-0.05
G1 X-16.9155 Y16.4774 Z-0.0485
G1 X-16.917 Y16.4761 Z-0.0465
G1 X-16.9181 Y16.4751 Z-0.0442
G1 X-16.9188 Y16.4745 Z-0.0415
G1 X-16.919 Y16.4743 Z-0.0388
G0 Z0.2625
G0 X-16.9024 Y16.4556
G1 Z0.0044 F30.
G1 Z-0.055
G1 X-16.9022 Y16.4558 Z-0.0578 F6.1
G1 X-16.9015 Y16.4564 Z-0.0604
G1 X-16.9004 Y16.4574 Z-0.0628
G1 X-16.8989 Y16.4587 Z-0.0648
G1 X-16.8971 Y16.4603 Z-0.0663
G1 X-16.8951 Y16.4621 Z-0.0672
G1 X-16.8931 Y16.4639 Z-0.0675
G1 X-16.8837 Y16.4722
G3 X-16.8827 Y16.4899 I-0.0083 J0.0093
G1 X-17.2705 Y16.9269
