(1001)
(T1  D=0.125 CR=0 - ZMIN=-0.0625 - FLAT END MILL)
G0 G40 G90 G17
G20

(DRILL2)
T1 M6
M3 S2440
G0 X14.6774 Y-4.9892
G0 Z0.725
G0 Z0.325
G1 Z-0.0625 F30.
G0 Z0.325
G0 X14.0475
G1 Z-0.0625 F30.
G0 Z0.325
G0 X13.4176
G1 Z-0.0625 F30.
G0 Z0.325
G0 X12.7876
G1 Z-0.0625 F30.
G0 Z0.325
G0 X12.1577
G1 Z-0.0625 F30.
G0 Z0.325
G0 X11.5278
G1 Z-0.0625 F30.
G0 Z0.325
G0 X10.8979
G1 Z-0.0625 F30.
G0 Z0.325
G0 X10.268
G1 Z-0.0625 F30.
G0 Z0.325
G0 X9.638
G1 Z-0.0625 F30.
G0 Z0.325
G0 X9.0081
G1 Z-0.0625 F30.
G0 Z0.325
G0 X8.3782
G1 Z-0.0625 F30.
G0 Z0.325
G0 X7.7483
G1 Z-0.0625 F30.
G0 Z0.325
G0 X7.1184
G1 Z-0.0625 F30.
G0 Z0.325
G0 X6.4884
G1 Z-0.0625 F30.
G0 Z0.325
G0 X5.8585
G1 Z-0.0625 F30.
G0 Z0.325
G0 X5.2286
G1 Z-0.0625 F30.
G0 Z0.325
G0 X4.5987
G1 Z-0.0625 F30.
G0 Z0.325
G0 X3.9687
G1 Z-0.0625 F30.
G0 Z0.325
G0 X3.3388
G1 Z-0.0625 F30.
G0 Z0.325
G0 X2.7089
G1 Z-0.0625 F30.
G0 Z0.325
G0 X2.079
G1 Z-0.0625 F30.
G0 Z0.325
G0 X6.08 Y-12.2016
G1 Z-0.0625 F30.
G0 Z0.325
G0 X6.395 Y-11.8866
G1 Z-0.0625 F30.
G0 Z0.325
G0 X6.08 Y-11.5717
G1 Z-0.0625 F30.
G0 Z0.325
G0 X2.079 Y-9.7392
G1 Z-0.0625 F30.
G0 Z0.325
G0 X2.7089
G1 Z-0.0625 F30.
G0 Z0.325
G0 X3.3388
G1 Z-0.0625 F30.
G0 Z0.325
G0 X3.9687
G1 Z-0.0625 F30.
G0 Z0.325
G0 X4.5987
G1 Z-0.0625 F30.
G0 Z0.325
G0 X5.2286
G1 Z-0.0625 F30.
G0 Z0.325
G0 X5.8585
G1 Z-0.0625 F30.
G0 Z0.325
G0 X6.4884
G1 Z-0.0625 F30.
G0 Z0.325
G0 X7.1184
G1 Z-0.0625 F30.
G0 Z0.325
G0 X7.7483
G1 Z-0.0625 F30.
G0 Z0.325
G0 X8.3782
G1 Z-0.0625 F30.
G0 Z0.325
G0 X9.0081
G1 Z-0.0625 F30.
G0 Z0.325
G0 X9.638
G1 Z-0.0625 F30.
G0 Z0.325
G0 X10.268
G1 Z-0.0625 F30.
G0 Z0.325
G0 X10.8979
G1 Z-0.0625 F30.
G0 Z0.325
G0 X11.5278
G1 Z-0.0625 F30.
G0 Z0.325
G0 X12.1577
G1 Z-0.0625 F30.
G0 Z0.325
G0 X12.7876
G1 Z-0.0625 F30.
G0 Z0.325
G0 X13.4176
G1 Z-0.0625 F30.
G0 Z0.325
G0 X14.0475
G1 Z-0.0625 F30.
G0 Z0.325
G0 X14.6774
G1 Z-0.0625 F30.
G0 Z0.325
G0 X15.3099 Y-10.9024
G1 Z-0.0625 F30.
G0 Z0.325
G0 Y-11.2173
G1 Z-0.0625 F30.
G0 Z0.325
G0 Y-11.5323
G1 Z-0.0625 F30.
G0 Z0.325
G0 Y-11.8473
G1 Z-0.0625 F30.
G0 Z0.325
G0 Y-12.1622
G1 Z-0.0625 F30.
G0 Z0.325
G0 X13.1051
G1 Z-0.0625 F30.
G0 Z0.325
G0 Y-11.8473
G1 Z-0.0625 F30.
G0 Z0.325
G0 Y-11.5323
G1 Z-0.0625 F30.
G0 Z0.325
G0 Y-11.2173
G1 Z-0.0625 F30.
G0 Z0.325
G0 Y-10.9024
G1 Z-0.0625 F30.
G0 Z0.325
G0 X11.1336 Y-8.8337
G1 Z-0.0625 F30.
G0 Z0.325
G0 X10.8186 Y-8.5188
G1 Z-0.0625 F30.
G0 Z0.325
G0 X11.1336 Y-8.2038
G1 Z-0.0625 F30.
G0 Z0.325
G0 X9.6459 Y-7.4164
G1 Z-0.0625 F30.
G0 Z0.325
G0 X10.0002
G1 Z-0.0625 F30.
G0 Z0.325
G0 Y-6.4715
G1 Z-0.0625 F30.
G0 Z0.325
G0 X9.6459
G1 Z-0.0625 F30.
G0 Z0.325
G0 X11.1336 Y-4.0837
G1 Z-0.0625 F30.
G0 Z0.325
G0 X10.8186 Y-3.7688
G1 Z-0.0625 F30.
G0 Z0.325
G0 X11.1336 Y-3.4538
G1 Z-0.0625 F30.
G0 Z0.325
G0 X9.6459 Y-2.6664
G1 Z-0.0625 F30.
G0 Z0.325
G0 X10.0002
G1 Z-0.0625 F30.
G0 Z0.325
G0 Y-1.7215
G1 Z-0.0625 F30.
G0 Z0.325
G0 X9.6459
G1 Z-0.0625 F30.
G0 Z0.325
G0 X6.0771 Y-1.879
G1 Z-0.0625 F30.
G0 Z0.325
G0 X6.3921 Y-2.194
G1 Z-0.0625 F30.
G0 Z0.325
G0 X6.0771 Y-2.5089
G1 Z-0.0625 F30.
G0 Z0.325
G0 X7.5647 Y-3.2963
G1 Z-0.0625 F30.
G0 Z0.325
G0 X7.2104
G1 Z-0.0625 F30.
G0 Z0.325
G0 Y-4.2412
G1 Z-0.0625 F30.
G0 Z0.325
G0 X7.5647
G1 Z-0.0625 F30.
G0 Z0.325
G0 X6.0771 Y-6.629
G1 Z-0.0625 F30.
G0 Z0.325
G0 X6.3921 Y-6.944
G1 Z-0.0625 F30.
G0 Z0.325
G0 X6.0771 Y-7.2589
G1 Z-0.0625 F30.
G0 Z0.325
G0 X7.5647 Y-8.0463
G1 Z-0.0625 F30.
G0 Z0.325
G0 X7.2104
G1 Z-0.0625 F30.
G0 Z0.325
G0 Y-8.9912
G1 Z-0.0625 F30.
G0 Z0.325
G0 X7.5647
G1 Z-0.0625 F30.
G0 Z0.325
G0 X7.7508 Y-10.7055
G1 Z-0.0625 F30.
G0 Z0.325
G0 X8.0658
G1 Z-0.0625 F30.
G0 Z0.325
G0 X8.3807
G1 Z-0.0625 F30.
G0 Z0.325
G0 X8.6957
G1 Z-0.0625 F30.
G0 Z0.325
G0 X9.0107
G1 Z-0.0625 F30.
G0 Z0.325
G0 X10.9004 Y-10.9024
G1 Z-0.0625 F30.
G0 Z0.325
G0 Y-11.2173
G1 Z-0.0625 F30.
G0 Z0.325
G0 Y-11.5323
G1 Z-0.0625 F30.
G0 Z0.325
G0 Y-11.8473
G1 Z-0.0625 F30.
G0 Z0.325
G0 Y-12.1622
G1 Z-0.0625 F30.
G0 Z0.325
G0 X11.1365 Y-13.1465
G1 Z-0.0625 F30.
G0 Z0.325
G0 X10.8215 Y-13.4614
G1 Z-0.0625 F30.
G0 Z0.325
G0 X11.1365 Y-13.7764
G1 Z-0.0625 F30.
G0 Z0.325
G0 Z0.725

(2D CONTOUR1)
G0 X16.1453 Y-9.6575
G0 Z0.725
G0 Z0.325
G1 Z0.1806 F30.
G1 Z0.1212
G1 X16.1456 Z0.1185 F6.1
G1 X16.1466 Z0.1158
G1 X16.148 Z0.1135
G1 X16.15 Z0.1115
G1 X16.1524 Z0.11
G1 X16.155 Z0.1091
G1 X16.1578 Z0.1087
G1 X16.1703
G3 X16.1828 Y-9.645 I0 J0.0125
G3 X16.1075 Y-9.5697 I-0.0753 J0
G3 X16.0322 Y-9.645 I0 J-0.0753
G3 X16.1075 Y-9.7203 I0.0753 J0
G3 X16.1828 Y-9.645 I0 J0.0753
G3 X16.1703 Y-9.6325 I-0.0125 J0
G1 X16.1578
G1 X16.155 Z0.1091
G1 X16.1524 Z0.11
G1 X16.15 Z0.1115
G1 X16.148 Z0.1135
G1 X16.1466 Z0.1158
G1 X16.1456 Z0.1185
G1 X16.1453 Z0.1212
G0 Z0.325
G0 Y-9.6575
G1 Z0.1644 F30.
G1 Z0.105
G1 X16.1456 Z0.1022 F6.1
G1 X16.1466 Z0.0996
G1 X16.148 Z0.0972
G1 X16.15 Z0.0952
G1 X16.1524 Z0.0937
G1 X16.155 Z0.0928
G1 X16.1578 Z0.0925
G1 X16.1703
G3 X16.1828 Y-9.645 I0 J0.0125
G3 X16.1075 Y-9.5697 I-0.0753 J0
G3 X16.0322 Y-9.645 I0 J-0.0753
G3 X16.1075 Y-9.7203 I0.0753 J0
G3 X16.1828 Y-9.645 I0 J0.0753
G3 X16.1703 Y-9.6325 I-0.0125 J0
G1 X16.1578
G1 X16.155 Z0.0928
G1 X16.1524 Z0.0937
G1 X16.15 Z0.0952
G1 X16.148 Z0.0972
G1 X16.1466 Z0.0996
G1 X16.1456 Z0.1022
G1 X16.1453 Z0.105
G0 Z0.325
G0 Y-9.6575
G1 Z0.1481 F30.
G1 Z0.0887
G1 X16.1456 Z0.086 F6.1
G1 X16.1466 Z0.0833
G1 X16.148 Z0.081
G1 X16.15 Z0.079
G1 X16.1524 Z0.0775
G1 X16.155 Z0.0766
G1 X16.1578 Z0.0763
G1 X16.1703
G3 X16.1828 Y-9.645 I0 J0.0125
G3 X16.1075 Y-9.5697 I-0.0753 J0
G3 X16.0322 Y-9.645 I0 J-0.0753
G3 X16.1075 Y-9.7203 I0.0753 J0
G3 X16.1828 Y-9.645 I0 J0.0753
G3 X16.1703 Y-9.6325 I-0.0125 J0
G1 X16.1578
G1 X16.155 Z0.0766
G1 X16.1524 Z0.0775
G1 X16.15 Z0.079
G1 X16.148 Z0.081
G1 X16.1466 Z0.0833
G1 X16.1456 Z0.086
G1 X16.1453 Z0.0887
G0 Z0.325
G0 Y-9.6575
G1 Z0.1319 F30.
G1 Z0.0725
G1 X16.1456 Z0.0697 F6.1
G1 X16.1466 Z0.0671
G1 X16.148 Z0.0647
G1 X16.15 Z0.0627
G1 X16.1524 Z0.0612
G1 X16.155 Z0.0603
G1 X16.1578 Z0.06
G1 X16.1703
G3 X16.1828 Y-9.645 I0 J0.0125
G3 X16.1075 Y-9.5697 I-0.0753 J0
G3 X16.0322 Y-9.645 I0 J-0.0753
G3 X16.1075 Y-9.7203 I0.0753 J0
G3 X16.1828 Y-9.645 I0 J0.0753
G3 X16.1703 Y-9.6325 I-0.0125 J0
G1 X16.1578
G1 X16.155 Z0.0603
G1 X16.1524 Z0.0612
G1 X16.15 Z0.0627
G1 X16.148 Z0.0647
G1 X16.1466 Z0.0671
G1 X16.1456 Z0.0697
G1 X16.1453 Z0.0725
G0 Z0.325
G0 Y-9.6575
G1 Z0.1156 F30.
G1 Z0.0562
G1 X16.1456 Z0.0535 F6.1
G1 X16.1466 Z0.0508
G1 X16.148 Z0.0485
G1 X16.15 Z0.0465
G1 X16.1524 Z0.045
G1 X16.155 Z0.0441
G1 X16.1578 Z0.0438
G1 X16.1703
G3 X16.1828 Y-9.645 I0 J0.0125
G3 X16.1075 Y-9.5697 I-0.0753 J0
G3 X16.0322 Y-9.645 I0 J-0.0753
G3 X16.1075 Y-9.7203 I0.0753 J0
G3 X16.1828 Y-9.645 I0 J0.0753
G3 X16.1703 Y-9.6325 I-0.0125 J0
G1 X16.1578
G1 X16.155 Z0.0441
G1 X16.1524 Z0.045
G1 X16.15 Z0.0465
G1 X16.148 Z0.0485
G1 X16.1466 Z0.0508
G1 X16.1456 Z0.0535
G1 X16.1453 Z0.0562
G0 Z0.325
G0 Y-9.6575
G1 Z0.0994 F30.
G1 Z0.04
G1 X16.1456 Z0.0372 F6.1
G1 X16.1466 Z0.0346
G1 X16.148 Z0.0322
G1 X16.15 Z0.0302
G1 X16.1524 Z0.0287
G1 X16.155 Z0.0278
G1 X16.1578 Z0.0275
G1 X16.1703
G3 X16.1828 Y-9.645 I0 J0.0125
G3 X16.1075 Y-9.5697 I-0.0753 J0
G3 X16.0322 Y-9.645 I0 J-0.0753
G3 X16.1075 Y-9.7203 I0.0753 J0
G3 X16.1828 Y-9.645 I0 J0.0753
G3 X16.1703 Y-9.6325 I-0.0125 J0
G1 X16.1578
G1 X16.155 Z0.0278
G1 X16.1524 Z0.0287
G1 X16.15 Z0.0302
G1 X16.148 Z0.0322
G1 X16.1466 Z0.0346
G1 X16.1456 Z0.0372
G1 X16.1453 Z0.04
G0 Z0.325
G0 Y-9.6575
G1 Z0.0831 F30.
G1 Z0.0237
G1 X16.1456 Z0.021 F6.1
G1 X16.1466 Z0.0183
G1 X16.148 Z0.016
G1 X16.15 Z0.014
G1 X16.1524 Z0.0125
G1 X16.155 Z0.0116
G1 X16.1578 Z0.0113
G1 X16.1703
G3 X16.1828 Y-9.645 I0 J0.0125
G3 X16.1075 Y-9.5697 I-0.0753 J0
G3 X16.0322 Y-9.645 I0 J-0.0753
G3 X16.1075 Y-9.7203 I0.0753 J0
G3 X16.1828 Y-9.645 I0 J0.0753
G3 X16.1703 Y-9.6325 I-0.0125 J0
G1 X16.1578
G1 X16.155 Z0.0116
G1 X16.1524 Z0.0125
G1 X16.15 Z0.014
G1 X16.148 Z0.016
G1 X16.1466 Z0.0183
G1 X16.1456 Z0.021
G1 X16.1453 Z0.0237
G0 Z0.325
G0 Y-9.6575
G1 Z0.0669 F30.
G1 Z0.0075
G1 X16.1456 Z0.0047 F6.1
G1 X16.1466 Z0.0021
G1 X16.148 Z-0.0003
G1 X16.15 Z-0.0023
G1 X16.1524 Z-0.0038
G1 X16.155 Z-0.0047
G1 X16.1578 Z-0.005
G1 X16.1703
G3 X16.1828 Y-9.645 I0 J0.0125
G3 X16.1075 Y-9.5697 I-0.0753 J0
G3 X16.0322 Y-9.645 I0 J-0.0753
G3 X16.1075 Y-9.7203 I0.0753 J0
G3 X16.1828 Y-9.645 I0 J0.0753
G3 X16.1703 Y-9.6325 I-0.0125 J0
G1 X16.1578
G1 X16.155 Z-0.0047
G1 X16.1524 Z-0.0038
G1 X16.15 Z-0.0023
G1 X16.148 Z-0.0003
G1 X16.1466 Z0.0021
G1 X16.1456 Z0.0047
G1 X16.1453 Z0.0075
G0 Z0.325
G0 Y-9.6575
G1 Z0.0506 F30.
G1 Z-0.0088
G1 X16.1456 Z-0.0115 F6.1
G1 X16.1466 Z-0.0142
G1 X16.148 Z-0.0165
G1 X16.15 Z-0.0185
G1 X16.1524 Z-0.02
G1 X16.155 Z-0.0209
G1 X16.1578 Z-0.0212
G1 X16.1703
G3 X16.1828 Y-9.645 I0 J0.0125
G3 X16.1075 Y-9.5697 I-0.0753 J0
G3 X16.0322 Y-9.645 I0 J-0.0753
G3 X16.1075 Y-9.7203 I0.0753 J0
G3 X16.1828 Y-9.645 I0 J0.0753
G3 X16.1703 Y-9.6325 I-0.0125 J0
G1 X16.1578
G1 X16.155 Z-0.0209
G1 X16.1524 Z-0.02
G1 X16.15 Z-0.0185
G1 X16.148 Z-0.0165
G1 X16.1466 Z-0.0142
G1 X16.1456 Z-0.0115
G1 X16.1453 Z-0.0088
G0 Z0.325
G0 Y-9.6575
G1 Z0.0344 F30.
G1 Z-0.0188
G1 X16.1456 Z-0.0215 F6.1
G1 X16.1466 Z-0.0242
G1 X16.148 Z-0.0265
G1 X16.15 Z-0.0285
G1 X16.1524 Z-0.03
G1 X16.155 Z-0.0309
G1 X16.1578 Z-0.0312
G1 X16.1703
G3 X16.1828 Y-9.645 I0 J0.0125
G3 X16.1075 Y-9.5697 I-0.0753 J0
G3 X16.0322 Y-9.645 I0 J-0.0753
G3 X16.1075 Y-9.7203 I0.0753 J0
G3 X16.1828 Y-9.645 I0 J0.0753
G3 X16.1703 Y-9.6325 I-0.0125 J0
G1 X16.1578
G1 X16.155 Z-0.0309
G1 X16.1524 Z-0.03
G1 X16.15 Z-0.0285
G1 X16.148 Z-0.0265
G1 X16.1466 Z-0.0242
G1 X16.1456 Z-0.0215
G1 X16.1453 Z-0.0188
G0 Z0.325
G0 Y-9.0669
G1 Z0.1806 F30.
G1 Z0.1212
G1 X16.1456 Z0.1185 F6.1
G1 X16.1466 Z0.1158
G1 X16.148 Z0.1135
G1 X16.15 Z0.1115
G1 X16.1524 Z0.11
G1 X16.155 Z0.1091
G1 X16.1578 Z0.1087
G1 X16.1703
G3 X16.1828 Y-9.0544 I0 J0.0125
G3 X16.1075 Y-8.9792 I-0.0753 J0
G3 X16.0322 Y-9.0544 I0 J-0.0753
G3 X16.1075 Y-9.1297 I0.0753 J0
G3 X16.1828 Y-9.0544 I0 J0.0753
G3 X16.1703 Y-9.0419 I-0.0125 J0
G1 X16.1578
G1 X16.155 Z0.1091
G1 X16.1524 Z0.11
G1 X16.15 Z0.1115
G1 X16.148 Z0.1135
G1 X16.1466 Z0.1158
G1 X16.1456 Z0.1185
G1 X16.1453 Z0.1212
G0 Z0.325
G0 Y-9.0669
G1 Z0.1644 F30.
G1 Z0.105
G1 X16.1456 Z0.1022 F6.1
G1 X16.1466 Z0.0996
G1 X16.148 Z0.0972
G1 X16.15 Z0.0952
G1 X16.1524 Z0.0937
G1 X16.155 Z0.0928
G1 X16.1578 Z0.0925
G1 X16.1703
G3 X16.1828 Y-9.0544 I0 J0.0125
G3 X16.1075 Y-8.9792 I-0.0753 J0
G3 X16.0322 Y-9.0544 I0 J-0.0753
G3 X16.1075 Y-9.1297 I0.0753 J0
G3 X16.1828 Y-9.0544 I0 J0.0753
G3 X16.1703 Y-9.0419 I-0.0125 J0
G1 X16.1578
G1 X16.155 Z0.0928
G1 X16.1524 Z0.0937
G1 X16.15 Z0.0952
G1 X16.148 Z0.0972
G1 X16.1466 Z0.0996
G1 X16.1456 Z0.1022
G1 X16.1453 Z0.105
G0 Z0.325
G0 Y-9.0669
G1 Z0.1481 F30.
G1 Z0.0887
G1 X16.1456 Z0.086 F6.1
G1 X16.1466 Z0.0833
G1 X16.148 Z0.081
G1 X16.15 Z0.079
G1 X16.1524 Z0.0775
G1 X16.155 Z0.0766
G1 X16.1578 Z0.0763
G1 X16.1703
G3 X16.1828 Y-9.0544 I0 J0.0125
G3 X16.1075 Y-8.9792 I-0.0753 J0
G3 X16.0322 Y-9.0544 I0 J-0.0753
G3 X16.1075 Y-9.1297 I0.0753 J0
G3 X16.1828 Y-9.0544 I0 J0.0753
G3 X16.1703 Y-9.0419 I-0.0125 J0
G1 X16.1578
G1 X16.155 Z0.0766
G1 X16.1524 Z0.0775
G1 X16.15 Z0.079
G1 X16.148 Z0.081
G1 X16.1466 Z0.0833
G1 X16.1456 Z0.086
G1 X16.1453 Z0.0887
G0 Z0.325
G0 Y-9.0669
G1 Z0.1319 F30.
G1 Z0.0725
G1 X16.1456 Z0.0697 F6.1
G1 X16.1466 Z0.0671
G1 X16.148 Z0.0647
G1 X16.15 Z0.0627
G1 X16.1524 Z0.0612
G1 X16.155 Z0.0603
G1 X16.1578 Z0.06
G1 X16.1703
G3 X16.1828 Y-9.0544 I0 J0.0125
G3 X16.1075 Y-8.9792 I-0.0753 J0
G3 X16.0322 Y-9.0544 I0 J-0.0753
G3 X16.1075 Y-9.1297 I0.0753 J0
G3 X16.1828 Y-9.0544 I0 J0.0753
G3 X16.1703 Y-9.0419 I-0.0125 J0
G1 X16.1578
G1 X16.155 Z0.0603
G1 X16.1524 Z0.0612
G1 X16.15 Z0.0627
G1 X16.148 Z0.0647
G1 X16.1466 Z0.0671
G1 X16.1456 Z0.0697
G1 X16.1453 Z0.0725
G0 Z0.325
G0 Y-9.0669
G1 Z0.1156 F30.
G1 Z0.0562
G1 X16.1456 Z0.0535 F6.1
G1 X16.1466 Z0.0508
G1 X16.148 Z0.0485
G1 X16.15 Z0.0465
G1 X16.1524 Z0.045
G1 X16.155 Z0.0441
G1 X16.1578 Z0.0438
G1 X16.1703
G3 X16.1828 Y-9.0544 I0 J0.0125
G3 X16.1075 Y-8.9792 I-0.0753 J0
G3 X16.0322 Y-9.0544 I0 J-0.0753
G3 X16.1075 Y-9.1297 I0.0753 J0
G3 X16.1828 Y-9.0544 I0 J0.0753
G3 X16.1703 Y-9.0419 I-0.0125 J0
G1 X16.1578
G1 X16.155 Z0.0441
G1 X16.1524 Z0.045
G1 X16.15 Z0.0465
G1 X16.148 Z0.0485
G1 X16.1466 Z0.0508
G1 X16.1456 Z0.0535
G1 X16.1453 Z0.0562
G0 Z0.325
G0 Y-9.0669
G1 Z0.0994 F30.
G1 Z0.04
G1 X16.1456 Z0.0372 F6.1
G1 X16.1466 Z0.0346
G1 X16.148 Z0.0322
G1 X16.15 Z0.0302
G1 X16.1524 Z0.0287
G1 X16.155 Z0.0278
G1 X16.1578 Z0.0275
G1 X16.1703
G3 X16.1828 Y-9.0544 I0 J0.0125
G3 X16.1075 Y-8.9792 I-0.0753 J0
G3 X16.0322 Y-9.0544 I0 J-0.0753
G3 X16.1075 Y-9.1297 I0.0753 J0
G3 X16.1828 Y-9.0544 I0 J0.0753
G3 X16.1703 Y-9.0419 I-0.0125 J0
G1 X16.1578
G1 X16.155 Z0.0278
G1 X16.1524 Z0.0287
G1 X16.15 Z0.0302
G1 X16.148 Z0.0322
G1 X16.1466 Z0.0346
G1 X16.1456 Z0.0372
G1 X16.1453 Z0.04
G0 Z0.325
G0 Y-9.0669
G1 Z0.0831 F30.
G1 Z0.0237
G1 X16.1456 Z0.021 F6.1
G1 X16.1466 Z0.0183
G1 X16.148 Z0.016
G1 X16.15 Z0.014
G1 X16.1524 Z0.0125
G1 X16.155 Z0.0116
G1 X16.1578 Z0.0113
G1 X16.1703
G3 X16.1828 Y-9.0544 I0 J0.0125
G3 X16.1075 Y-8.9792 I-0.0753 J0
G3 X16.0322 Y-9.0544 I0 J-0.0753
G3 X16.1075 Y-9.1297 I0.0753 J0
G3 X16.1828 Y-9.0544 I0 J0.0753
G3 X16.1703 Y-9.0419 I-0.0125 J0
G1 X16.1578
G1 X16.155 Z0.0116
G1 X16.1524 Z0.0125
G1 X16.15 Z0.014
G1 X16.148 Z0.016
G1 X16.1466 Z0.0183
G1 X16.1456 Z0.021
G1 X16.1453 Z0.0237
G0 Z0.325
G0 Y-9.0669
G1 Z0.0669 F30.
G1 Z0.0075
G1 X16.1456 Z0.0047 F6.1
G1 X16.1466 Z0.0021
G1 X16.148 Z-0.0003
G1 X16.15 Z-0.0023
G1 X16.1524 Z-0.0038
G1 X16.155 Z-0.0047
G1 X16.1578 Z-0.005
G1 X16.1703
G3 X16.1828 Y-9.0544 I0 J0.0125
G3 X16.1075 Y-8.9792 I-0.0753 J0
G3 X16.0322 Y-9.0544 I0 J-0.0753
G3 X16.1075 Y-9.1297 I0.0753 J0
G3 X16.1828 Y-9.0544 I0 J0.0753
G3 X16.1703 Y-9.0419 I-0.0125 J0
G1 X16.1578
G1 X16.155 Z-0.0047
G1 X16.1524 Z-0.0038
G1 X16.15 Z-0.0023
G1 X16.148 Z-0.0003
G1 X16.1466 Z0.0021
G1 X16.1456 Z0.0047
G1 X16.1453 Z0.0075
G0 Z0.325
G0 Y-9.0669
G1 Z0.0506 F30.
G1 Z-0.0088
G1 X16.1456 Z-0.0115 F6.1
G1 X16.1466 Z-0.0142
G1 X16.148 Z-0.0165
G1 X16.15 Z-0.0185
G1 X16.1524 Z-0.02
G1 X16.155 Z-0.0209
G1 X16.1578 Z-0.0212
G1 X16.1703
G3 X16.1828 Y-9.0544 I0 J0.0125
G3 X16.1075 Y-8.9792 I-0.0753 J0
G3 X16.0322 Y-9.0544 I0 J-0.0753
G3 X16.1075 Y-9.1297 I0.0753 J0
G3 X16.1828 Y-9.0544 I0 J0.0753
G3 X16.1703 Y-9.0419 I-0.0125 J0
G1 X16.1578
G1 X16.155 Z-0.0209
G1 X16.1524 Z-0.02
G1 X16.15 Z-0.0185
G1 X16.148 Z-0.0165
G1 X16.1466 Z-0.0142
G1 X16.1456 Z-0.0115
G1 X16.1453 Z-0.0088
G0 Z0.325
G0 Y-9.0669
G1 Z0.0344 F30.
G1 Z-0.0188
G1 X16.1456 Z-0.0215 F6.1
G1 X16.1466 Z-0.0242
G1 X16.148 Z-0.0265
G1 X16.15 Z-0.0285
G1 X16.1524 Z-0.03
G1 X16.155 Z-0.0309
G1 X16.1578 Z-0.0312
G1 X16.1703
G3 X16.1828 Y-9.0544 I0 J0.0125
G3 X16.1075 Y-8.9792 I-0.0753 J0
G3 X16.0322 Y-9.0544 I0 J-0.0753
G3 X16.1075 Y-9.1297 I0.0753 J0
G3 X16.1828 Y-9.0544 I0 J0.0753
G3 X16.1703 Y-9.0419 I-0.0125 J0
G1 X16.1578
G1 X16.155 Z-0.0309
G1 X16.1524 Z-0.03
G1 X16.15 Z-0.0285
G1 X16.148 Z-0.0265
G1 X16.1466 Z-0.0242
G1 X16.1456 Z-0.0215
G1 X16.1453 Z-0.0188
G0 Z0.325
G0 X14.7985 Y-8.4334
G1 Z0.1806 F30.
G1 Z0.1212
G1 X14.7988 Y-8.4332 Z0.1185 F6.1
G1 X14.7994 Y-8.4326 Z0.1158
G1 X14.8005 Y-8.4315 Z0.1135
G1 X14.8019 Y-8.4301 Z0.1115
G1 X14.8036 Y-8.4285 Z0.11
G1 X14.8055 Y-8.4266 Z0.1091
G1 X14.8074 Y-8.4247 Z0.1087
G1 X14.8164 Y-8.4159
G3 X14.8165 Y-8.3982 I-0.0088 J0.0089
G1 X14.4724 Y-8.0488
G1 X13.9283 Y-8.5846
G1 Z0.5938
G1 X13.7502 Y-8.76
G1 Z0.1087 F30.
G1 X13.2702 Y-9.2327 F6.1
G1 X14.3276
G1 Z0.5938
G1 X14.5776
G1 Z0.1087 F30.
G1 X15.6382 F6.1
G1 X15.1734 Y-8.7607
G1 Z0.5938
G1 X14.998 Y-8.5826
G1 Z0.1087 F30.
G1 X14.8165 Y-8.3982 F6.1
G3 X14.7988 Y-8.3981 I-0.0089 J-0.0088
G1 X14.7899 Y-8.4069
G1 X14.7879 Y-8.4088 Z0.1091
G1 X14.786 Y-8.4107 Z0.11
G1 X14.7844 Y-8.4123 Z0.1115
G1 X14.7829 Y-8.4137 Z0.1135
G1 X14.7819 Y-8.4148 Z0.1158
G1 X14.7812 Y-8.4154 Z0.1185
G1 X14.781 Y-8.4156 Z0.1212
G0 Z0.325
G0 X14.7985 Y-8.4334
G1 Z0.1644 F30.
G1 Z0.105
G1 X14.7988 Y-8.4332 Z0.1022 F6.1
G1 X14.7994 Y-8.4326 Z0.0996
G1 X14.8005 Y-8.4315 Z0.0972
G1 X14.8019 Y-8.4301 Z0.0952
G1 X14.8036 Y-8.4285 Z0.0937
G1 X14.8055 Y-8.4266 Z0.0928
G1 X14.8074 Y-8.4247 Z0.0925
G1 X14.8164 Y-8.4159
G3 X14.8165 Y-8.3982 I-0.0088 J0.0089
G1 X14.4724 Y-8.0488
G1 X13.9283 Y-8.5846
G1 Z0.5938
G1 X13.7502 Y-8.76
G1 Z0.0925 F30.
G1 X13.2702 Y-9.2327 F6.1
G1 X14.3276
G1 Z0.5938
G1 X14.5776
G1 Z0.0925 F30.
G1 X15.6382 F6.1
G1 X15.1734 Y-8.7607
G1 Z0.5938
G1 X14.998 Y-8.5826
G1 Z0.0925 F30.
G1 X14.8165 Y-8.3982 F6.1
G3 X14.7988 Y-8.3981 I-0.0089 J-0.0088
G1 X14.7899 Y-8.4069
G1 X14.7879 Y-8.4088 Z0.0928
G1 X14.786 Y-8.4107 Z0.0937
G1 X14.7844 Y-8.4123 Z0.0952
G1 X14.7829 Y-8.4137 Z0.0972
G1 X14.7819 Y-8.4148 Z0.0996
G1 X14.7812 Y-8.4154 Z0.1022
G1 X14.781 Y-8.4156 Z0.105
G0 Z0.325
G0 X14.7985 Y-8.4334
G1 Z0.1481 F30.
G1 Z0.0887
G1 X14.7988 Y-8.4332 Z0.086 F6.1
G1 X14.7994 Y-8.4326 Z0.0833
G1 X14.8005 Y-8.4315 Z0.081
G1 X14.8019 Y-8.4301 Z0.079
G1 X14.8036 Y-8.4285 Z0.0775
G1 X14.8055 Y-8.4266 Z0.0766
G1 X14.8074 Y-8.4247 Z0.0763
G1 X14.8164 Y-8.4159
G3 X14.8165 Y-8.3982 I-0.0088 J0.0089
G1 X14.4724 Y-8.0488
G1 X13.9283 Y-8.5846
G1 Z0.5938
G1 X13.7502 Y-8.76
G1 Z0.0763 F30.
G1 X13.2702 Y-9.2327 F6.1
G1 X14.3276
G1 Z0.5938
G1 X14.5776
G1 Z0.0763 F30.
G1 X15.6382 F6.1
G1 X15.1734 Y-8.7607
G1 Z0.5938
G1 X14.998 Y-8.5826
G1 Z0.0763 F30.
G1 X14.8165 Y-8.3982 F6.1
G3 X14.7988 Y-8.3981 I-0.0089 J-0.0088
G1 X14.7899 Y-8.4069
G1 X14.7879 Y-8.4088 Z0.0766
G1 X14.786 Y-8.4107 Z0.0775
G1 X14.7844 Y-8.4123 Z0.079
G1 X14.7829 Y-8.4137 Z0.081
G1 X14.7819 Y-8.4148 Z0.0833
G1 X14.7812 Y-8.4154 Z0.086
G1 X14.781 Y-8.4156 Z0.0887
G0 Z0.325
G0 X14.7985 Y-8.4334
G1 Z0.1319 F30.
G1 Z0.0725
G1 X14.7988 Y-8.4332 Z0.0697 F6.1
G1 X14.7994 Y-8.4326 Z0.0671
G1 X14.8005 Y-8.4315 Z0.0647
G1 X14.8019 Y-8.4301 Z0.0627
G1 X14.8036 Y-8.4285 Z0.0612
G1 X14.8055 Y-8.4266 Z0.0603
G1 X14.8074 Y-8.4247 Z0.06
G1 X14.8164 Y-8.4159
G3 X14.8165 Y-8.3982 I-0.0088 J0.0089
G1 X14.4724 Y-8.0488
G1 X13.9283 Y-8.5846
G1 Z0.5938
G1 X13.7502 Y-8.76
G1 Z0.06 F30.
G1 X13.2702 Y-9.2327 F6.1
G1 X14.3276
G1 Z0.5938
G1 X14.5776
G1 Z0.06 F30.
G1 X15.6382 F6.1
G1 X15.1734 Y-8.7607
G1 Z0.5938
G1 X14.998 Y-8.5826
G1 Z0.06 F30.
G1 X14.8165 Y-8.3982 F6.1
G3 X14.7988 Y-8.3981 I-0.0089 J-0.0088
G1 X14.7899 Y-8.4069
G1 X14.7879 Y-8.4088 Z0.0603
G1 X14.786 Y-8.4107 Z0.0612
G1 X14.7844 Y-8.4123 Z0.0627
G1 X14.7829 Y-8.4137 Z0.0647
G1 X14.7819 Y-8.4148 Z0.0671
G1 X14.7812 Y-8.4154 Z0.0697
G1 X14.781 Y-8.4156 Z0.0725
G0 Z0.325
G0 X14.7985 Y-8.4334
G1 Z0.1156 F30.
G1 Z0.0562
G1 X14.7988 Y-8.4332 Z0.0535 F6.1
G1 X14.7994 Y-8.4326 Z0.0508
G1 X14.8005 Y-8.4315 Z0.0485
G1 X14.8019 Y-8.4301 Z0.0465
G1 X14.8036 Y-8.4285 Z0.045
G1 X14.8055 Y-8.4266 Z0.0441
G1 X14.8074 Y-8.4247 Z0.0438
G1 X14.8164 Y-8.4159
G3 X14.8165 Y-8.3982 I-0.0088 J0.0089
G1 X14.4724 Y-8.0488
G1 X13.9283 Y-8.5846
G1 Z0.5938
G1 X13.7502 Y-8.76
G1 Z0.0438 F30.
G1 X13.2702 Y-9.2327 F6.1
G1 X14.3276
G1 Z0.5938
G1 X14.5776
G1 Z0.0438 F30.
G1 X15.6382 F6.1
G1 X15.1734 Y-8.7607
G1 Z0.5938
G1 X14.998 Y-8.5826
G1 Z0.0438 F30.
G1 X14.8165 Y-8.3982 F6.1
G3 X14.7988 Y-8.3981 I-0.0089 J-0.0088
G1 X14.7899 Y-8.4069
G1 X14.7879 Y-8.4088 Z0.0441
G1 X14.786 Y-8.4107 Z0.045
G1 X14.7844 Y-8.4123 Z0.0465
G1 X14.7829 Y-8.4137 Z0.0485
G1 X14.7819 Y-8.4148 Z0.0508
G1 X14.7812 Y-8.4154 Z0.0535
G1 X14.781 Y-8.4156 Z0.0562
G0 Z0.325
G0 X14.7985 Y-8.4334
G1 Z0.0994 F30.
G1 Z0.04
G1 X14.7988 Y-8.4332 Z0.0372 F6.1
G1 X14.7994 Y-8.4326 Z0.0346
G1 X14.8005 Y-8.4315 Z0.0322
G1 X14.8019 Y-8.4301 Z0.0302
G1 X14.8036 Y-8.4285 Z0.0287
G1 X14.8055 Y-8.4266 Z0.0278
G1 X14.8074 Y-8.4247 Z0.0275
G1 X14.8164 Y-8.4159
G3 X14.8165 Y-8.3982 I-0.0088 J0.0089
G1 X14.4724 Y-8.0488
G1 X13.9283 Y-8.5846
G1 Z0.5938
G1 X13.7502 Y-8.76
G1 Z0.0275 F30.
G1 X13.2702 Y-9.2327 F6.1
G1 X14.3276
G1 Z0.5938
G1 X14.5776
G1 Z0.0275 F30.
G1 X15.6382 F6.1
G1 X15.1734 Y-8.7607
G1 Z0.5938
G1 X14.998 Y-8.5826
G1 Z0.0275 F30.
G1 X14.8165 Y-8.3982 F6.1
G3 X14.7988 Y-8.3981 I-0.0089 J-0.0088
G1 X14.7899 Y-8.4069
G1 X14.7879 Y-8.4088 Z0.0278
G1 X14.786 Y-8.4107 Z0.0287
G1 X14.7844 Y-8.4123 Z0.0302
G1 X14.7829 Y-8.4137 Z0.0322
G1 X14.7819 Y-8.4148 Z0.0346
G1 X14.7812 Y-8.4154 Z0.0372
G1 X14.781 Y-8.4156 Z0.04
G0 Z0.325
G0 X14.7985 Y-8.4334
G1 Z0.0831 F30.
G1 Z0.0237
G1 X14.7988 Y-8.4332 Z0.021 F6.1
G1 X14.7994 Y-8.4326 Z0.0183
G1 X14.8005 Y-8.4315 Z0.016
G1 X14.8019 Y-8.4301 Z0.014
G1 X14.8036 Y-8.4285 Z0.0125
G1 X14.8055 Y-8.4266 Z0.0116
G1 X14.8074 Y-8.4247 Z0.0113
G1 X14.8164 Y-8.4159
G3 X14.8165 Y-8.3982 I-0.0088 J0.0089
G1 X14.4724 Y-8.0488
G1 X13.9283 Y-8.5846
G1 Z0.5938
G1 X13.7502 Y-8.76
G1 Z0.0113 F30.
G1 X13.2702 Y-9.2327 F6.1
G1 X14.3276
G1 Z0.5938
G1 X14.5776
G1 Z0.0113 F30.
G1 X15.6382 F6.1
G1 X15.1734 Y-8.7607
G1 Z0.5938
G1 X14.998 Y-8.5826
G1 Z0.0113 F30.
G1 X14.8165 Y-8.3982 F6.1
G3 X14.7988 Y-8.3981 I-0.0089 J-0.0088
G1 X14.7899 Y-8.4069
G1 X14.7879 Y-8.4088 Z0.0116
G1 X14.786 Y-8.4107 Z0.0125
G1 X14.7844 Y-8.4123 Z0.014
G1 X14.7829 Y-8.4137 Z0.016
G1 X14.7819 Y-8.4148 Z0.0183
G1 X14.7812 Y-8.4154 Z0.021
G1 X14.781 Y-8.4156 Z0.0237
G0 Z0.325
G0 X14.7985 Y-8.4334
G1 Z0.0669 F30.
G1 Z0.0075
G1 X14.7988 Y-8.4332 Z0.0047 F6.1
G1 X14.7994 Y-8.4326 Z0.0021
G1 X14.8005 Y-8.4315 Z-0.0003
G1 X14.8019 Y-8.4301 Z-0.0023
G1 X14.8036 Y-8.4285 Z-0.0038
G1 X14.8055 Y-8.4266 Z-0.0047
G1 X14.8074 Y-8.4247 Z-0.005
G1 X14.8164 Y-8.4159
G3 X14.8165 Y-8.3982 I-0.0088 J0.0089
G1 X14.4724 Y-8.0488
G1 X13.9283 Y-8.5846
G1 Z0.5938
G1 X13.7502 Y-8.76
G1 Z-0.005 F30.
G1 X13.2702 Y-9.2327 F6.1
G1 X14.3276
G1 Z0.5938
G1 X14.5776
G1 Z-0.005 F30.
G1 X15.6382 F6.1
G1 X15.1734 Y-8.7607
G1 Z0.5938
G1 X14.998 Y-8.5826
G1 Z-0.005 F30.
G1 X14.8165 Y-8.3982 F6.1
G3 X14.7988 Y-8.3981 I-0.0089 J-0.0088
G1 X14.7899 Y-8.4069
G1 X14.7879 Y-8.4088 Z-0.0047
G1 X14.786 Y-8.4107 Z-0.0038
G1 X14.7844 Y-8.4123 Z-0.0023
G1 X14.7829 Y-8.4137 Z-0.0003
G1 X14.7819 Y-8.4148 Z0.0021
G1 X14.7812 Y-8.4154 Z0.0047
G1 X14.781 Y-8.4156 Z0.0075
G0 Z0.325
G0 X14.7985 Y-8.4334
G1 Z0.0506 F30.
G1 Z-0.0088
G1 X14.7988 Y-8.4332 Z-0.0115 F6.1
G1 X14.7994 Y-8.4326 Z-0.0142
G1 X14.8005 Y-8.4315 Z-0.0165
G1 X14.8019 Y-8.4301 Z-0.0185
G1 X14.8036 Y-8.4285 Z-0.02
G1 X14.8055 Y-8.4266 Z-0.0209
G1 X14.8074 Y-8.4247 Z-0.0212
G1 X14.8164 Y-8.4159
G3 X14.8165 Y-8.3982 I-0.0088 J0.0089
G1 X14.4724 Y-8.0488
G1 X13.9283 Y-8.5846
G1 Z0.5938
G1 X13.7502 Y-8.76
G1 Z-0.0212 F30.
G1 X13.2702 Y-9.2327 F6.1
G1 X14.3276
G1 Z0.5938
G1 X14.5776
G1 Z-0.0212 F30.
G1 X15.6382 F6.1
G1 X15.1734 Y-8.7607
G1 Z0.5938
G1 X14.998 Y-8.5826
G1 Z-0.0212 F30.
G1 X14.8165 Y-8.3982 F6.1
G3 X14.7988 Y-8.3981 I-0.0089 J-0.0088
G1 X14.7899 Y-8.4069
G1 X14.7879 Y-8.4088 Z-0.0209
G1 X14.786 Y-8.4107 Z-0.02
G1 X14.7844 Y-8.4123 Z-0.0185
G1 X14.7829 Y-8.4137 Z-0.0165
G1 X14.7819 Y-8.4148 Z-0.0142
G1 X14.7812 Y-8.4154 Z-0.0115
G1 X14.781 Y-8.4156 Z-0.0088
G0 Z0.325
G0 X14.7985 Y-8.4334
G1 Z0.0344 F30.
G1 Z-0.0188
G1 X14.7988 Y-8.4332 Z-0.0215 F6.1
G1 X14.7994 Y-8.4326 Z-0.0242
G1 X14.8005 Y-8.4315 Z-0.0265
G1 X14.8019 Y-8.4301 Z-0.0285
G1 X14.8036 Y-8.4285 Z-0.03
G1 X14.8055 Y-8.4266 Z-0.0309
G1 X14.8074 Y-8.4247 Z-0.0312
G1 X14.8164 Y-8.4159
G3 X14.8165 Y-8.3982 I-0.0088 J0.0089
G1 X14.4724 Y-8.0488
G1 X13.9283 Y-8.5846
G1 Z0.5938
G1 X13.7502 Y-8.76
G1 Z-0.0312 F30.
G1 X13.2702 Y-9.2327 F6.1
G1 X14.3276
G1 Z0.5938
G1 X14.5776
G1 Z-0.0312 F30.
G1 X15.6382 F6.1
G1 X15.1734 Y-8.7607
G1 Z0.5938
G1 X14.998 Y-8.5826
G1 Z-0.0312 F30.
G1 X14.8165 Y-8.3982 F6.1
G3 X14.7988 Y-8.3981 I-0.0089 J-0.0088
G1 X14.7899 Y-8.4069
G1 X14.7879 Y-8.4088 Z-0.0309
G1 X14.786 Y-8.4107 Z-0.03
G1 X14.7844 Y-8.4123 Z-0.0285
G1 X14.7829 Y-8.4137 Z-0.0265
G1 X14.7819 Y-8.4148 Z-0.0242
G1 X14.7812 Y-8.4154 Z-0.0215
G1 X14.781 Y-8.4156 Z-0.0188
G0 Z0.5938
G0 X14.8717 Y-6.9451
G1 X14.8842 Y-6.9448 F6.1
G1 X14.8967 Y-6.9445
G3 X14.9088 Y-6.9317 I-0.0003 J0.0125
G3 X14.8931 Y-6.8189 I-0.4994 J-0.0123
G1 Z0.1087 F30.
G3 X14.2845 Y-6.4603 I-0.4836 J-0.125 F6.1
G3 X13.9259 Y-6.8189 I0.125 J-0.4836
G1 Z0.5938
G3 Y-7.0689 I0.4836 J-0.125
G1 Z0.1087 F30.
G3 X14.5345 Y-7.4276 I0.4836 J0.125 F6.1
G3 X14.8931 Y-7.0689 I-0.125 J0.4836
G1 Z0.5938
G3 X14.9088 Y-6.9317 I-0.4836 J0.125
G3 X14.905 Y-6.9229 I-0.0125 J-0.0003
G3 X14.896 Y-6.9195 I-0.0086 J-0.0091
G1 X14.8711 Y-6.9201
G0 X14.8717 Y-6.9451
G1 X14.8842 Y-6.9448 F6.1
G1 X14.8967 Y-6.9445
G3 X14.9088 Y-6.9317 I-0.0003 J0.0125
G3 X14.8931 Y-6.8189 I-0.4994 J-0.0123
G1 Z0.0925 F30.
G3 X14.2845 Y-6.4603 I-0.4836 J-0.125 F6.1
G3 X13.9259 Y-6.8189 I0.125 J-0.4836
G1 Z0.5938
G3 Y-7.0689 I0.4836 J-0.125
G1 Z0.0925 F30.
G3 X14.5345 Y-7.4276 I0.4836 J0.125 F6.1
G3 X14.8931 Y-7.0689 I-0.125 J0.4836
G1 Z0.5938
G3 X14.9088 Y-6.9317 I-0.4836 J0.125
G3 X14.905 Y-6.9229 I-0.0125 J-0.0003
G3 X14.896 Y-6.9195 I-0.0086 J-0.0091
G1 X14.8711 Y-6.9201
G0 X14.8717 Y-6.9451
G1 X14.8842 Y-6.9448 F6.1
G1 X14.8967 Y-6.9445
G3 X14.9088 Y-6.9317 I-0.0003 J0.0125
G3 X14.8931 Y-6.8189 I-0.4994 J-0.0123
G1 Z0.0763 F30.
G3 X14.2845 Y-6.4603 I-0.4836 J-0.125 F6.1
G3 X13.9259 Y-6.8189 I0.125 J-0.4836
G1 Z0.5938
G3 Y-7.0689 I0.4836 J-0.125
G1 Z0.0763 F30.
G3 X14.5345 Y-7.4276 I0.4836 J0.125 F6.1
G3 X14.8931 Y-7.0689 I-0.125 J0.4836
G1 Z0.5938
G3 X14.9088 Y-6.9317 I-0.4836 J0.125
G3 X14.905 Y-6.9229 I-0.0125 J-0.0003
G3 X14.896 Y-6.9195 I-0.0086 J-0.0091
G1 X14.8711 Y-6.9201
G0 X14.8717 Y-6.9451
G1 X14.8842 Y-6.9448 F6.1
G1 X14.8967 Y-6.9445
G3 X14.9088 Y-6.9317 I-0.0003 J0.0125
G3 X14.8931 Y-6.8189 I-0.4994 J-0.0123
G1 Z0.06 F30.
G3 X14.2845 Y-6.4603 I-0.4836 J-0.125 F6.1
G3 X13.9259 Y-6.8189 I0.125 J-0.4836
G1 Z0.5938
G3 Y-7.0689 I0.4836 J-0.125
G1 Z0.06 F30.
G3 X14.5345 Y-7.4276 I0.4836 J0.125 F6.1
G3 X14.8931 Y-7.0689 I-0.125 J0.4836
G1 Z0.5938
G3 X14.9088 Y-6.9317 I-0.4836 J0.125
G3 X14.905 Y-6.9229 I-0.0125 J-0.0003
G3 X14.896 Y-6.9195 I-0.0086 J-0.0091
G1 X14.8711 Y-6.9201
G0 X14.8717 Y-6.9451
G1 X14.8842 Y-6.9448 F6.1
G1 X14.8967 Y-6.9445
G3 X14.9088 Y-6.9317 I-0.0003 J0.0125
G3 X14.8931 Y-6.8189 I-0.4994 J-0.0123
G1 Z0.0438 F30.
G3 X14.2845 Y-6.4603 I-0.4836 J-0.125 F6.1
G3 X13.9259 Y-6.8189 I0.125 J-0.4836
G1 Z0.5938
G3 Y-7.0689 I0.4836 J-0.125
G1 Z0.0438 F30.
G3 X14.5345 Y-7.4276 I0.4836 J0.125 F6.1
G3 X14.8931 Y-7.0689 I-0.125 J0.4836
G1 Z0.5938
G3 X14.9088 Y-6.9317 I-0.4836 J0.125
G3 X14.905 Y-6.9229 I-0.0125 J-0.0003
G3 X14.896 Y-6.9195 I-0.0086 J-0.0091
G1 X14.8711 Y-6.9201
G0 X14.8717 Y-6.9451
G1 X14.8842 Y-6.9448 F6.1
G1 X14.8967 Y-6.9445
G3 X14.9088 Y-6.9317 I-0.0003 J0.0125
G3 X14.8931 Y-6.8189 I-0.4994 J-0.0123
G1 Z0.0275 F30.
G3 X14.2845 Y-6.4603 I-0.4836 J-0.125 F6.1
G3 X13.9259 Y-6.8189 I0.125 J-0.4836
G1 Z0.5938
G3 Y-7.0689 I0.4836 J-0.125
G1 Z0.0275 F30.
G3 X14.5345 Y-7.4276 I0.4836 J0.125 F6.1
G3 X14.8931 Y-7.0689 I-0.125 J0.4836
G1 Z0.5938
G3 X14.9088 Y-6.9317 I-0.4836 J0.125
G3 X14.905 Y-6.9229 I-0.0125 J-0.0003
G3 X14.896 Y-6.9195 I-0.0086 J-0.0091
G1 X14.8711 Y-6.9201
G0 X14.8717 Y-6.9451
G1 X14.8842 Y-6.9448 F6.1
G1 X14.8967 Y-6.9445
G3 X14.9088 Y-6.9317 I-0.0003 J0.0125
G3 X14.8931 Y-6.8189 I-0.4994 J-0.0123
G1 Z0.0113 F30.
G3 X14.2845 Y-6.4603 I-0.4836 J-0.125 F6.1
G3 X13.9259 Y-6.8189 I0.125 J-0.4836
G1 Z0.5938
G3 Y-7.0689 I0.4836 J-0.125
G1 Z0.0113 F30.
G3 X14.5345 Y-7.4276 I0.4836 J0.125 F6.1
G3 X14.8931 Y-7.0689 I-0.125 J0.4836
G1 Z0.5938
G3 X14.9088 Y-6.9317 I-0.4836 J0.125
G3 X14.905 Y-6.9229 I-0.0125 J-0.0003
G3 X14.896 Y-6.9195 I-0.0086 J-0.0091
G1 X14.8711 Y-6.9201
G0 X14.8717 Y-6.9451
G1 X14.8842 Y-6.9448 F6.1
G1 X14.8967 Y-6.9445
G3 X14.9088 Y-6.9317 I-0.0003 J0.0125
G3 X14.8931 Y-6.8189 I-0.4994 J-0.0123
G1 Z-0.005 F30.
G3 X14.2845 Y-6.4603 I-0.4836 J-0.125 F6.1
G3 X13.9259 Y-6.8189 I0.125 J-0.4836
G1 Z0.5938
G3 Y-7.0689 I0.4836 J-0.125
G1 Z-0.005 F30.
G3 X14.5345 Y-7.4276 I0.4836 J0.125 F6.1
G3 X14.8931 Y-7.0689 I-0.125 J0.4836
G1 Z0.5938
G3 X14.9088 Y-6.9317 I-0.4836 J0.125
G3 X14.905 Y-6.9229 I-0.0125 J-0.0003
G3 X14.896 Y-6.9195 I-0.0086 J-0.0091
G1 X14.8711 Y-6.9201
G0 X14.8717 Y-6.9451
G1 X14.8842 Y-6.9448 F6.1
G1 X14.8967 Y-6.9445
G3 X14.9088 Y-6.9317 I-0.0003 J0.0125
G3 X14.8931 Y-6.8189 I-0.4994 J-0.0123
G1 Z-0.0212 F30.
G3 X14.2845 Y-6.4603 I-0.4836 J-0.125 F6.1
G3 X13.9259 Y-6.8189 I0.125 J-0.4836
G1 Z0.5938
G3 Y-7.0689 I0.4836 J-0.125
G1 Z-0.0212 F30.
G3 X14.5345 Y-7.4276 I0.4836 J0.125 F6.1
G3 X14.8931 Y-7.0689 I-0.125 J0.4836
G1 Z0.5938
G3 X14.9088 Y-6.9317 I-0.4836 J0.125
G3 X14.905 Y-6.9229 I-0.0125 J-0.0003
G3 X14.896 Y-6.9195 I-0.0086 J-0.0091
G1 X14.8711 Y-6.9201
G0 X14.8717 Y-6.9451
G1 X14.8842 Y-6.9448 F6.1
G1 X14.8967 Y-6.9445
G3 X14.9088 Y-6.9317 I-0.0003 J0.0125
G3 X14.8931 Y-6.8189 I-0.4994 J-0.0123
G1 Z-0.0312 F30.
G3 X14.2845 Y-6.4603 I-0.4836 J-0.125 F6.1
G3 X13.9259 Y-6.8189 I0.125 J-0.4836
G1 Z0.5938
G3 Y-7.0689 I0.4836 J-0.125
G1 Z-0.0312 F30.
G3 X14.5345 Y-7.4276 I0.4836 J0.125 F6.1
G3 X14.8931 Y-7.0689 I-0.125 J0.4836
G1 Z0.5938
G3 X14.9088 Y-6.9317 I-0.4836 J0.125
G3 X14.905 Y-6.9229 I-0.0125 J-0.0003
G3 X14.896 Y-6.9195 I-0.0086 J-0.0091
G1 X14.8711 Y-6.9201
G0 X13.6005 Y-7.2167
G0 Z0.325
G1 Z0.1806 F30.
G1 Z0.1212
G1 X13.6007 Y-7.2165 Z0.1185 F6.1
G1 X13.6013 Y-7.2159 Z0.1158
G1 X13.6024 Y-7.2148 Z0.1135
G1 X13.6038 Y-7.2134 Z0.1115
G1 X13.6055 Y-7.2118 Z0.11
G1 X13.6074 Y-7.2099 Z0.1091
G1 X13.6094 Y-7.208 Z0.1087
G1 X13.6183 Y-7.1992
G3 X13.622 Y-7.1904 I-0.0088 J0.0089
G3 X13.6184 Y-7.1815 I-0.0125 J0.0001
G1 X13.421 Y-6.981
G1 Z0.5938
G1 X13.2456 Y-6.8029
G1 Z0.1087 F30.
G1 X12.7593 Y-6.3091 F6.1
G1 Y-7.3937
G1 Z0.5938
G1 Y-7.6437
G1 Z0.1087 F30.
G1 Y-8.7315 F6.1
G1 X13.2449 Y-8.2534
G1 Z0.5938
G1 X13.423 Y-8.078
G1 Z0.1087 F30.
G1 X13.9704 Y-7.539 F6.1
G1 X13.6184 Y-7.1815
G3 X13.6007 Y-7.1814 I-0.0089 J-0.0088
G1 X13.5918 Y-7.1902
G1 X13.5898 Y-7.1921 Z0.1091
G1 X13.588 Y-7.194 Z0.11
G1 X13.5863 Y-7.1956 Z0.1115
G1 X13.5849 Y-7.197 Z0.1135
G1 X13.5838 Y-7.1981 Z0.1158
G1 X13.5831 Y-7.1987 Z0.1185
G1 X13.5829 Y-7.1989 Z0.1212
G0 Z0.325
G0 X13.6005 Y-7.2167
G1 Z0.1644 F30.
G1 Z0.105
G1 X13.6007 Y-7.2165 Z0.1022 F6.1
G1 X13.6013 Y-7.2159 Z0.0996
G1 X13.6024 Y-7.2148 Z0.0972
G1 X13.6038 Y-7.2134 Z0.0952
G1 X13.6055 Y-7.2118 Z0.0937
G1 X13.6074 Y-7.2099 Z0.0928
G1 X13.6094 Y-7.208 Z0.0925
G1 X13.6183 Y-7.1992
G3 X13.622 Y-7.1904 I-0.0088 J0.0089
G3 X13.6184 Y-7.1815 I-0.0125 J0.0001
G1 X13.421 Y-6.981
G1 Z0.5938
G1 X13.2456 Y-6.8029
G1 Z0.0925 F30.
G1 X12.7593 Y-6.3091 F6.1
G1 Y-7.3937
G1 Z0.5938
G1 Y-7.6437
G1 Z0.0925 F30.
G1 Y-8.7315 F6.1
G1 X13.2449 Y-8.2534
G1 Z0.5938
G1 X13.423 Y-8.078
G1 Z0.0925 F30.
G1 X13.9704 Y-7.539 F6.1
G1 X13.6184 Y-7.1815
G3 X13.6007 Y-7.1814 I-0.0089 J-0.0088
G1 X13.5918 Y-7.1902
G1 X13.5898 Y-7.1921 Z0.0928
G1 X13.588 Y-7.194 Z0.0937
G1 X13.5863 Y-7.1956 Z0.0952
G1 X13.5849 Y-7.197 Z0.0972
G1 X13.5838 Y-7.1981 Z0.0996
G1 X13.5831 Y-7.1987 Z0.1022
G1 X13.5829 Y-7.1989 Z0.105
G0 Z0.325
G0 X13.6005 Y-7.2167
G1 Z0.1481 F30.
G1 Z0.0887
G1 X13.6007 Y-7.2165 Z0.086 F6.1
G1 X13.6013 Y-7.2159 Z0.0833
G1 X13.6024 Y-7.2148 Z0.081
G1 X13.6038 Y-7.2134 Z0.079
G1 X13.6055 Y-7.2118 Z0.0775
G1 X13.6074 Y-7.2099 Z0.0766
G1 X13.6094 Y-7.208 Z0.0763
G1 X13.6183 Y-7.1992
G3 X13.622 Y-7.1904 I-0.0088 J0.0089
G3 X13.6184 Y-7.1815 I-0.0125 J0.0001
G1 X13.421 Y-6.981
G1 Z0.5938
G1 X13.2456 Y-6.8029
G1 Z0.0763 F30.
G1 X12.7593 Y-6.3091 F6.1
G1 Y-7.3937
G1 Z0.5938
G1 Y-7.6437
G1 Z0.0763 F30.
G1 Y-8.7315 F6.1
G1 X13.2449 Y-8.2534
G1 Z0.5938
G1 X13.423 Y-8.078
G1 Z0.0763 F30.
G1 X13.9704 Y-7.539 F6.1
G1 X13.6184 Y-7.1815
G3 X13.6007 Y-7.1814 I-0.0089 J-0.0088
G1 X13.5918 Y-7.1902
G1 X13.5898 Y-7.1921 Z0.0766
G1 X13.588 Y-7.194 Z0.0775
G1 X13.5863 Y-7.1956 Z0.079
G1 X13.5849 Y-7.197 Z0.081
G1 X13.5838 Y-7.1981 Z0.0833
G1 X13.5831 Y-7.1987 Z0.086
G1 X13.5829 Y-7.1989 Z0.0887
G0 Z0.325
G0 X13.6005 Y-7.2167
G1 Z0.1319 F30.
G1 Z0.0725
G1 X13.6007 Y-7.2165 Z0.0697 F6.1
G1 X13.6013 Y-7.2159 Z0.0671
G1 X13.6024 Y-7.2148 Z0.0647
G1 X13.6038 Y-7.2134 Z0.0627
G1 X13.6055 Y-7.2118 Z0.0612
G1 X13.6074 Y-7.2099 Z0.0603
G1 X13.6094 Y-7.208 Z0.06
G1 X13.6183 Y-7.1992
G3 X13.622 Y-7.1904 I-0.0088 J0.0089
G3 X13.6184 Y-7.1815 I-0.0125 J0.0001
G1 X13.421 Y-6.981
G1 Z0.5938
G1 X13.2456 Y-6.8029
G1 Z0.06 F30.
G1 X12.7593 Y-6.3091 F6.1
G1 Y-7.3937
G1 Z0.5938
G1 Y-7.6437
G1 Z0.06 F30.
G1 Y-8.7315 F6.1
G1 X13.2449 Y-8.2534
G1 Z0.5938
G1 X13.423 Y-8.078
G1 Z0.06 F30.
G1 X13.9704 Y-7.539 F6.1
G1 X13.6184 Y-7.1815
G3 X13.6007 Y-7.1814 I-0.0089 J-0.0088
G1 X13.5918 Y-7.1902
G1 X13.5898 Y-7.1921 Z0.0603
G1 X13.588 Y-7.194 Z0.0612
G1 X13.5863 Y-7.1956 Z0.0627
G1 X13.5849 Y-7.197 Z0.0647
G1 X13.5838 Y-7.1981 Z0.0671
G1 X13.5831 Y-7.1987 Z0.0697
G1 X13.5829 Y-7.1989 Z0.0725
G0 Z0.325
G0 X13.6005 Y-7.2167
G1 Z0.1156 F30.
G1 Z0.0562
G1 X13.6007 Y-7.2165 Z0.0535 F6.1
G1 X13.6013 Y-7.2159 Z0.0508
G1 X13.6024 Y-7.2148 Z0.0485
G1 X13.6038 Y-7.2134 Z0.0465
G1 X13.6055 Y-7.2118 Z0.045
G1 X13.6074 Y-7.2099 Z0.0441
G1 X13.6094 Y-7.208 Z0.0438
G1 X13.6183 Y-7.1992
G3 X13.622 Y-7.1904 I-0.0088 J0.0089
G3 X13.6184 Y-7.1815 I-0.0125 J0.0001
G1 X13.421 Y-6.981
G1 Z0.5938
G1 X13.2456 Y-6.8029
G1 Z0.0438 F30.
G1 X12.7593 Y-6.3091 F6.1
G1 Y-7.3937
G1 Z0.5938
G1 Y-7.6437
G1 Z0.0438 F30.
G1 Y-8.7315 F6.1
G1 X13.2449 Y-8.2534
G1 Z0.5938
G1 X13.423 Y-8.078
G1 Z0.0438 F30.
G1 X13.9704 Y-7.539 F6.1
G1 X13.6184 Y-7.1815
G3 X13.6007 Y-7.1814 I-0.0089 J-0.0088
G1 X13.5918 Y-7.1902
G1 X13.5898 Y-7.1921 Z0.0441
G1 X13.588 Y-7.194 Z0.045
G1 X13.5863 Y-7.1956 Z0.0465
G1 X13.5849 Y-7.197 Z0.0485
G1 X13.5838 Y-7.1981 Z0.0508
G1 X13.5831 Y-7.1987 Z0.0535
G1 X13.5829 Y-7.1989 Z0.0562
G0 Z0.325
G0 X13.6005 Y-7.2167
G1 Z0.0994 F30.
G1 Z0.04
G1 X13.6007 Y-7.2165 Z0.0372 F6.1
G1 X13.6013 Y-7.2159 Z0.0346
G1 X13.6024 Y-7.2148 Z0.0322
G1 X13.6038 Y-7.2134 Z0.0302
G1 X13.6055 Y-7.2118 Z0.0287
G1 X13.6074 Y-7.2099 Z0.0278
G1 X13.6094 Y-7.208 Z0.0275
G1 X13.6183 Y-7.1992
G3 X13.622 Y-7.1904 I-0.0088 J0.0089
G3 X13.6184 Y-7.1815 I-0.0125 J0.0001
G1 X13.421 Y-6.981
G1 Z0.5938
G1 X13.2456 Y-6.8029
G1 Z0.0275 F30.
G1 X12.7593 Y-6.3091 F6.1
G1 Y-7.3937
G1 Z0.5938
G1 Y-7.6437
G1 Z0.0275 F30.
G1 Y-8.7315 F6.1
G1 X13.2449 Y-8.2534
G1 Z0.5938
G1 X13.423 Y-8.078
G1 Z0.0275 F30.
G1 X13.9704 Y-7.539 F6.1
G1 X13.6184 Y-7.1815
G3 X13.6007 Y-7.1814 I-0.0089 J-0.0088
G1 X13.5918 Y-7.1902
G1 X13.5898 Y-7.1921 Z0.0278
G1 X13.588 Y-7.194 Z0.0287
G1 X13.5863 Y-7.1956 Z0.0302
G1 X13.5849 Y-7.197 Z0.0322
G1 X13.5838 Y-7.1981 Z0.0346
G1 X13.5831 Y-7.1987 Z0.0372
G1 X13.5829 Y-7.1989 Z0.04
G0 Z0.325
G0 X13.6005 Y-7.2167
G1 Z0.0831 F30.
G1 Z0.0237
G1 X13.6007 Y-7.2165 Z0.021 F6.1
G1 X13.6013 Y-7.2159 Z0.0183
G1 X13.6024 Y-7.2148 Z0.016
G1 X13.6038 Y-7.2134 Z0.014
G1 X13.6055 Y-7.2118 Z0.0125
G1 X13.6074 Y-7.2099 Z0.0116
G1 X13.6094 Y-7.208 Z0.0113
G1 X13.6183 Y-7.1992
G3 X13.622 Y-7.1904 I-0.0088 J0.0089
G3 X13.6184 Y-7.1815 I-0.0125 J0.0001
G1 X13.421 Y-6.981
G1 Z0.5938
G1 X13.2456 Y-6.8029
G1 Z0.0113 F30.
G1 X12.7593 Y-6.3091 F6.1
G1 Y-7.3937
G1 Z0.5938
G1 Y-7.6437
G1 Z0.0113 F30.
G1 Y-8.7315 F6.1
G1 X13.2449 Y-8.2534
G1 Z0.5938
G1 X13.423 Y-8.078
G1 Z0.0113 F30.
G1 X13.9704 Y-7.539 F6.1
G1 X13.6184 Y-7.1815
G3 X13.6007 Y-7.1814 I-0.0089 J-0.0088
G1 X13.5918 Y-7.1902
G1 X13.5898 Y-7.1921 Z0.0116
G1 X13.588 Y-7.194 Z0.0125
G1 X13.5863 Y-7.1956 Z0.014
G1 X13.5849 Y-7.197 Z0.016
G1 X13.5838 Y-7.1981 Z0.0183
G1 X13.5831 Y-7.1987 Z0.021
G1 X13.5829 Y-7.1989 Z0.0237
G0 Z0.325
G0 X13.6005 Y-7.2167
G1 Z0.0669 F30.
G1 Z0.0075
G1 X13.6007 Y-7.2165 Z0.0047 F6.1
G1 X13.6013 Y-7.2159 Z0.0021
G1 X13.6024 Y-7.2148 Z-0.0003
G1 X13.6038 Y-7.2134 Z-0.0023
G1 X13.6055 Y-7.2118 Z-0.0038
G1 X13.6074 Y-7.2099 Z-0.0047
G1 X13.6094 Y-7.208 Z-0.005
G1 X13.6183 Y-7.1992
G3 X13.622 Y-7.1904 I-0.0088 J0.0089
G3 X13.6184 Y-7.1815 I-0.0125 J0.0001
G1 X13.421 Y-6.981
G1 Z0.5938
G1 X13.2456 Y-6.8029
G1 Z-0.005 F30.
G1 X12.7593 Y-6.3091 F6.1
G1 Y-7.3937
G1 Z0.5938
G1 Y-7.6437
G1 Z-0.005 F30.
G1 Y-8.7315 F6.1
G1 X13.2449 Y-8.2534
G1 Z0.5938
G1 X13.423 Y-8.078
G1 Z-0.005 F30.
G1 X13.9704 Y-7.539 F6.1
G1 X13.6184 Y-7.1815
G3 X13.6007 Y-7.1814 I-0.0089 J-0.0088
G1 X13.5918 Y-7.1902
G1 X13.5898 Y-7.1921 Z-0.0047
G1 X13.588 Y-7.194 Z-0.0038
G1 X13.5863 Y-7.1956 Z-0.0023
G1 X13.5849 Y-7.197 Z-0.0003
G1 X13.5838 Y-7.1981 Z0.0021
G1 X13.5831 Y-7.1987 Z0.0047
G1 X13.5829 Y-7.1989 Z0.0075
G0 Z0.325
G0 X13.6005 Y-7.2167
G1 Z0.0506 F30.
G1 Z-0.0088
G1 X13.6007 Y-7.2165 Z-0.0115 F6.1
G1 X13.6013 Y-7.2159 Z-0.0142
G1 X13.6024 Y-7.2148 Z-0.0165
G1 X13.6038 Y-7.2134 Z-0.0185
G1 X13.6055 Y-7.2118 Z-0.02
G1 X13.6074 Y-7.2099 Z-0.0209
G1 X13.6094 Y-7.208 Z-0.0212
G1 X13.6183 Y-7.1992
G3 X13.622 Y-7.1904 I-0.0088 J0.0089
G3 X13.6184 Y-7.1815 I-0.0125 J0.0001
G1 X13.421 Y-6.981
G1 Z0.5938
G1 X13.2456 Y-6.8029
G1 Z-0.0212 F30.
G1 X12.7593 Y-6.3091 F6.1
G1 Y-7.3937
G1 Z0.5938
G1 Y-7.6437
G1 Z-0.0212 F30.
G1 Y-8.7315 F6.1
G1 X13.2449 Y-8.2534
G1 Z0.5938
G1 X13.423 Y-8.078
G1 Z-0.0212 F30.
G1 X13.9704 Y-7.539 F6.1
G1 X13.6184 Y-7.1815
G3 X13.6007 Y-7.1814 I-0.0089 J-0.0088
G1 X13.5918 Y-7.1902
G1 X13.5898 Y-7.1921 Z-0.0209
G1 X13.588 Y-7.194 Z-0.02
G1 X13.5863 Y-7.1956 Z-0.0185
G1 X13.5849 Y-7.197 Z-0.0165
G1 X13.5838 Y-7.1981 Z-0.0142
G1 X13.5831 Y-7.1987 Z-0.0115
G1 X13.5829 Y-7.1989 Z-0.0088
G0 Z0.325
G0 X13.6005 Y-7.2167
G1 Z0.0344 F30.
G1 Z-0.0188
G1 X13.6007 Y-7.2165 Z-0.0215 F6.1
G1 X13.6013 Y-7.2159 Z-0.0242
G1 X13.6024 Y-7.2148 Z-0.0265
G1 X13.6038 Y-7.2134 Z-0.0285
G1 X13.6055 Y-7.2118 Z-0.03
G1 X13.6074 Y-7.2099 Z-0.0309
G1 X13.6094 Y-7.208 Z-0.0312
G1 X13.6183 Y-7.1992
G3 X13.622 Y-7.1904 I-0.0088 J0.0089
G3 X13.6184 Y-7.1815 I-0.0125 J0.0001
G1 X13.421 Y-6.981
G1 Z0.5938
G1 X13.2456 Y-6.8029
G1 Z-0.0312 F30.
G1 X12.7593 Y-6.3091 F6.1
G1 Y-7.3937
G1 Z0.5938
G1 Y-7.6437
G1 Z-0.0312 F30.
G1 Y-8.7315 F6.1
G1 X13.2449 Y-8.2534
G1 Z0.5938
G1 X13.423 Y-8.078
G1 Z-0.0312 F30.
G1 X13.9704 Y-7.539 F6.1
G1 X13.6184 Y-7.1815
G3 X13.6007 Y-7.1814 I-0.0089 J-0.0088
G1 X13.5918 Y-7.1902
G1 X13.5898 Y-7.1921 Z-0.0309
G1 X13.588 Y-7.194 Z-0.03
G1 X13.5863 Y-7.1956 Z-0.0285
G1 X13.5849 Y-7.197 Z-0.0265
G1 X13.5838 Y-7.1981 Z-0.0242
G1 X13.5831 Y-7.1987 Z-0.0215
G1 X13.5829 Y-7.1989 Z-0.0188
G0 Z0.5938
G0 X12.3714 Y-8.5312
G1 X12.3839 F6.1
G1 X12.3964
G3 X12.4089 Y-8.5187 I0 J0.0125
G3 X12.393 Y-8.3937 I-0.4995 J0
G1 Z0.1087 F30.
G3 X11.7844 Y-8.0351 I-0.4836 J-0.125 F6.1
G3 X11.4258 Y-8.3937 I0.125 J-0.4836
G1 Z0.5938
G3 Y-8.6437 I0.4836 J-0.125
G1 Z0.1087 F30.
G3 X12.0344 Y-9.0024 I0.4836 J0.125 F6.1
G3 X12.393 Y-8.6437 I-0.125 J0.4836
G1 Z0.5938
G3 X12.4089 Y-8.5187 I-0.4836 J0.125
G3 X12.3964 Y-8.5062 I-0.0125 J0
G1 X12.3714
G0 Y-8.5312
G1 X12.3839 F6.1
G1 X12.3964
G3 X12.4089 Y-8.5187 I0 J0.0125
G3 X12.393 Y-8.3937 I-0.4995 J0
G1 Z0.0925 F30.
G3 X11.7844 Y-8.0351 I-0.4836 J-0.125 F6.1
G3 X11.4258 Y-8.3937 I0.125 J-0.4836
G1 Z0.5938
G3 Y-8.6437 I0.4836 J-0.125
G1 Z0.0925 F30.
G3 X12.0344 Y-9.0024 I0.4836 J0.125 F6.1
G3 X12.393 Y-8.6437 I-0.125 J0.4836
G1 Z0.5938
G3 X12.4089 Y-8.5187 I-0.4836 J0.125
G3 X12.3964 Y-8.5062 I-0.0125 J0
G1 X12.3714
G0 Y-8.5312
G1 X12.3839 F6.1
G1 X12.3964
G3 X12.4089 Y-8.5187 I0 J0.0125
G3 X12.393 Y-8.3937 I-0.4995 J0
G1 Z0.0763 F30.
G3 X11.7844 Y-8.0351 I-0.4836 J-0.125 F6.1
G3 X11.4258 Y-8.3937 I0.125 J-0.4836
G1 Z0.5938
G3 Y-8.6437 I0.4836 J-0.125
G1 Z0.0763 F30.
G3 X12.0344 Y-9.0024 I0.4836 J0.125 F6.1
G3 X12.393 Y-8.6437 I-0.125 J0.4836
G1 Z0.5938
G3 X12.4089 Y-8.5187 I-0.4836 J0.125
G3 X12.3964 Y-8.5062 I-0.0125 J0
G1 X12.3714
G0 Y-8.5312
G1 X12.3839 F6.1
G1 X12.3964
G3 X12.4089 Y-8.5187 I0 J0.0125
G3 X12.393 Y-8.3937 I-0.4995 J0
G1 Z0.06 F30.
G3 X11.7844 Y-8.0351 I-0.4836 J-0.125 F6.1
G3 X11.4258 Y-8.3937 I0.125 J-0.4836
G1 Z0.5938
G3 Y-8.6437 I0.4836 J-0.125
G1 Z0.06 F30.
G3 X12.0344 Y-9.0024 I0.4836 J0.125 F6.1
G3 X12.393 Y-8.6437 I-0.125 J0.4836
G1 Z0.5938
G3 X12.4089 Y-8.5187 I-0.4836 J0.125
G3 X12.3964 Y-8.5062 I-0.0125 J0
G1 X12.3714
G0 Y-8.5312
G1 X12.3839 F6.1
G1 X12.3964
G3 X12.4089 Y-8.5187 I0 J0.0125
G3 X12.393 Y-8.3937 I-0.4995 J0
G1 Z0.0438 F30.
G3 X11.7844 Y-8.0351 I-0.4836 J-0.125 F6.1
G3 X11.4258 Y-8.3937 I0.125 J-0.4836
G1 Z0.5938
G3 Y-8.6437 I0.4836 J-0.125
G1 Z0.0438 F30.
G3 X12.0344 Y-9.0024 I0.4836 J0.125 F6.1
G3 X12.393 Y-8.6437 I-0.125 J0.4836
G1 Z0.5938
G3 X12.4089 Y-8.5187 I-0.4836 J0.125
G3 X12.3964 Y-8.5062 I-0.0125 J0
G1 X12.3714
G0 Y-8.5312
G1 X12.3839 F6.1
G1 X12.3964
G3 X12.4089 Y-8.5187 I0 J0.0125
G3 X12.393 Y-8.3937 I-0.4995 J0
G1 Z0.0275 F30.
G3 X11.7844 Y-8.0351 I-0.4836 J-0.125 F6.1
G3 X11.4258 Y-8.3937 I0.125 J-0.4836
G1 Z0.5938
G3 Y-8.6437 I0.4836 J-0.125
G1 Z0.0275 F30.
G3 X12.0344 Y-9.0024 I0.4836 J0.125 F6.1
G3 X12.393 Y-8.6437 I-0.125 J0.4836
G1 Z0.5938
G3 X12.4089 Y-8.5187 I-0.4836 J0.125
G3 X12.3964 Y-8.5062 I-0.0125 J0
G1 X12.3714
G0 Y-8.5312
G1 X12.3839 F6.1
G1 X12.3964
G3 X12.4089 Y-8.5187 I0 J0.0125
G3 X12.393 Y-8.3937 I-0.4995 J0
G1 Z0.0113 F30.
G3 X11.7844 Y-8.0351 I-0.4836 J-0.125 F6.1
G3 X11.4258 Y-8.3937 I0.125 J-0.4836
G1 Z0.5938
G3 Y-8.6437 I0.4836 J-0.125
G1 Z0.0113 F30.
G3 X12.0344 Y-9.0024 I0.4836 J0.125 F6.1
G3 X12.393 Y-8.6437 I-0.125 J0.4836
G1 Z0.5938
G3 X12.4089 Y-8.5187 I-0.4836 J0.125
G3 X12.3964 Y-8.5062 I-0.0125 J0
G1 X12.3714
G0 Y-8.5312
G1 X12.3839 F6.1
G1 X12.3964
G3 X12.4089 Y-8.5187 I0 J0.0125
G3 X12.393 Y-8.3937 I-0.4995 J0
G1 Z-0.005 F30.
G3 X11.7844 Y-8.0351 I-0.4836 J-0.125 F6.1
G3 X11.4258 Y-8.3937 I0.125 J-0.4836
G1 Z0.5938
G3 Y-8.6437 I0.4836 J-0.125
G1 Z-0.005 F30.
G3 X12.0344 Y-9.0024 I0.4836 J0.125 F6.1
G3 X12.393 Y-8.6437 I-0.125 J0.4836
G1 Z0.5938
G3 X12.4089 Y-8.5187 I-0.4836 J0.125
G3 X12.3964 Y-8.5062 I-0.0125 J0
G1 X12.3714
G0 Y-8.5312
G1 X12.3839 F6.1
G1 X12.3964
G3 X12.4089 Y-8.5187 I0 J0.0125
G3 X12.393 Y-8.3937 I-0.4995 J0
G1 Z-0.0212 F30.
G3 X11.7844 Y-8.0351 I-0.4836 J-0.125 F6.1
G3 X11.4258 Y-8.3937 I0.125 J-0.4836
G1 Z0.5938
G3 Y-8.6437 I0.4836 J-0.125
G1 Z-0.0212 F30.
G3 X12.0344 Y-9.0024 I0.4836 J0.125 F6.1
G3 X12.393 Y-8.6437 I-0.125 J0.4836
G1 Z0.5938
G3 X12.4089 Y-8.5187 I-0.4836 J0.125
G3 X12.3964 Y-8.5062 I-0.0125 J0
G1 X12.3714
G0 Y-8.5312
G1 X12.3839 F6.1
G1 X12.3964
G3 X12.4089 Y-8.5187 I0 J0.0125
G3 X12.393 Y-8.3937 I-0.4995 J0
G1 Z-0.0312 F30.
G3 X11.7844 Y-8.0351 I-0.4836 J-0.125 F6.1
G3 X11.4258 Y-8.3937 I0.125 J-0.4836
G1 Z0.5938
G3 Y-8.6437 I0.4836 J-0.125
G1 Z-0.0312 F30.
G3 X12.0344 Y-9.0024 I0.4836 J0.125 F6.1
G3 X12.393 Y-8.6437 I-0.125 J0.4836
G1 Z0.5938
G3 X12.4089 Y-8.5187 I-0.4836 J0.125
G3 X12.3964 Y-8.5062 I-0.0125 J0
G1 X12.3714
G0 X10.0257 Y-8.1822
G1 X10.0345 Y-8.1734 F6.1
G1 X10.0434 Y-8.1646
G3 Y-8.1469 I-0.0088 J0.0088
G1 X9.955 Y-8.0585
G1 Z0.1087 F30.
G1 X8.9576 Y-7.0611 F6.1
G1 Y-7.8961
G1 Z0.5938
G1 Y-8.1461
G1 Z0.1087 F30.
G1 Y-9.1062 F6.1
G1 X9.0841 Y-9.2327
G1 X10.0441
G1 Z0.5938
G1 X10.2941
G1 Z0.1087 F30.
G1 X11.1292 F6.1
G1 X10.1318 Y-8.2353
G1 Z0.5938
G1 X10.0434 Y-8.1469
G3 X10.0345 Y-8.1432 I-0.0088 J-0.0088
G3 X10.0257 Y-8.1469 I0 J-0.0125
G1 X10.008 Y-8.1646
G0 X10.0257 Y-8.1822
G1 X10.0345 Y-8.1734 F6.1
G1 X10.0434 Y-8.1646
G3 Y-8.1469 I-0.0088 J0.0088
G1 X9.955 Y-8.0585
G1 Z0.0925 F30.
G1 X8.9576 Y-7.0611 F6.1
G1 Y-7.8961
G1 Z0.5938
G1 Y-8.1461
G1 Z0.0925 F30.
G1 Y-9.1062 F6.1
G1 X9.0841 Y-9.2327
G1 X10.0441
G1 Z0.5938
G1 X10.2941
G1 Z0.0925 F30.
G1 X11.1292 F6.1
G1 X10.1318 Y-8.2353
G1 Z0.5938
G1 X10.0434 Y-8.1469
G3 X10.0345 Y-8.1432 I-0.0088 J-0.0088
G3 X10.0257 Y-8.1469 I0 J-0.0125
G1 X10.008 Y-8.1646
G0 X10.0257 Y-8.1822
G1 X10.0345 Y-8.1734 F6.1
G1 X10.0434 Y-8.1646
G3 Y-8.1469 I-0.0088 J0.0088
G1 X9.955 Y-8.0585
G1 Z0.0763 F30.
G1 X8.9576 Y-7.0611 F6.1
G1 Y-7.8961
G1 Z0.5938
G1 Y-8.1461
G1 Z0.0763 F30.
G1 Y-9.1062 F6.1
G1 X9.0841 Y-9.2327
G1 X10.0441
G1 Z0.5938
G1 X10.2941
G1 Z0.0763 F30.
G1 X11.1292 F6.1
G1 X10.1318 Y-8.2353
G1 Z0.5938
G1 X10.0434 Y-8.1469
G3 X10.0345 Y-8.1432 I-0.0088 J-0.0088
G3 X10.0257 Y-8.1469 I0 J-0.0125
G1 X10.008 Y-8.1646
G0 X10.0257 Y-8.1822
G1 X10.0345 Y-8.1734 F6.1
G1 X10.0434 Y-8.1646
G3 Y-8.1469 I-0.0088 J0.0088
G1 X9.955 Y-8.0585
G1 Z0.06 F30.
G1 X8.9576 Y-7.0611 F6.1
G1 Y-7.8961
G1 Z0.5938
G1 Y-8.1461
G1 Z0.06 F30.
G1 Y-9.1062 F6.1
G1 X9.0841 Y-9.2327
G1 X10.0441
G1 Z0.5938
G1 X10.2941
G1 Z0.06 F30.
G1 X11.1292 F6.1
G1 X10.1318 Y-8.2353
G1 Z0.5938
G1 X10.0434 Y-8.1469
G3 X10.0345 Y-8.1432 I-0.0088 J-0.0088
G3 X10.0257 Y-8.1469 I0 J-0.0125
G1 X10.008 Y-8.1646
G0 X10.0257 Y-8.1822
G1 X10.0345 Y-8.1734 F6.1
G1 X10.0434 Y-8.1646
G3 Y-8.1469 I-0.0088 J0.0088
G1 X9.955 Y-8.0585
G1 Z0.0438 F30.
G1 X8.9576 Y-7.0611 F6.1
G1 Y-7.8961
G1 Z0.5938
G1 Y-8.1461
G1 Z0.0438 F30.
G1 Y-9.1062 F6.1
G1 X9.0841 Y-9.2327
G1 X10.0441
G1 Z0.5938
G1 X10.2941
G1 Z0.0438 F30.
G1 X11.1292 F6.1
G1 X10.1318 Y-8.2353
G1 Z0.5938
G1 X10.0434 Y-8.1469
G3 X10.0345 Y-8.1432 I-0.0088 J-0.0088
G3 X10.0257 Y-8.1469 I0 J-0.0125
G1 X10.008 Y-8.1646
G0 X10.0257 Y-8.1822
G1 X10.0345 Y-8.1734 F6.1
G1 X10.0434 Y-8.1646
G3 Y-8.1469 I-0.0088 J0.0088
G1 X9.955 Y-8.0585
G1 Z0.0275 F30.
G1 X8.9576 Y-7.0611 F6.1
G1 Y-7.8961
G1 Z0.5938
G1 Y-8.1461
G1 Z0.0275 F30.
G1 Y-9.1062 F6.1
G1 X9.0841 Y-9.2327
G1 X10.0441
G1 Z0.5938
G1 X10.2941
G1 Z0.0275 F30.
G1 X11.1292 F6.1
G1 X10.1318 Y-8.2353
G1 Z0.5938
G1 X10.0434 Y-8.1469
G3 X10.0345 Y-8.1432 I-0.0088 J-0.0088
G3 X10.0257 Y-8.1469 I0 J-0.0125
G1 X10.008 Y-8.1646
G0 X10.0257 Y-8.1822
G1 X10.0345 Y-8.1734 F6.1
G1 X10.0434 Y-8.1646
G3 Y-8.1469 I-0.0088 J0.0088
G1 X9.955 Y-8.0585
G1 Z0.0113 F30.
G1 X8.9576 Y-7.0611 F6.1
G1 Y-7.8961
G1 Z0.5938
G1 Y-8.1461
G1 Z0.0113 F30.
G1 Y-9.1062 F6.1
G1 X9.0841 Y-9.2327
G1 X10.0441
G1 Z0.5938
G1 X10.2941
G1 Z0.0113 F30.
G1 X11.1292 F6.1
G1 X10.1318 Y-8.2353
G1 Z0.5938
G1 X10.0434 Y-8.1469
G3 X10.0345 Y-8.1432 I-0.0088 J-0.0088
G3 X10.0257 Y-8.1469 I0 J-0.0125
G1 X10.008 Y-8.1646
G0 X10.0257 Y-8.1822
G1 X10.0345 Y-8.1734 F6.1
G1 X10.0434 Y-8.1646
G3 Y-8.1469 I-0.0088 J0.0088
G1 X9.955 Y-8.0585
G1 Z-0.005 F30.
G1 X8.9576 Y-7.0611 F6.1
G1 Y-7.8961
G1 Z0.5938
G1 Y-8.1461
G1 Z-0.005 F30.
G1 Y-9.1062 F6.1
G1 X9.0841 Y-9.2327
G1 X10.0441
G1 Z0.5938
G1 X10.2941
G1 Z-0.005 F30.
G1 X11.1292 F6.1
G1 X10.1318 Y-8.2353
G1 Z0.5938
G1 X10.0434 Y-8.1469
G3 X10.0345 Y-8.1432 I-0.0088 J-0.0088
G3 X10.0257 Y-8.1469 I0 J-0.0125
G1 X10.008 Y-8.1646
G0 X10.0257 Y-8.1822
G1 X10.0345 Y-8.1734 F6.1
G1 X10.0434 Y-8.1646
G3 Y-8.1469 I-0.0088 J0.0088
G1 X9.955 Y-8.0585
G1 Z-0.0212 F30.
G1 X8.9576 Y-7.0611 F6.1
G1 Y-7.8961
G1 Z0.5938
G1 Y-8.1461
G1 Z-0.0212 F30.
G1 Y-9.1062 F6.1
G1 X9.0841 Y-9.2327
G1 X10.0441
G1 Z0.5938
G1 X10.2941
G1 Z-0.0212 F30.
G1 X11.1292 F6.1
G1 X10.1318 Y-8.2353
G1 Z0.5938
G1 X10.0434 Y-8.1469
G3 X10.0345 Y-8.1432 I-0.0088 J-0.0088
G3 X10.0257 Y-8.1469 I0 J-0.0125
G1 X10.008 Y-8.1646
G0 X10.0257 Y-8.1822
G1 X10.0345 Y-8.1734 F6.1
G1 X10.0434 Y-8.1646
G3 Y-8.1469 I-0.0088 J0.0088
G1 X9.955 Y-8.0585
G1 Z-0.0312 F30.
G1 X8.9576 Y-7.0611 F6.1
G1 Y-7.8961
G1 Z0.5938
G1 Y-8.1461
G1 Z-0.0312 F30.
G1 Y-9.1062 F6.1
G1 X9.0841 Y-9.2327
G1 X10.0441
G1 Z0.5938
G1 X10.2941
G1 Z-0.0312 F30.
G1 X11.1292 F6.1
G1 X10.1318 Y-8.2353
G1 Z0.5938
G1 X10.0434 Y-8.1469
G3 X10.0345 Y-8.1432 I-0.0088 J-0.0088
G3 X10.0257 Y-8.1469 I0 J-0.0125
G1 X10.008 Y-8.1646
G0 X8.2046 Y-6.8676
G0 Z0.325
G1 Z0.1806 F30.
G1 Z0.1212
G1 X8.2049 Z0.1185 F6.1
G1 X8.2058 Z0.1158
G1 X8.2073 Z0.1135
G1 X8.2093 Z0.1115
G1 X8.2116 Z0.11
G1 X8.2143 Z0.1091
G1 X8.2171 Z0.1087
G1 X8.2296
G3 X8.2421 Y-6.8551 I0 J0.0125
G1 Y-6.3456
G1 X8.1155 Y-6.219
G1 X7.1555
G1 Z0.5938
G1 X6.9055
G1 Z0.1087 F30.
G1 X6.0705 F6.1
G1 X7.0679 Y-7.2164
G1 Z0.5938
G1 X7.2447 Y-7.3932
G1 Z0.1087 F30.
G1 X8.2421 Y-8.3906 F6.1
G1 Y-7.5556
G1 Z0.5938
G1 Y-7.3056
G1 Z0.1087 F30.
G1 Y-6.8551 F6.1
G3 X8.2296 Y-6.8426 I-0.0125 J0
G1 X8.2171
G1 X8.2143 Z0.1091
G1 X8.2116 Z0.11
G1 X8.2093 Z0.1115
G1 X8.2073 Z0.1135
G1 X8.2058 Z0.1158
G1 X8.2049 Z0.1185
G1 X8.2046 Z0.1212
G0 Z0.325
G0 Y-6.8676
G1 Z0.1644 F30.
G1 Z0.105
G1 X8.2049 Z0.1022 F6.1
G1 X8.2058 Z0.0996
G1 X8.2073 Z0.0972
G1 X8.2093 Z0.0952
G1 X8.2116 Z0.0937
G1 X8.2143 Z0.0928
G1 X8.2171 Z0.0925
G1 X8.2296
G3 X8.2421 Y-6.8551 I0 J0.0125
G1 Y-6.3456
G1 X8.1155 Y-6.219
G1 X7.1555
G1 Z0.5938
G1 X6.9055
G1 Z0.0925 F30.
G1 X6.0705 F6.1
G1 X7.0679 Y-7.2164
G1 Z0.5938
G1 X7.2447 Y-7.3932
G1 Z0.0925 F30.
G1 X8.2421 Y-8.3906 F6.1
G1 Y-7.5556
G1 Z0.5938
G1 Y-7.3056
G1 Z0.0925 F30.
G1 Y-6.8551 F6.1
G3 X8.2296 Y-6.8426 I-0.0125 J0
G1 X8.2171
G1 X8.2143 Z0.0928
G1 X8.2116 Z0.0937
G1 X8.2093 Z0.0952
G1 X8.2073 Z0.0972
G1 X8.2058 Z0.0996
G1 X8.2049 Z0.1022
G1 X8.2046 Z0.105
G0 Z0.325
G0 Y-6.8676
G1 Z0.1481 F30.
G1 Z0.0887
G1 X8.2049 Z0.086 F6.1
G1 X8.2058 Z0.0833
G1 X8.2073 Z0.081
G1 X8.2093 Z0.079
G1 X8.2116 Z0.0775
G1 X8.2143 Z0.0766
G1 X8.2171 Z0.0763
G1 X8.2296
G3 X8.2421 Y-6.8551 I0 J0.0125
G1 Y-6.3456
G1 X8.1155 Y-6.219
G1 X7.1555
G1 Z0.5938
G1 X6.9055
G1 Z0.0763 F30.
G1 X6.0705 F6.1
G1 X7.0679 Y-7.2164
G1 Z0.5938
G1 X7.2447 Y-7.3932
G1 Z0.0763 F30.
G1 X8.2421 Y-8.3906 F6.1
G1 Y-7.5556
G1 Z0.5938
G1 Y-7.3056
G1 Z0.0763 F30.
G1 Y-6.8551 F6.1
G3 X8.2296 Y-6.8426 I-0.0125 J0
G1 X8.2171
G1 X8.2143 Z0.0766
G1 X8.2116 Z0.0775
G1 X8.2093 Z0.079
G1 X8.2073 Z0.081
G1 X8.2058 Z0.0833
G1 X8.2049 Z0.086
G1 X8.2046 Z0.0887
G0 Z0.325
G0 Y-6.8676
G1 Z0.1319 F30.
G1 Z0.0725
G1 X8.2049 Z0.0697 F6.1
G1 X8.2058 Z0.0671
G1 X8.2073 Z0.0647
G1 X8.2093 Z0.0627
G1 X8.2116 Z0.0612
G1 X8.2143 Z0.0603
G1 X8.2171 Z0.06
G1 X8.2296
G3 X8.2421 Y-6.8551 I0 J0.0125
G1 Y-6.3456
G1 X8.1155 Y-6.219
G1 X7.1555
G1 Z0.5938
G1 X6.9055
G1 Z0.06 F30.
G1 X6.0705 F6.1
G1 X7.0679 Y-7.2164
G1 Z0.5938
G1 X7.2447 Y-7.3932
G1 Z0.06 F30.
G1 X8.2421 Y-8.3906 F6.1
G1 Y-7.5556
G1 Z0.5938
G1 Y-7.3056
G1 Z0.06 F30.
G1 Y-6.8551 F6.1
G3 X8.2296 Y-6.8426 I-0.0125 J0
G1 X8.2171
G1 X8.2143 Z0.0603
G1 X8.2116 Z0.0612
G1 X8.2093 Z0.0627
G1 X8.2073 Z0.0647
G1 X8.2058 Z0.0671
G1 X8.2049 Z0.0697
G1 X8.2046 Z0.0725
G0 Z0.325
G0 Y-6.8676
G1 Z0.1156 F30.
G1 Z0.0562
G1 X8.2049 Z0.0535 F6.1
G1 X8.2058 Z0.0508
G1 X8.2073 Z0.0485
G1 X8.2093 Z0.0465
G1 X8.2116 Z0.045
G1 X8.2143 Z0.0441
G1 X8.2171 Z0.0438
G1 X8.2296
G3 X8.2421 Y-6.8551 I0 J0.0125
G1 Y-6.3456
G1 X8.1155 Y-6.219
G1 X7.1555
G1 Z0.5938
G1 X6.9055
G1 Z0.0438 F30.
G1 X6.0705 F6.1
G1 X7.0679 Y-7.2164
G1 Z0.5938
G1 X7.2447 Y-7.3932
G1 Z0.0438 F30.
G1 X8.2421 Y-8.3906 F6.1
G1 Y-7.5556
G1 Z0.5938
G1 Y-7.3056
G1 Z0.0438 F30.
G1 Y-6.8551 F6.1
G3 X8.2296 Y-6.8426 I-0.0125 J0
G1 X8.2171
G1 X8.2143 Z0.0441
G1 X8.2116 Z0.045
G1 X8.2093 Z0.0465
G1 X8.2073 Z0.0485
G1 X8.2058 Z0.0508
G1 X8.2049 Z0.0535
G1 X8.2046 Z0.0562
G0 Z0.325
G0 Y-6.8676
G1 Z0.0994 F30.
G1 Z0.04
G1 X8.2049 Z0.0372 F6.1
G1 X8.2058 Z0.0346
G1 X8.2073 Z0.0322
G1 X8.2093 Z0.0302
G1 X8.2116 Z0.0287
G1 X8.2143 Z0.0278
G1 X8.2171 Z0.0275
G1 X8.2296
G3 X8.2421 Y-6.8551 I0 J0.0125
G1 Y-6.3456
G1 X8.1155 Y-6.219
G1 X7.1555
G1 Z0.5938
G1 X6.9055
G1 Z0.0275 F30.
G1 X6.0705 F6.1
G1 X7.0679 Y-7.2164
G1 Z0.5938
G1 X7.2447 Y-7.3932
G1 Z0.0275 F30.
G1 X8.2421 Y-8.3906 F6.1
G1 Y-7.5556
G1 Z0.5938
G1 Y-7.3056
G1 Z0.0275 F30.
G1 Y-6.8551 F6.1
G3 X8.2296 Y-6.8426 I-0.0125 J0
G1 X8.2171
G1 X8.2143 Z0.0278
G1 X8.2116 Z0.0287
G1 X8.2093 Z0.0302
G1 X8.2073 Z0.0322
G1 X8.2058 Z0.0346
G1 X8.2049 Z0.0372
G1 X8.2046 Z0.04
G0 Z0.325
G0 Y-6.8676
G1 Z0.0831 F30.
G1 Z0.0237
G1 X8.2049 Z0.021 F6.1
G1 X8.2058 Z0.0183
G1 X8.2073 Z0.016
G1 X8.2093 Z0.014
G1 X8.2116 Z0.0125
G1 X8.2143 Z0.0116
G1 X8.2171 Z0.0113
G1 X8.2296
G3 X8.2421 Y-6.8551 I0 J0.0125
G1 Y-6.3456
G1 X8.1155 Y-6.219
G1 X7.1555
G1 Z0.5938
G1 X6.9055
G1 Z0.0113 F30.
G1 X6.0705 F6.1
G1 X7.0679 Y-7.2164
G1 Z0.5938
G1 X7.2447 Y-7.3932
G1 Z0.0113 F30.
G1 X8.2421 Y-8.3906 F6.1
G1 Y-7.5556
G1 Z0.5938
G1 Y-7.3056
G1 Z0.0113 F30.
G1 Y-6.8551 F6.1
G3 X8.2296 Y-6.8426 I-0.0125 J0
G1 X8.2171
G1 X8.2143 Z0.0116
G1 X8.2116 Z0.0125
G1 X8.2093 Z0.014
G1 X8.2073 Z0.016
G1 X8.2058 Z0.0183
G1 X8.2049 Z0.021
G1 X8.2046 Z0.0237
G0 Z0.325
G0 Y-6.8676
G1 Z0.0669 F30.
G1 Z0.0075
G1 X8.2049 Z0.0047 F6.1
G1 X8.2058 Z0.0021
G1 X8.2073 Z-0.0003
G1 X8.2093 Z-0.0023
G1 X8.2116 Z-0.0038
G1 X8.2143 Z-0.0047
G1 X8.2171 Z-0.005
G1 X8.2296
G3 X8.2421 Y-6.8551 I0 J0.0125
G1 Y-6.3456
G1 X8.1155 Y-6.219
G1 X7.1555
G1 Z0.5938
G1 X6.9055
G1 Z-0.005 F30.
G1 X6.0705 F6.1
G1 X7.0679 Y-7.2164
G1 Z0.5938
G1 X7.2447 Y-7.3932
G1 Z-0.005 F30.
G1 X8.2421 Y-8.3906 F6.1
G1 Y-7.5556
G1 Z0.5938
G1 Y-7.3056
G1 Z-0.005 F30.
G1 Y-6.8551 F6.1
G3 X8.2296 Y-6.8426 I-0.0125 J0
G1 X8.2171
G1 X8.2143 Z-0.0047
G1 X8.2116 Z-0.0038
G1 X8.2093 Z-0.0023
G1 X8.2073 Z-0.0003
G1 X8.2058 Z0.0021
G1 X8.2049 Z0.0047
G1 X8.2046 Z0.0075
G0 Z0.325
G0 Y-6.8676
G1 Z0.0506 F30.
G1 Z-0.0088
G1 X8.2049 Z-0.0115 F6.1
G1 X8.2058 Z-0.0142
G1 X8.2073 Z-0.0165
G1 X8.2093 Z-0.0185
G1 X8.2116 Z-0.02
G1 X8.2143 Z-0.0209
G1 X8.2171 Z-0.0212
G1 X8.2296
G3 X8.2421 Y-6.8551 I0 J0.0125
G1 Y-6.3456
G1 X8.1155 Y-6.219
G1 X7.1555
G1 Z0.5938
G1 X6.9055
G1 Z-0.0212 F30.
G1 X6.0705 F6.1
G1 X7.0679 Y-7.2164
G1 Z0.5938
G1 X7.2447 Y-7.3932
G1 Z-0.0212 F30.
G1 X8.2421 Y-8.3906 F6.1
G1 Y-7.5556
G1 Z0.5938
G1 Y-7.3056
G1 Z-0.0212 F30.
G1 Y-6.8551 F6.1
G3 X8.2296 Y-6.8426 I-0.0125 J0
G1 X8.2171
G1 X8.2143 Z-0.0209
G1 X8.2116 Z-0.02
G1 X8.2093 Z-0.0185
G1 X8.2073 Z-0.0165
G1 X8.2058 Z-0.0142
G1 X8.2049 Z-0.0115
G1 X8.2046 Z-0.0088
G0 Z0.325
G0 Y-6.8676
G1 Z0.0344 F30.
G1 Z-0.0188
G1 X8.2049 Z-0.0215 F6.1
G1 X8.2058 Z-0.0242
G1 X8.2073 Z-0.0265
G1 X8.2093 Z-0.0285
G1 X8.2116 Z-0.03
G1 X8.2143 Z-0.0309
G1 X8.2171 Z-0.0312
G1 X8.2296
G3 X8.2421 Y-6.8551 I0 J0.0125
G1 Y-6.3456
G1 X8.1155 Y-6.219
G1 X7.1555
G1 Z0.5938
G1 X6.9055
G1 Z-0.0312 F30.
G1 X6.0705 F6.1
G1 X7.0679 Y-7.2164
G1 Z0.5938
G1 X7.2447 Y-7.3932
G1 Z-0.0312 F30.
G1 X8.2421 Y-8.3906 F6.1
G1 Y-7.5556
G1 Z0.5938
G1 Y-7.3056
G1 Z-0.0312 F30.
G1 Y-6.8551 F6.1
G3 X8.2296 Y-6.8426 I-0.0125 J0
G1 X8.2171
G1 X8.2143 Z-0.0309
G1 X8.2116 Z-0.03
G1 X8.2093 Z-0.0285
G1 X8.2073 Z-0.0265
G1 X8.2058 Z-0.0242
G1 X8.2049 Z-0.0215
G1 X8.2046 Z-0.0188
G0 Z0.5938
G0 X5.7632 Y-6.9564
G1 X5.7757 F6.1
G1 X5.7882
G3 X5.8007 Y-6.9439 I0 J0.0125
G3 X5.7848 Y-6.8189 I-0.4995 J0
G1 Z0.1087 F30.
G3 X5.1762 Y-6.4603 I-0.4836 J-0.125 F6.1
G3 X4.8176 Y-6.8189 I0.125 J-0.4836
G1 Z0.5938
G3 Y-7.0689 I0.4836 J-0.125
G1 Z0.1087 F30.
G3 X5.4262 Y-7.4276 I0.4836 J0.125 F6.1
G3 X5.7848 Y-7.0689 I-0.125 J0.4836
G1 Z0.5938
G3 X5.8007 Y-6.9439 I-0.4836 J0.125
G3 X5.7882 Y-6.9314 I-0.0125 J0
G1 X5.7632
G0 Y-6.9564
G1 X5.7757 F6.1
G1 X5.7882
G3 X5.8007 Y-6.9439 I0 J0.0125
G3 X5.7848 Y-6.8189 I-0.4995 J0
G1 Z0.0925 F30.
G3 X5.1762 Y-6.4603 I-0.4836 J-0.125 F6.1
G3 X4.8176 Y-6.8189 I0.125 J-0.4836
G1 Z0.5938
G3 Y-7.0689 I0.4836 J-0.125
G1 Z0.0925 F30.
G3 X5.4262 Y-7.4276 I0.4836 J0.125 F6.1
G3 X5.7848 Y-7.0689 I-0.125 J0.4836
G1 Z0.5938
G3 X5.8007 Y-6.9439 I-0.4836 J0.125
G3 X5.7882 Y-6.9314 I-0.0125 J0
G1 X5.7632
G0 Y-6.9564
G1 X5.7757 F6.1
G1 X5.7882
G3 X5.8007 Y-6.9439 I0 J0.0125
G3 X5.7848 Y-6.8189 I-0.4995 J0
G1 Z0.0763 F30.
G3 X5.1762 Y-6.4603 I-0.4836 J-0.125 F6.1
G3 X4.8176 Y-6.8189 I0.125 J-0.4836
G1 Z0.5938
G3 Y-7.0689 I0.4836 J-0.125
G1 Z0.0763 F30.
G3 X5.4262 Y-7.4276 I0.4836 J0.125 F6.1
G3 X5.7848 Y-7.0689 I-0.125 J0.4836
G1 Z0.5938
G3 X5.8007 Y-6.9439 I-0.4836 J0.125
G3 X5.7882 Y-6.9314 I-0.0125 J0
G1 X5.7632
G0 Y-6.9564
G1 X5.7757 F6.1
G1 X5.7882
G3 X5.8007 Y-6.9439 I0 J0.0125
G3 X5.7848 Y-6.8189 I-0.4995 J0
G1 Z0.06 F30.
G3 X5.1762 Y-6.4603 I-0.4836 J-0.125 F6.1
G3 X4.8176 Y-6.8189 I0.125 J-0.4836
G1 Z0.5938
G3 Y-7.0689 I0.4836 J-0.125
G1 Z0.06 F30.
G3 X5.4262 Y-7.4276 I0.4836 J0.125 F6.1
G3 X5.7848 Y-7.0689 I-0.125 J0.4836
G1 Z0.5938
G3 X5.8007 Y-6.9439 I-0.4836 J0.125
G3 X5.7882 Y-6.9314 I-0.0125 J0
G1 X5.7632
G0 Y-6.9564
G1 X5.7757 F6.1
G1 X5.7882
G3 X5.8007 Y-6.9439 I0 J0.0125
G3 X5.7848 Y-6.8189 I-0.4995 J0
G1 Z0.0438 F30.
G3 X5.1762 Y-6.4603 I-0.4836 J-0.125 F6.1
G3 X4.8176 Y-6.8189 I0.125 J-0.4836
G1 Z0.5938
G3 Y-7.0689 I0.4836 J-0.125
G1 Z0.0438 F30.
G3 X5.4262 Y-7.4276 I0.4836 J0.125 F6.1
G3 X5.7848 Y-7.0689 I-0.125 J0.4836
G1 Z0.5938
G3 X5.8007 Y-6.9439 I-0.4836 J0.125
G3 X5.7882 Y-6.9314 I-0.0125 J0
G1 X5.7632
G0 Y-6.9564
G1 X5.7757 F6.1
G1 X5.7882
G3 X5.8007 Y-6.9439 I0 J0.0125
G3 X5.7848 Y-6.8189 I-0.4995 J0
G1 Z0.0275 F30.
G3 X5.1762 Y-6.4603 I-0.4836 J-0.125 F6.1
G3 X4.8176 Y-6.8189 I0.125 J-0.4836
G1 Z0.5938
G3 Y-7.0689 I0.4836 J-0.125
G1 Z0.0275 F30.
G3 X5.4262 Y-7.4276 I0.4836 J0.125 F6.1
G3 X5.7848 Y-7.0689 I-0.125 J0.4836
G1 Z0.5938
G3 X5.8007 Y-6.9439 I-0.4836 J0.125
G3 X5.7882 Y-6.9314 I-0.0125 J0
G1 X5.7632
G0 Y-6.9564
G1 X5.7757 F6.1
G1 X5.7882
G3 X5.8007 Y-6.9439 I0 J0.0125
G3 X5.7848 Y-6.8189 I-0.4995 J0
G1 Z0.0113 F30.
G3 X5.1762 Y-6.4603 I-0.4836 J-0.125 F6.1
G3 X4.8176 Y-6.8189 I0.125 J-0.4836
G1 Z0.5938
G3 Y-7.0689 I0.4836 J-0.125
G1 Z0.0113 F30.
G3 X5.4262 Y-7.4276 I0.4836 J0.125 F6.1
G3 X5.7848 Y-7.0689 I-0.125 J0.4836
G1 Z0.5938
G3 X5.8007 Y-6.9439 I-0.4836 J0.125
G3 X5.7882 Y-6.9314 I-0.0125 J0
G1 X5.7632
G0 Y-6.9564
G1 X5.7757 F6.1
G1 X5.7882
G3 X5.8007 Y-6.9439 I0 J0.0125
G3 X5.7848 Y-6.8189 I-0.4995 J0
G1 Z-0.005 F30.
G3 X5.1762 Y-6.4603 I-0.4836 J-0.125 F6.1
G3 X4.8176 Y-6.8189 I0.125 J-0.4836
G1 Z0.5938
G3 Y-7.0689 I0.4836 J-0.125
G1 Z-0.005 F30.
G3 X5.4262 Y-7.4276 I0.4836 J0.125 F6.1
G3 X5.7848 Y-7.0689 I-0.125 J0.4836
G1 Z0.5938
G3 X5.8007 Y-6.9439 I-0.4836 J0.125
G3 X5.7882 Y-6.9314 I-0.0125 J0
G1 X5.7632
G0 Y-6.9564
G1 X5.7757 F6.1
G1 X5.7882
G3 X5.8007 Y-6.9439 I0 J0.0125
G3 X5.7848 Y-6.8189 I-0.4995 J0
G1 Z-0.0212 F30.
G3 X5.1762 Y-6.4603 I-0.4836 J-0.125 F6.1
G3 X4.8176 Y-6.8189 I0.125 J-0.4836
G1 Z0.5938
G3 Y-7.0689 I0.4836 J-0.125
G1 Z-0.0212 F30.
G3 X5.4262 Y-7.4276 I0.4836 J0.125 F6.1
G3 X5.7848 Y-7.0689 I-0.125 J0.4836
G1 Z0.5938
G3 X5.8007 Y-6.9439 I-0.4836 J0.125
G3 X5.7882 Y-6.9314 I-0.0125 J0
G1 X5.7632
G0 Y-6.9564
G1 X5.7757 F6.1
G1 X5.7882
G3 X5.8007 Y-6.9439 I0 J0.0125
G3 X5.7848 Y-6.8189 I-0.4995 J0
G1 Z-0.0312 F30.
G3 X5.1762 Y-6.4603 I-0.4836 J-0.125 F6.1
G3 X4.8176 Y-6.8189 I0.125 J-0.4836
G1 Z0.5938
G3 Y-7.0689 I0.4836 J-0.125
G1 Z-0.0312 F30.
G3 X5.4262 Y-7.4276 I0.4836 J0.125 F6.1
G3 X5.7848 Y-7.0689 I-0.125 J0.4836
G1 Z0.5938
G3 X5.8007 Y-6.9439 I-0.4836 J0.125
G3 X5.7882 Y-6.9314 I-0.0125 J0
G1 X5.7632
G0 X4.4138 Y-7.4025
G1 X4.4263 F6.1
G1 X4.4388
G3 X4.4513 Y-7.39 I0 J0.0125
G1 Y-7.3784
G1 Z0.1087 F30.
G1 Y-6.2956 F6.1
G1 X3.9801 Y-6.7137
G1 Z0.5938
G1 X3.7931 Y-6.8796
G1 Z0.1087 F30.
G1 X3.2647 Y-7.3485 F6.1
G1 X3.8089 Y-7.9618
G1 Z0.5938
G1 X3.9749 Y-8.1488
G1 Z0.1087 F30.
G1 X4.4513 Y-8.6857 F6.1
G1 Y-7.6284
G1 Z0.5938
G1 Y-7.39
G3 X4.4436 Y-7.3784 I-0.0125 J0
G1 Z0.1087 F30.
G1 X4.4413 Y-7.3777 F6.1
G1 X4.4388 Y-7.3775
G1 X4.4263
G1 X4.4235 Z0.1091
G1 X4.4209 Z0.11
G1 X4.4185 Z0.1115
G1 X4.4165 Z0.1135
G1 X4.4151 Z0.1158
G1 X4.4141 Z0.1185
G1 X4.4138 Z0.1212
G0 Z0.5938
G0 Y-7.4025
G1 X4.4263 F6.1
G1 X4.4388
G3 X4.4513 Y-7.39 I0 J0.0125
G1 Y-7.3784
G1 Z0.0925 F30.
G1 Y-6.2956 F6.1
G1 X3.9801 Y-6.7137
G1 Z0.5938
G1 X3.7931 Y-6.8796
G1 Z0.0925 F30.
G1 X3.2647 Y-7.3485 F6.1
G1 X3.8089 Y-7.9618
G1 Z0.5938
G1 X3.9749 Y-8.1488
G1 Z0.0925 F30.
G1 X4.4513 Y-8.6857 F6.1
G1 Y-7.6284
G1 Z0.5938
G1 Y-7.39
G3 X4.4436 Y-7.3784 I-0.0125 J0
G1 Z0.0925 F30.
G1 X4.4413 Y-7.3777 F6.1
G1 X4.4388 Y-7.3775
G1 X4.4263
G1 X4.4235 Z0.0928
G1 X4.4209 Z0.0937
G1 X4.4185 Z0.0952
G1 X4.4165 Z0.0972
G1 X4.4151 Z0.0996
G1 X4.4141 Z0.1022
G1 X4.4138 Z0.105
G0 Z0.5938
G0 Y-7.4025
G1 X4.4263 F6.1
G1 X4.4388
G3 X4.4513 Y-7.39 I0 J0.0125
G1 Y-7.3784
G1 Z0.0763 F30.
G1 Y-6.2956 F6.1
G1 X3.9801 Y-6.7137
G1 Z0.5938
G1 X3.7931 Y-6.8796
G1 Z0.0763 F30.
G1 X3.2647 Y-7.3485 F6.1
G1 X3.8089 Y-7.9618
G1 Z0.5938
G1 X3.9749 Y-8.1488
G1 Z0.0763 F30.
G1 X4.4513 Y-8.6857 F6.1
G1 Y-7.6284
G1 Z0.5938
G1 Y-7.39
G3 X4.4436 Y-7.3784 I-0.0125 J0
G1 Z0.0763 F30.
G1 X4.4413 Y-7.3777 F6.1
G1 X4.4388 Y-7.3775
G1 X4.4263
G1 X4.4235 Z0.0766
G1 X4.4209 Z0.0775
G1 X4.4185 Z0.079
G1 X4.4165 Z0.081
G1 X4.4151 Z0.0833
G1 X4.4141 Z0.086
G1 X4.4138 Z0.0887
G0 Z0.5938
G0 Y-7.4025
G1 X4.4263 F6.1
G1 X4.4388
G3 X4.4513 Y-7.39 I0 J0.0125
G1 Y-7.3784
G1 Z0.06 F30.
G1 Y-6.2956 F6.1
G1 X3.9801 Y-6.7137
G1 Z0.5938
G1 X3.7931 Y-6.8796
G1 Z0.06 F30.
G1 X3.2647 Y-7.3485 F6.1
G1 X3.8089 Y-7.9618
G1 Z0.5938
G1 X3.9749 Y-8.1488
G1 Z0.06 F30.
G1 X4.4513 Y-8.6857 F6.1
G1 Y-7.6284
G1 Z0.5938
G1 Y-7.39
G3 X4.4436 Y-7.3784 I-0.0125 J0
G1 Z0.06 F30.
G1 X4.4413 Y-7.3777 F6.1
G1 X4.4388 Y-7.3775
G1 X4.4263
G1 X4.4235 Z0.0603
G1 X4.4209 Z0.0612
G1 X4.4185 Z0.0627
G1 X4.4165 Z0.0647
G1 X4.4151 Z0.0671
G1 X4.4141 Z0.0697
G1 X4.4138 Z0.0725
G0 Z0.5938
G0 Y-7.4025
G1 X4.4263 F6.1
G1 X4.4388
G3 X4.4513 Y-7.39 I0 J0.0125
G1 Y-7.3784
G1 Z0.0438 F30.
G1 Y-6.2956 F6.1
G1 X3.9801 Y-6.7137
G1 Z0.5938
G1 X3.7931 Y-6.8796
G1 Z0.0438 F30.
G1 X3.2647 Y-7.3485 F6.1
G1 X3.8089 Y-7.9618
G1 Z0.5938
G1 X3.9749 Y-8.1488
G1 Z0.0438 F30.
G1 X4.4513 Y-8.6857 F6.1
G1 Y-7.6284
G1 Z0.5938
G1 Y-7.39
G3 X4.4436 Y-7.3784 I-0.0125 J0
G1 Z0.0438 F30.
G1 X4.4413 Y-7.3777 F6.1
G1 X4.4388 Y-7.3775
G1 X4.4263
G1 X4.4235 Z0.0441
G1 X4.4209 Z0.045
G1 X4.4185 Z0.0465
G1 X4.4165 Z0.0485
G1 X4.4151 Z0.0508
G1 X4.4141 Z0.0535
G1 X4.4138 Z0.0562
G0 Z0.5938
G0 Y-7.4025
G1 X4.4263 F6.1
G1 X4.4388
G3 X4.4513 Y-7.39 I0 J0.0125
G1 Y-7.3784
G1 Z0.0275 F30.
G1 Y-6.2956 F6.1
G1 X3.9801 Y-6.7137
G1 Z0.5938
G1 X3.7931 Y-6.8796
G1 Z0.0275 F30.
G1 X3.2647 Y-7.3485 F6.1
G1 X3.8089 Y-7.9618
G1 Z0.5938
G1 X3.9749 Y-8.1488
G1 Z0.0275 F30.
G1 X4.4513 Y-8.6857 F6.1
G1 Y-7.6284
G1 Z0.5938
G1 Y-7.39
G3 X4.4436 Y-7.3784 I-0.0125 J0
G1 Z0.0275 F30.
G1 X4.4413 Y-7.3777 F6.1
G1 X4.4388 Y-7.3775
G1 X4.4263
G1 X4.4235 Z0.0278
G1 X4.4209 Z0.0287
G1 X4.4185 Z0.0302
G1 X4.4165 Z0.0322
G1 X4.4151 Z0.0346
G1 X4.4141 Z0.0372
G1 X4.4138 Z0.04
G0 Z0.5938
G0 Y-7.4025
G1 X4.4263 F6.1
G1 X4.4388
G3 X4.4513 Y-7.39 I0 J0.0125
G1 Y-7.3784
G1 Z0.0113 F30.
G1 Y-6.2956 F6.1
G1 X3.9801 Y-6.7137
G1 Z0.5938
G1 X3.7931 Y-6.8796
G1 Z0.0113 F30.
G1 X3.2647 Y-7.3485 F6.1
G1 X3.8089 Y-7.9618
G1 Z0.5938
G1 X3.9749 Y-8.1488
G1 Z0.0113 F30.
G1 X4.4513 Y-8.6857 F6.1
G1 Y-7.6284
G1 Z0.5938
G1 Y-7.39
G3 X4.4436 Y-7.3784 I-0.0125 J0
G1 Z0.0113 F30.
G1 X4.4413 Y-7.3777 F6.1
G1 X4.4388 Y-7.3775
G1 X4.4263
G1 X4.4235 Z0.0116
G1 X4.4209 Z0.0125
G1 X4.4185 Z0.014
G1 X4.4165 Z0.016
G1 X4.4151 Z0.0183
G1 X4.4141 Z0.021
G1 X4.4138 Z0.0237
G0 Z0.5938
G0 Y-7.4025
G1 X4.4263 F6.1
G1 X4.4388
G3 X4.4513 Y-7.39 I0 J0.0125
G1 Y-7.3784
G1 Z-0.005 F30.
G1 Y-6.2956 F6.1
G1 X3.9801 Y-6.7137
G1 Z0.5938
G1 X3.7931 Y-6.8796
G1 Z-0.005 F30.
G1 X3.2647 Y-7.3485 F6.1
G1 X3.8089 Y-7.9618
G1 Z0.5938
G1 X3.9749 Y-8.1488
G1 Z-0.005 F30.
G1 X4.4513 Y-8.6857 F6.1
G1 Y-7.6284
G1 Z0.5938
G1 Y-7.39
G3 X4.4436 Y-7.3784 I-0.0125 J0
G1 Z-0.005 F30.
G1 X4.4413 Y-7.3777 F6.1
G1 X4.4388 Y-7.3775
G1 X4.4263
G1 X4.4235 Z-0.0047
G1 X4.4209 Z-0.0038
G1 X4.4185 Z-0.0023
G1 X4.4165 Z-0.0003
G1 X4.4151 Z0.0021
G1 X4.4141 Z0.0047
G1 X4.4138 Z0.0075
G0 Z0.5938
G0 Y-7.4025
G1 X4.4263 F6.1
G1 X4.4388
G3 X4.4513 Y-7.39 I0 J0.0125
G1 Y-7.3784
G1 Z-0.0212 F30.
G1 Y-6.2956 F6.1
G1 X3.9801 Y-6.7137
G1 Z0.5938
G1 X3.7931 Y-6.8796
G1 Z-0.0212 F30.
G1 X3.2647 Y-7.3485 F6.1
G1 X3.8089 Y-7.9618
G1 Z0.5938
G1 X3.9749 Y-8.1488
G1 Z-0.0212 F30.
G1 X4.4513 Y-8.6857 F6.1
G1 Y-7.6284
G1 Z0.5938
G1 Y-7.39
G3 X4.4436 Y-7.3784 I-0.0125 J0
G1 Z-0.0212 F30.
G1 X4.4413 Y-7.3777 F6.1
G1 X4.4388 Y-7.3775
G1 X4.4263
G1 X4.4235 Z-0.0209
G1 X4.4209 Z-0.02
G1 X4.4185 Z-0.0185
G1 X4.4165 Z-0.0165
G1 X4.4151 Z-0.0142
G1 X4.4141 Z-0.0115
G1 X4.4138 Z-0.0088
G0 Z0.5938
G0 Y-7.4025
G1 X4.4263 F6.1
G1 X4.4388
G3 X4.4513 Y-7.39 I0 J0.0125
G1 Y-7.3784
G1 Z-0.0312 F30.
G1 Y-6.2956 F6.1
G1 X3.9801 Y-6.7137
G1 Z0.5938
G1 X3.7931 Y-6.8796
G1 Z-0.0312 F30.
G1 X3.2647 Y-7.3485 F6.1
G1 X3.8089 Y-7.9618
G1 Z0.5938
G1 X3.9749 Y-8.1488
G1 Z-0.0312 F30.
G1 X4.4513 Y-8.6857 F6.1
G1 Y-7.6284
G1 Z0.5938
G1 Y-7.39
G3 X4.4436 Y-7.3784 I-0.0125 J0
G1 Z-0.0312 F30.
G1 X4.4413 Y-7.3777 F6.1
G1 X4.4388 Y-7.3775
G1 X4.4263
G1 X4.4235 Z-0.0309
G1 X4.4209 Z-0.03
G1 X4.4185 Z-0.0285
G1 X4.4165 Z-0.0265
G1 X4.4151 Z-0.0242
G1 X4.4141 Z-0.0215
G1 X4.4138 Z-0.0188
G0 Z0.325
G0 X5.339 Y-8.7281
G1 Z0.1806 F30.
G1 Z0.1212
G1 X5.3393 Z0.1185 F6.1
G1 X5.3403 Z0.1158
G1 X5.3417 Z0.1135
G1 X5.3437 Z0.1115
G1 X5.3461 Z0.11
G1 X5.3487 Z0.1091
G1 X5.3515 Z0.1087
G1 X5.364
G3 X5.3765 Y-8.7156 I0 J0.0125
G3 X5.3012 Y-8.6403 I-0.0753 J0
G3 X5.2259 Y-8.7156 I0 J-0.0753
G3 X5.3012 Y-8.7909 I0.0753 J0
G3 X5.3765 Y-8.7156 I0 J0.0753
G3 X5.364 Y-8.7031 I-0.0125 J0
G1 X5.3515
G1 X5.3487 Z0.1091
G1 X5.3461 Z0.11
G1 X5.3437 Z0.1115
G1 X5.3417 Z0.1135
G1 X5.3403 Z0.1158
G1 X5.3393 Z0.1185
G1 X5.339 Z0.1212
G0 Z0.325
G0 Y-8.7281
G1 Z0.1644 F30.
G1 Z0.105
G1 X5.3393 Z0.1022 F6.1
G1 X5.3403 Z0.0996
G1 X5.3417 Z0.0972
G1 X5.3437 Z0.0952
G1 X5.3461 Z0.0937
G1 X5.3487 Z0.0928
G1 X5.3515 Z0.0925
G1 X5.364
G3 X5.3765 Y-8.7156 I0 J0.0125
G3 X5.3012 Y-8.6403 I-0.0753 J0
G3 X5.2259 Y-8.7156 I0 J-0.0753
G3 X5.3012 Y-8.7909 I0.0753 J0
G3 X5.3765 Y-8.7156 I0 J0.0753
G3 X5.364 Y-8.7031 I-0.0125 J0
G1 X5.3515
G1 X5.3487 Z0.0928
G1 X5.3461 Z0.0937
G1 X5.3437 Z0.0952
G1 X5.3417 Z0.0972
G1 X5.3403 Z0.0996
G1 X5.3393 Z0.1022
G1 X5.339 Z0.105
G0 Z0.325
G0 Y-8.7281
G1 Z0.1481 F30.
G1 Z0.0887
G1 X5.3393 Z0.086 F6.1
G1 X5.3403 Z0.0833
G1 X5.3417 Z0.081
G1 X5.3437 Z0.079
G1 X5.3461 Z0.0775
G1 X5.3487 Z0.0766
G1 X5.3515 Z0.0763
G1 X5.364
G3 X5.3765 Y-8.7156 I0 J0.0125
G3 X5.3012 Y-8.6403 I-0.0753 J0
G3 X5.2259 Y-8.7156 I0 J-0.0753
G3 X5.3012 Y-8.7909 I0.0753 J0
G3 X5.3765 Y-8.7156 I0 J0.0753
G3 X5.364 Y-8.7031 I-0.0125 J0
G1 X5.3515
G1 X5.3487 Z0.0766
G1 X5.3461 Z0.0775
G1 X5.3437 Z0.079
G1 X5.3417 Z0.081
G1 X5.3403 Z0.0833
G1 X5.3393 Z0.086
G1 X5.339 Z0.0887
G0 Z0.325
G0 Y-8.7281
G1 Z0.1319 F30.
G1 Z0.0725
G1 X5.3393 Z0.0697 F6.1
G1 X5.3403 Z0.0671
G1 X5.3417 Z0.0647
G1 X5.3437 Z0.0627
G1 X5.3461 Z0.0612
G1 X5.3487 Z0.0603
G1 X5.3515 Z0.06
G1 X5.364
G3 X5.3765 Y-8.7156 I0 J0.0125
G3 X5.3012 Y-8.6403 I-0.0753 J0
G3 X5.2259 Y-8.7156 I0 J-0.0753
G3 X5.3012 Y-8.7909 I0.0753 J0
G3 X5.3765 Y-8.7156 I0 J0.0753
G3 X5.364 Y-8.7031 I-0.0125 J0
G1 X5.3515
G1 X5.3487 Z0.0603
G1 X5.3461 Z0.0612
G1 X5.3437 Z0.0627
G1 X5.3417 Z0.0647
G1 X5.3403 Z0.0671
G1 X5.3393 Z0.0697
G1 X5.339 Z0.0725
G0 Z0.325
G0 Y-8.7281
G1 Z0.1156 F30.
G1 Z0.0562
G1 X5.3393 Z0.0535 F6.1
G1 X5.3403 Z0.0508
G1 X5.3417 Z0.0485
G1 X5.3437 Z0.0465
G1 X5.3461 Z0.045
G1 X5.3487 Z0.0441
G1 X5.3515 Z0.0438
G1 X5.364
G3 X5.3765 Y-8.7156 I0 J0.0125
G3 X5.3012 Y-8.6403 I-0.0753 J0
G3 X5.2259 Y-8.7156 I0 J-0.0753
G3 X5.3012 Y-8.7909 I0.0753 J0
G3 X5.3765 Y-8.7156 I0 J0.0753
G3 X5.364 Y-8.7031 I-0.0125 J0
G1 X5.3515
G1 X5.3487 Z0.0441
G1 X5.3461 Z0.045
G1 X5.3437 Z0.0465
G1 X5.3417 Z0.0485
G1 X5.3403 Z0.0508
G1 X5.3393 Z0.0535
G1 X5.339 Z0.0562
G0 Z0.325
G0 Y-8.7281
G1 Z0.0994 F30.
G1 Z0.04
G1 X5.3393 Z0.0372 F6.1
G1 X5.3403 Z0.0346
G1 X5.3417 Z0.0322
G1 X5.3437 Z0.0302
G1 X5.3461 Z0.0287
G1 X5.3487 Z0.0278
G1 X5.3515 Z0.0275
G1 X5.364
G3 X5.3765 Y-8.7156 I0 J0.0125
G3 X5.3012 Y-8.6403 I-0.0753 J0
G3 X5.2259 Y-8.7156 I0 J-0.0753
G3 X5.3012 Y-8.7909 I0.0753 J0
G3 X5.3765 Y-8.7156 I0 J0.0753
G3 X5.364 Y-8.7031 I-0.0125 J0
G1 X5.3515
G1 X5.3487 Z0.0278
G1 X5.3461 Z0.0287
G1 X5.3437 Z0.0302
G1 X5.3417 Z0.0322
G1 X5.3403 Z0.0346
G1 X5.3393 Z0.0372
G1 X5.339 Z0.04
G0 Z0.325
G0 Y-8.7281
G1 Z0.0831 F30.
G1 Z0.0237
G1 X5.3393 Z0.021 F6.1
G1 X5.3403 Z0.0183
G1 X5.3417 Z0.016
G1 X5.3437 Z0.014
G1 X5.3461 Z0.0125
G1 X5.3487 Z0.0116
G1 X5.3515 Z0.0113
G1 X5.364
G3 X5.3765 Y-8.7156 I0 J0.0125
G3 X5.3012 Y-8.6403 I-0.0753 J0
G3 X5.2259 Y-8.7156 I0 J-0.0753
G3 X5.3012 Y-8.7909 I0.0753 J0
G3 X5.3765 Y-8.7156 I0 J0.0753
G3 X5.364 Y-8.7031 I-0.0125 J0
G1 X5.3515
G1 X5.3487 Z0.0116
G1 X5.3461 Z0.0125
G1 X5.3437 Z0.014
G1 X5.3417 Z0.016
G1 X5.3403 Z0.0183
G1 X5.3393 Z0.021
G1 X5.339 Z0.0237
G0 Z0.325
G0 Y-8.7281
G1 Z0.0669 F30.
G1 Z0.0075
G1 X5.3393 Z0.0047 F6.1
G1 X5.3403 Z0.0021
G1 X5.3417 Z-0.0003
G1 X5.3437 Z-0.0023
G1 X5.3461 Z-0.0038
G1 X5.3487 Z-0.0047
G1 X5.3515 Z-0.005
G1 X5.364
G3 X5.3765 Y-8.7156 I0 J0.0125
G3 X5.3012 Y-8.6403 I-0.0753 J0
G3 X5.2259 Y-8.7156 I0 J-0.0753
G3 X5.3012 Y-8.7909 I0.0753 J0
G3 X5.3765 Y-8.7156 I0 J0.0753
G3 X5.364 Y-8.7031 I-0.0125 J0
G1 X5.3515
G1 X5.3487 Z-0.0047
G1 X5.3461 Z-0.0038
G1 X5.3437 Z-0.0023
G1 X5.3417 Z-0.0003
G1 X5.3403 Z0.0021
G1 X5.3393 Z0.0047
G1 X5.339 Z0.0075
G0 Z0.325
G0 Y-8.7281
G1 Z0.0506 F30.
G1 Z-0.0088
G1 X5.3393 Z-0.0115 F6.1
G1 X5.3403 Z-0.0142
G1 X5.3417 Z-0.0165
G1 X5.3437 Z-0.0185
G1 X5.3461 Z-0.02
G1 X5.3487 Z-0.0209
G1 X5.3515 Z-0.0212
G1 X5.364
G3 X5.3765 Y-8.7156 I0 J0.0125
G3 X5.3012 Y-8.6403 I-0.0753 J0
G3 X5.2259 Y-8.7156 I0 J-0.0753
G3 X5.3012 Y-8.7909 I0.0753 J0
G3 X5.3765 Y-8.7156 I0 J0.0753
G3 X5.364 Y-8.7031 I-0.0125 J0
G1 X5.3515
G1 X5.3487 Z-0.0209
G1 X5.3461 Z-0.02
G1 X5.3437 Z-0.0185
G1 X5.3417 Z-0.0165
G1 X5.3403 Z-0.0142
G1 X5.3393 Z-0.0115
G1 X5.339 Z-0.0088
G0 Z0.325
G0 Y-8.7281
G1 Z0.0344 F30.
G1 Z-0.0188
G1 X5.3393 Z-0.0215 F6.1
G1 X5.3403 Z-0.0242
G1 X5.3417 Z-0.0265
G1 X5.3437 Z-0.0285
G1 X5.3461 Z-0.03
G1 X5.3487 Z-0.0309
G1 X5.3515 Z-0.0312
G1 X5.364
G3 X5.3765 Y-8.7156 I0 J0.0125
G3 X5.3012 Y-8.6403 I-0.0753 J0
G3 X5.2259 Y-8.7156 I0 J-0.0753
G3 X5.3012 Y-8.7909 I0.0753 J0
G3 X5.3765 Y-8.7156 I0 J0.0753
G3 X5.364 Y-8.7031 I-0.0125 J0
G1 X5.3515
G1 X5.3487 Z-0.0309
G1 X5.3461 Z-0.03
G1 X5.3437 Z-0.0285
G1 X5.3417 Z-0.0265
G1 X5.3403 Z-0.0242
G1 X5.3393 Z-0.0215
G1 X5.339 Z-0.0188
G0 Z0.325
G0 X5.9296 Y-8.7281
G1 Z0.1806 F30.
G1 Z0.1212
G1 X5.9299 Z0.1185 F6.1
G1 X5.9308 Z0.1158
G1 X5.9323 Z0.1135
G1 X5.9343 Z0.1115
G1 X5.9366 Z0.11
G1 X5.9393 Z0.1091
G1 X5.9421 Z0.1087
G1 X5.9546
G3 X5.9671 Y-8.7156 I0 J0.0125
G3 X5.8918 Y-8.6403 I-0.0753 J0
G3 X5.8165 Y-8.7156 I0 J-0.0753
G3 X5.8918 Y-8.7909 I0.0753 J0
G3 X5.9671 Y-8.7156 I0 J0.0753
G3 X5.9546 Y-8.7031 I-0.0125 J0
G1 X5.9421
G1 X5.9393 Z0.1091
G1 X5.9366 Z0.11
G1 X5.9343 Z0.1115
G1 X5.9323 Z0.1135
G1 X5.9308 Z0.1158
G1 X5.9299 Z0.1185
G1 X5.9296 Z0.1212
G0 Z0.325
G0 Y-8.7281
G1 Z0.1644 F30.
G1 Z0.105
G1 X5.9299 Z0.1022 F6.1
G1 X5.9308 Z0.0996
G1 X5.9323 Z0.0972
G1 X5.9343 Z0.0952
G1 X5.9366 Z0.0937
G1 X5.9393 Z0.0928
G1 X5.9421 Z0.0925
G1 X5.9546
G3 X5.9671 Y-8.7156 I0 J0.0125
G3 X5.8918 Y-8.6403 I-0.0753 J0
G3 X5.8165 Y-8.7156 I0 J-0.0753
G3 X5.8918 Y-8.7909 I0.0753 J0
G3 X5.9671 Y-8.7156 I0 J0.0753
G3 X5.9546 Y-8.7031 I-0.0125 J0
G1 X5.9421
G1 X5.9393 Z0.0928
G1 X5.9366 Z0.0937
G1 X5.9343 Z0.0952
G1 X5.9323 Z0.0972
G1 X5.9308 Z0.0996
G1 X5.9299 Z0.1022
G1 X5.9296 Z0.105
G0 Z0.325
G0 Y-8.7281
G1 Z0.1481 F30.
G1 Z0.0887
G1 X5.9299 Z0.086 F6.1
G1 X5.9308 Z0.0833
G1 X5.9323 Z0.081
G1 X5.9343 Z0.079
G1 X5.9366 Z0.0775
G1 X5.9393 Z0.0766
G1 X5.9421 Z0.0763
G1 X5.9546
G3 X5.9671 Y-8.7156 I0 J0.0125
G3 X5.8918 Y-8.6403 I-0.0753 J0
G3 X5.8165 Y-8.7156 I0 J-0.0753
G3 X5.8918 Y-8.7909 I0.0753 J0
G3 X5.9671 Y-8.7156 I0 J0.0753
G3 X5.9546 Y-8.7031 I-0.0125 J0
G1 X5.9421
G1 X5.9393 Z0.0766
G1 X5.9366 Z0.0775
G1 X5.9343 Z0.079
G1 X5.9323 Z0.081
G1 X5.9308 Z0.0833
G1 X5.9299 Z0.086
G1 X5.9296 Z0.0887
G0 Z0.325
G0 Y-8.7281
G1 Z0.1319 F30.
G1 Z0.0725
G1 X5.9299 Z0.0697 F6.1
G1 X5.9308 Z0.0671
G1 X5.9323 Z0.0647
G1 X5.9343 Z0.0627
G1 X5.9366 Z0.0612
G1 X5.9393 Z0.0603
G1 X5.9421 Z0.06
G1 X5.9546
G3 X5.9671 Y-8.7156 I0 J0.0125
G3 X5.8918 Y-8.6403 I-0.0753 J0
G3 X5.8165 Y-8.7156 I0 J-0.0753
G3 X5.8918 Y-8.7909 I0.0753 J0
G3 X5.9671 Y-8.7156 I0 J0.0753
G3 X5.9546 Y-8.7031 I-0.0125 J0
G1 X5.9421
G1 X5.9393 Z0.0603
G1 X5.9366 Z0.0612
G1 X5.9343 Z0.0627
G1 X5.9323 Z0.0647
G1 X5.9308 Z0.0671
G1 X5.9299 Z0.0697
G1 X5.9296 Z0.0725
G0 Z0.325
G0 Y-8.7281
G1 Z0.1156 F30.
G1 Z0.0562
G1 X5.9299 Z0.0535 F6.1
G1 X5.9308 Z0.0508
G1 X5.9323 Z0.0485
G1 X5.9343 Z0.0465
G1 X5.9366 Z0.045
G1 X5.9393 Z0.0441
G1 X5.9421 Z0.0438
G1 X5.9546
G3 X5.9671 Y-8.7156 I0 J0.0125
G3 X5.8918 Y-8.6403 I-0.0753 J0
G3 X5.8165 Y-8.7156 I0 J-0.0753
G3 X5.8918 Y-8.7909 I0.0753 J0
G3 X5.9671 Y-8.7156 I0 J0.0753
G3 X5.9546 Y-8.7031 I-0.0125 J0
G1 X5.9421
G1 X5.9393 Z0.0441
G1 X5.9366 Z0.045
G1 X5.9343 Z0.0465
G1 X5.9323 Z0.0485
G1 X5.9308 Z0.0508
G1 X5.9299 Z0.0535
G1 X5.9296 Z0.0562
G0 Z0.325
G0 Y-8.7281
G1 Z0.0994 F30.
G1 Z0.04
G1 X5.9299 Z0.0372 F6.1
G1 X5.9308 Z0.0346
G1 X5.9323 Z0.0322
G1 X5.9343 Z0.0302
G1 X5.9366 Z0.0287
G1 X5.9393 Z0.0278
G1 X5.9421 Z0.0275
G1 X5.9546
G3 X5.9671 Y-8.7156 I0 J0.0125
G3 X5.8918 Y-8.6403 I-0.0753 J0
G3 X5.8165 Y-8.7156 I0 J-0.0753
G3 X5.8918 Y-8.7909 I0.0753 J0
G3 X5.9671 Y-8.7156 I0 J0.0753
G3 X5.9546 Y-8.7031 I-0.0125 J0
G1 X5.9421
G1 X5.9393 Z0.0278
G1 X5.9366 Z0.0287
G1 X5.9343 Z0.0302
G1 X5.9323 Z0.0322
G1 X5.9308 Z0.0346
G1 X5.9299 Z0.0372
G1 X5.9296 Z0.04
G0 Z0.325
G0 Y-8.7281
G1 Z0.0831 F30.
G1 Z0.0237
G1 X5.9299 Z0.021 F6.1
G1 X5.9308 Z0.0183
G1 X5.9323 Z0.016
G1 X5.9343 Z0.014
G1 X5.9366 Z0.0125
G1 X5.9393 Z0.0116
G1 X5.9421 Z0.0113
G1 X5.9546
G3 X5.9671 Y-8.7156 I0 J0.0125
G3 X5.8918 Y-8.6403 I-0.0753 J0
G3 X5.8165 Y-8.7156 I0 J-0.0753
G3 X5.8918 Y-8.7909 I0.0753 J0
G3 X5.9671 Y-8.7156 I0 J0.0753
G3 X5.9546 Y-8.7031 I-0.0125 J0
G1 X5.9421
G1 X5.9393 Z0.0116
G1 X5.9366 Z0.0125
G1 X5.9343 Z0.014
G1 X5.9323 Z0.016
G1 X5.9308 Z0.0183
G1 X5.9299 Z0.021
G1 X5.9296 Z0.0237
G0 Z0.325
G0 Y-8.7281
G1 Z0.0669 F30.
G1 Z0.0075
G1 X5.9299 Z0.0047 F6.1
G1 X5.9308 Z0.0021
G1 X5.9323 Z-0.0003
G1 X5.9343 Z-0.0023
G1 X5.9366 Z-0.0038
G1 X5.9393 Z-0.0047
G1 X5.9421 Z-0.005
G1 X5.9546
G3 X5.9671 Y-8.7156 I0 J0.0125
G3 X5.8918 Y-8.6403 I-0.0753 J0
G3 X5.8165 Y-8.7156 I0 J-0.0753
G3 X5.8918 Y-8.7909 I0.0753 J0
G3 X5.9671 Y-8.7156 I0 J0.0753
G3 X5.9546 Y-8.7031 I-0.0125 J0
G1 X5.9421
G1 X5.9393 Z-0.0047
G1 X5.9366 Z-0.0038
G1 X5.9343 Z-0.0023
G1 X5.9323 Z-0.0003
G1 X5.9308 Z0.0021
G1 X5.9299 Z0.0047
G1 X5.9296 Z0.0075
G0 Z0.325
G0 Y-8.7281
G1 Z0.0506 F30.
G1 Z-0.0088
G1 X5.9299 Z-0.0115 F6.1
G1 X5.9308 Z-0.0142
G1 X5.9323 Z-0.0165
G1 X5.9343 Z-0.0185
G1 X5.9366 Z-0.02
G1 X5.9393 Z-0.0209
G1 X5.9421 Z-0.0212
G1 X5.9546
G3 X5.9671 Y-8.7156 I0 J0.0125
G3 X5.8918 Y-8.6403 I-0.0753 J0
G3 X5.8165 Y-8.7156 I0 J-0.0753
G3 X5.8918 Y-8.7909 I0.0753 J0
G3 X5.9671 Y-8.7156 I0 J0.0753
G3 X5.9546 Y-8.7031 I-0.0125 J0
G1 X5.9421
G1 X5.9393 Z-0.0209
G1 X5.9366 Z-0.02
G1 X5.9343 Z-0.0185
G1 X5.9323 Z-0.0165
G1 X5.9308 Z-0.0142
G1 X5.9299 Z-0.0115
G1 X5.9296 Z-0.0088
G0 Z0.325
G0 Y-8.7281
G1 Z0.0344 F30.
G1 Z-0.0188
G1 X5.9299 Z-0.0215 F6.1
G1 X5.9308 Z-0.0242
G1 X5.9323 Z-0.0265
G1 X5.9343 Z-0.0285
G1 X5.9366 Z-0.03
G1 X5.9393 Z-0.0309
G1 X5.9421 Z-0.0312
G1 X5.9546
G3 X5.9671 Y-8.7156 I0 J0.0125
G3 X5.8918 Y-8.6403 I-0.0753 J0
G3 X5.8165 Y-8.7156 I0 J-0.0753
G3 X5.8918 Y-8.7909 I0.0753 J0
G3 X5.9671 Y-8.7156 I0 J0.0753
G3 X5.9546 Y-8.7031 I-0.0125 J0
G1 X5.9421
G1 X5.9393 Z-0.0309
G1 X5.9366 Z-0.03
G1 X5.9343 Z-0.0285
G1 X5.9323 Z-0.0265
G1 X5.9308 Z-0.0242
G1 X5.9299 Z-0.0215
G1 X5.9296 Z-0.0188
G0 Z0.325
G0 X3.0976 Y-8.2948
G1 Z0.1806 F30.
G1 Z0.1212
G1 X3.0978 Y-8.2945 Z0.1185 F6.1
G1 X3.0985 Y-8.2939 Z0.1158
G1 X3.0996 Y-8.2929 Z0.1135
G1 X3.1011 Y-8.2916 Z0.1115
G1 X3.1029 Y-8.2901 Z0.11
G1 X3.1049 Y-8.2883 Z0.1091
G1 X3.107 Y-8.2865 Z0.1087
G1 X3.1163 Y-8.2782
G3 X3.1205 Y-8.2696 I-0.0083 J0.0093
G3 X3.1174 Y-8.2605 I-0.0125 J0.0007
G1 X2.7295 Y-7.8235
G1 X1.9908 Y-8.479
G1 Z0.5938
G1 X1.8038 Y-8.6449
G1 Z0.1087 F30.
G1 X1.1415 Y-9.2327 F6.1
G1 X2.423
G1 Z0.5938
G1 X2.673
G1 Z0.1087 F30.
G1 X3.98 F6.1
G1 X3.4631 Y-8.6502
G1 Z0.5938
G1 X3.2972 Y-8.4632
G1 Z0.1087 F30.
G1 X3.1174 Y-8.2605 F6.1
G3 X3.1088 Y-8.2563 I-0.0093 J-0.0083
G3 X3.0997 Y-8.2595 I-0.0007 J-0.0125
G1 X3.0904 Y-8.2678
G1 X3.0883 Y-8.2696 Z0.1091
G1 X3.0863 Y-8.2714 Z0.11
G1 X3.0845 Y-8.2729 Z0.1115
G1 X3.0831 Y-8.2742 Z0.1135
G1 X3.0819 Y-8.2752 Z0.1158
G1 X3.0812 Y-8.2758 Z0.1185
G1 X3.081 Y-8.2761 Z0.1212
G0 Z0.325
G0 X3.0976 Y-8.2948
G1 Z0.1644 F30.
G1 Z0.105
G1 X3.0978 Y-8.2945 Z0.1022 F6.1
G1 X3.0985 Y-8.2939 Z0.0996
G1 X3.0996 Y-8.2929 Z0.0972
G1 X3.1011 Y-8.2916 Z0.0952
G1 X3.1029 Y-8.2901 Z0.0937
G1 X3.1049 Y-8.2883 Z0.0928
G1 X3.107 Y-8.2865 Z0.0925
G1 X3.1163 Y-8.2782
G3 X3.1205 Y-8.2696 I-0.0083 J0.0093
G3 X3.1174 Y-8.2605 I-0.0125 J0.0007
G1 X2.7295 Y-7.8235
G1 X1.9908 Y-8.479
G1 Z0.5938
G1 X1.8038 Y-8.6449
G1 Z0.0925 F30.
G1 X1.1415 Y-9.2327 F6.1
G1 X2.423
G1 Z0.5938
G1 X2.673
G1 Z0.0925 F30.
G1 X3.98 F6.1
G1 X3.4631 Y-8.6502
G1 Z0.5938
G1 X3.2972 Y-8.4632
G1 Z0.0925 F30.
G1 X3.1174 Y-8.2605 F6.1
G3 X3.1088 Y-8.2563 I-0.0093 J-0.0083
G3 X3.0997 Y-8.2595 I-0.0007 J-0.0125
G1 X3.0904 Y-8.2678
G1 X3.0883 Y-8.2696 Z0.0928
G1 X3.0863 Y-8.2714 Z0.0937
G1 X3.0845 Y-8.2729 Z0.0952
G1 X3.0831 Y-8.2742 Z0.0972
G1 X3.0819 Y-8.2752 Z0.0996
G1 X3.0812 Y-8.2758 Z0.1022
G1 X3.081 Y-8.2761 Z0.105
G0 Z0.325
G0 X3.0976 Y-8.2948
G1 Z0.1481 F30.
G1 Z0.0887
G1 X3.0978 Y-8.2945 Z0.086 F6.1
G1 X3.0985 Y-8.2939 Z0.0833
G1 X3.0996 Y-8.2929 Z0.081
G1 X3.1011 Y-8.2916 Z0.079
G1 X3.1029 Y-8.2901 Z0.0775
G1 X3.1049 Y-8.2883 Z0.0766
G1 X3.107 Y-8.2865 Z0.0763
G1 X3.1163 Y-8.2782
G3 X3.1205 Y-8.2696 I-0.0083 J0.0093
G3 X3.1174 Y-8.2605 I-0.0125 J0.0007
G1 X2.7295 Y-7.8235
G1 X1.9908 Y-8.479
G1 Z0.5938
G1 X1.8038 Y-8.6449
G1 Z0.0763 F30.
G1 X1.1415 Y-9.2327 F6.1
G1 X2.423
G1 Z0.5938
G1 X2.673
G1 Z0.0763 F30.
G1 X3.98 F6.1
G1 X3.4631 Y-8.6502
G1 Z0.5938
G1 X3.2972 Y-8.4632
G1 Z0.0763 F30.
G1 X3.1174 Y-8.2605 F6.1
G3 X3.1088 Y-8.2563 I-0.0093 J-0.0083
G3 X3.0997 Y-8.2595 I-0.0007 J-0.0125
G1 X3.0904 Y-8.2678
G1 X3.0883 Y-8.2696 Z0.0766
G1 X3.0863 Y-8.2714 Z0.0775
G1 X3.0845 Y-8.2729 Z0.079
G1 X3.0831 Y-8.2742 Z0.081
G1 X3.0819 Y-8.2752 Z0.0833
G1 X3.0812 Y-8.2758 Z0.086
G1 X3.081 Y-8.2761 Z0.0887
G0 Z0.325
G0 X3.0976 Y-8.2948
G1 Z0.1319 F30.
G1 Z0.0725
G1 X3.0978 Y-8.2945 Z0.0697 F6.1
G1 X3.0985 Y-8.2939 Z0.0671
G1 X3.0996 Y-8.2929 Z0.0647
G1 X3.1011 Y-8.2916 Z0.0627
G1 X3.1029 Y-8.2901 Z0.0612
G1 X3.1049 Y-8.2883 Z0.0603
G1 X3.107 Y-8.2865 Z0.06
G1 X3.1163 Y-8.2782
G3 X3.1205 Y-8.2696 I-0.0083 J0.0093
G3 X3.1174 Y-8.2605 I-0.0125 J0.0007
G1 X2.7295 Y-7.8235
G1 X1.9908 Y-8.479
G1 Z0.5938
G1 X1.8038 Y-8.6449
G1 Z0.06 F30.
G1 X1.1415 Y-9.2327 F6.1
G1 X2.423
G1 Z0.5938
G1 X2.673
G1 Z0.06 F30.
G1 X3.98 F6.1
G1 X3.4631 Y-8.6502
G1 Z0.5938
G1 X3.2972 Y-8.4632
G1 Z0.06 F30.
G1 X3.1174 Y-8.2605 F6.1
G3 X3.1088 Y-8.2563 I-0.0093 J-0.0083
G3 X3.0997 Y-8.2595 I-0.0007 J-0.0125
G1 X3.0904 Y-8.2678
G1 X3.0883 Y-8.2696 Z0.0603
G1 X3.0863 Y-8.2714 Z0.0612
G1 X3.0845 Y-8.2729 Z0.0627
G1 X3.0831 Y-8.2742 Z0.0647
G1 X3.0819 Y-8.2752 Z0.0671
G1 X3.0812 Y-8.2758 Z0.0697
G1 X3.081 Y-8.2761 Z0.0725
G0 Z0.325
G0 X3.0976 Y-8.2948
G1 Z0.1156 F30.
G1 Z0.0562
G1 X3.0978 Y-8.2945 Z0.0535 F6.1
G1 X3.0985 Y-8.2939 Z0.0508
G1 X3.0996 Y-8.2929 Z0.0485
G1 X3.1011 Y-8.2916 Z0.0465
G1 X3.1029 Y-8.2901 Z0.045
G1 X3.1049 Y-8.2883 Z0.0441
G1 X3.107 Y-8.2865 Z0.0438
G1 X3.1163 Y-8.2782
G3 X3.1205 Y-8.2696 I-0.0083 J0.0093
G3 X3.1174 Y-8.2605 I-0.0125 J0.0007
G1 X2.7295 Y-7.8235
G1 X1.9908 Y-8.479
G1 Z0.5938
G1 X1.8038 Y-8.6449
G1 Z0.0438 F30.
G1 X1.1415 Y-9.2327 F6.1
G1 X2.423
G1 Z0.5938
G1 X2.673
G1 Z0.0438 F30.
G1 X3.98 F6.1
G1 X3.4631 Y-8.6502
G1 Z0.5938
G1 X3.2972 Y-8.4632
G1 Z0.0438 F30.
G1 X3.1174 Y-8.2605 F6.1
G3 X3.1088 Y-8.2563 I-0.0093 J-0.0083
G3 X3.0997 Y-8.2595 I-0.0007 J-0.0125
G1 X3.0904 Y-8.2678
G1 X3.0883 Y-8.2696 Z0.0441
G1 X3.0863 Y-8.2714 Z0.045
G1 X3.0845 Y-8.2729 Z0.0465
G1 X3.0831 Y-8.2742 Z0.0485
G1 X3.0819 Y-8.2752 Z0.0508
G1 X3.0812 Y-8.2758 Z0.0535
G1 X3.081 Y-8.2761 Z0.0562
G0 Z0.325
G0 X3.0976 Y-8.2948
G1 Z0.0994 F30.
G1 Z0.04
G1 X3.0978 Y-8.2945 Z0.0372 F6.1
G1 X3.0985 Y-8.2939 Z0.0346
G1 X3.0996 Y-8.2929 Z0.0322
G1 X3.1011 Y-8.2916 Z0.0302
G1 X3.1029 Y-8.2901 Z0.0287
G1 X3.1049 Y-8.2883 Z0.0278
G1 X3.107 Y-8.2865 Z0.0275
G1 X3.1163 Y-8.2782
G3 X3.1205 Y-8.2696 I-0.0083 J0.0093
G3 X3.1174 Y-8.2605 I-0.0125 J0.0007
G1 X2.7295 Y-7.8235
G1 X1.9908 Y-8.479
G1 Z0.5938
G1 X1.8038 Y-8.6449
G1 Z0.0275 F30.
G1 X1.1415 Y-9.2327 F6.1
G1 X2.423
G1 Z0.5938
G1 X2.673
G1 Z0.0275 F30.
G1 X3.98 F6.1
G1 X3.4631 Y-8.6502
G1 Z0.5938
G1 X3.2972 Y-8.4632
G1 Z0.0275 F30.
G1 X3.1174 Y-8.2605 F6.1
G3 X3.1088 Y-8.2563 I-0.0093 J-0.0083
G3 X3.0997 Y-8.2595 I-0.0007 J-0.0125
G1 X3.0904 Y-8.2678
G1 X3.0883 Y-8.2696 Z0.0278
G1 X3.0863 Y-8.2714 Z0.0287
G1 X3.0845 Y-8.2729 Z0.0302
G1 X3.0831 Y-8.2742 Z0.0322
G1 X3.0819 Y-8.2752 Z0.0346
G1 X3.0812 Y-8.2758 Z0.0372
G1 X3.081 Y-8.2761 Z0.04
G0 Z0.325
G0 X3.0976 Y-8.2948
G1 Z0.0831 F30.
G1 Z0.0237
G1 X3.0978 Y-8.2945 Z0.021 F6.1
G1 X3.0985 Y-8.2939 Z0.0183
G1 X3.0996 Y-8.2929 Z0.016
G1 X3.1011 Y-8.2916 Z0.014
G1 X3.1029 Y-8.2901 Z0.0125
G1 X3.1049 Y-8.2883 Z0.0116
G1 X3.107 Y-8.2865 Z0.0113
G1 X3.1163 Y-8.2782
G3 X3.1205 Y-8.2696 I-0.0083 J0.0093
G3 X3.1174 Y-8.2605 I-0.0125 J0.0007
G1 X2.7295 Y-7.8235
G1 X1.9908 Y-8.479
G1 Z0.5938
G1 X1.8038 Y-8.6449
G1 Z0.0113 F30.
G1 X1.1415 Y-9.2327 F6.1
G1 X2.423
G1 Z0.5938
G1 X2.673
G1 Z0.0113 F30.
G1 X3.98 F6.1
G1 X3.4631 Y-8.6502
G1 Z0.5938
G1 X3.2972 Y-8.4632
G1 Z0.0113 F30.
G1 X3.1174 Y-8.2605 F6.1
G3 X3.1088 Y-8.2563 I-0.0093 J-0.0083
G3 X3.0997 Y-8.2595 I-0.0007 J-0.0125
G1 X3.0904 Y-8.2678
G1 X3.0883 Y-8.2696 Z0.0116
G1 X3.0863 Y-8.2714 Z0.0125
G1 X3.0845 Y-8.2729 Z0.014
G1 X3.0831 Y-8.2742 Z0.016
G1 X3.0819 Y-8.2752 Z0.0183
G1 X3.0812 Y-8.2758 Z0.021
G1 X3.081 Y-8.2761 Z0.0237
G0 Z0.325
G0 X3.0976 Y-8.2948
G1 Z0.0669 F30.
G1 Z0.0075
G1 X3.0978 Y-8.2945 Z0.0047 F6.1
G1 X3.0985 Y-8.2939 Z0.0021
G1 X3.0996 Y-8.2929 Z-0.0003
G1 X3.1011 Y-8.2916 Z-0.0023
G1 X3.1029 Y-8.2901 Z-0.0038
G1 X3.1049 Y-8.2883 Z-0.0047
G1 X3.107 Y-8.2865 Z-0.005
G1 X3.1163 Y-8.2782
G3 X3.1205 Y-8.2696 I-0.0083 J0.0093
G3 X3.1174 Y-8.2605 I-0.0125 J0.0007
G1 X2.7295 Y-7.8235
G1 X1.9908 Y-8.479
G1 Z0.5938
G1 X1.8038 Y-8.6449
G1 Z-0.005 F30.
G1 X1.1415 Y-9.2327 F6.1
G1 X2.423
G1 Z0.5938
G1 X2.673
G1 Z-0.005 F30.
G1 X3.98 F6.1
G1 X3.4631 Y-8.6502
G1 Z0.5938
G1 X3.2972 Y-8.4632
G1 Z-0.005 F30.
G1 X3.1174 Y-8.2605 F6.1
G3 X3.1088 Y-8.2563 I-0.0093 J-0.0083
G3 X3.0997 Y-8.2595 I-0.0007 J-0.0125
G1 X3.0904 Y-8.2678
G1 X3.0883 Y-8.2696 Z-0.0047
G1 X3.0863 Y-8.2714 Z-0.0038
G1 X3.0845 Y-8.2729 Z-0.0023
G1 X3.0831 Y-8.2742 Z-0.0003
G1 X3.0819 Y-8.2752 Z0.0021
G1 X3.0812 Y-8.2758 Z0.0047
G1 X3.081 Y-8.2761 Z0.0075
G0 Z0.325
G0 X3.0976 Y-8.2948
G1 Z0.0506 F30.
G1 Z-0.0088
G1 X3.0978 Y-8.2945 Z-0.0115 F6.1
G1 X3.0985 Y-8.2939 Z-0.0142
G1 X3.0996 Y-8.2929 Z-0.0165
G1 X3.1011 Y-8.2916 Z-0.0185
G1 X3.1029 Y-8.2901 Z-0.02
G1 X3.1049 Y-8.2883 Z-0.0209
G1 X3.107 Y-8.2865 Z-0.0212
G1 X3.1163 Y-8.2782
G3 X3.1205 Y-8.2696 I-0.0083 J0.0093
G3 X3.1174 Y-8.2605 I-0.0125 J0.0007
G1 X2.7295 Y-7.8235
G1 X1.9908 Y-8.479
G1 Z0.5938
G1 X1.8038 Y-8.6449
G1 Z-0.0212 F30.
G1 X1.1415 Y-9.2327 F6.1
G1 X2.423
G1 Z0.5938
G1 X2.673
G1 Z-0.0212 F30.
G1 X3.98 F6.1
G1 X3.4631 Y-8.6502
G1 Z0.5938
G1 X3.2972 Y-8.4632
G1 Z-0.0212 F30.
G1 X3.1174 Y-8.2605 F6.1
G3 X3.1088 Y-8.2563 I-0.0093 J-0.0083
G3 X3.0997 Y-8.2595 I-0.0007 J-0.0125
G1 X3.0904 Y-8.2678
G1 X3.0883 Y-8.2696 Z-0.0209
G1 X3.0863 Y-8.2714 Z-0.02
G1 X3.0845 Y-8.2729 Z-0.0185
G1 X3.0831 Y-8.2742 Z-0.0165
G1 X3.0819 Y-8.2752 Z-0.0142
G1 X3.0812 Y-8.2758 Z-0.0115
G1 X3.081 Y-8.2761 Z-0.0088
G0 Z0.325
G0 X3.0976 Y-8.2948
G1 Z0.0344 F30.
G1 Z-0.0188
G1 X3.0978 Y-8.2945 Z-0.0215 F6.1
G1 X3.0985 Y-8.2939 Z-0.0242
G1 X3.0996 Y-8.2929 Z-0.0265
G1 X3.1011 Y-8.2916 Z-0.0285
G1 X3.1029 Y-8.2901 Z-0.03
G1 X3.1049 Y-8.2883 Z-0.0309
G1 X3.107 Y-8.2865 Z-0.0312
G1 X3.1163 Y-8.2782
G3 X3.1205 Y-8.2696 I-0.0083 J0.0093
G3 X3.1174 Y-8.2605 I-0.0125 J0.0007
G1 X2.7295 Y-7.8235
G1 X1.9908 Y-8.479
G1 Z0.5938
G1 X1.8038 Y-8.6449
G1 Z-0.0312 F30.
G1 X1.1415 Y-9.2327 F6.1
G1 X2.423
G1 Z0.5938
G1 X2.673
G1 Z-0.0312 F30.
G1 X3.98 F6.1
G1 X3.4631 Y-8.6502
G1 Z0.5938
G1 X3.2972 Y-8.4632
G1 Z-0.0312 F30.
G1 X3.1174 Y-8.2605 F6.1
G3 X3.1088 Y-8.2563 I-0.0093 J-0.0083
G3 X3.0997 Y-8.2595 I-0.0007 J-0.0125
G1 X3.0904 Y-8.2678
G1 X3.0883 Y-8.2696 Z-0.0309
G1 X3.0863 Y-8.2714 Z-0.03
G1 X3.0845 Y-8.2729 Z-0.0285
G1 X3.0831 Y-8.2742 Z-0.0265
G1 X3.0819 Y-8.2752 Z-0.0242
G1 X3.0812 Y-8.2758 Z-0.0215
G1 X3.081 Y-8.2761 Z-0.0188
G0 Z0.5938
G0 X2.8087 Y-6.9451
G1 X2.8212 Y-6.9448 F6.1
G1 X2.8337 Y-6.9445
G3 X2.8459 Y-6.9317 I-0.0003 J0.0125
G3 X2.8301 Y-6.8189 I-0.4994 J-0.0123
G1 Z0.1087 F30.
G3 X2.2215 Y-6.4603 I-0.4836 J-0.125 F6.1
G3 X1.8629 Y-6.8189 I0.125 J-0.4836
G1 Z0.5938
G3 Y-7.0689 I0.4836 J-0.125
G1 Z0.1087 F30.
G3 X2.4715 Y-7.4276 I0.4836 J0.125 F6.1
G3 X2.8301 Y-7.0689 I-0.125 J0.4836
G1 Z0.5938
G3 X2.8459 Y-6.9317 I-0.4836 J0.125
G3 X2.842 Y-6.9229 I-0.0125 J-0.0003
G3 X2.8331 Y-6.9195 I-0.0086 J-0.0091
G1 X2.8081 Y-6.9201
G0 X2.8087 Y-6.9451
G1 X2.8212 Y-6.9448 F6.1
G1 X2.8337 Y-6.9445
G3 X2.8459 Y-6.9317 I-0.0003 J0.0125
G3 X2.8301 Y-6.8189 I-0.4994 J-0.0123
G1 Z0.0925 F30.
G3 X2.2215 Y-6.4603 I-0.4836 J-0.125 F6.1
G3 X1.8629 Y-6.8189 I0.125 J-0.4836
G1 Z0.5938
G3 Y-7.0689 I0.4836 J-0.125
G1 Z0.0925 F30.
G3 X2.4715 Y-7.4276 I0.4836 J0.125 F6.1
G3 X2.8301 Y-7.0689 I-0.125 J0.4836
G1 Z0.5938
G3 X2.8459 Y-6.9317 I-0.4836 J0.125
G3 X2.842 Y-6.9229 I-0.0125 J-0.0003
G3 X2.8331 Y-6.9195 I-0.0086 J-0.0091
G1 X2.8081 Y-6.9201
G0 X2.8087 Y-6.9451
G1 X2.8212 Y-6.9448 F6.1
G1 X2.8337 Y-6.9445
G3 X2.8459 Y-6.9317 I-0.0003 J0.0125
G3 X2.8301 Y-6.8189 I-0.4994 J-0.0123
G1 Z0.0763 F30.
G3 X2.2215 Y-6.4603 I-0.4836 J-0.125 F6.1
G3 X1.8629 Y-6.8189 I0.125 J-0.4836
G1 Z0.5938
G3 Y-7.0689 I0.4836 J-0.125
G1 Z0.0763 F30.
G3 X2.4715 Y-7.4276 I0.4836 J0.125 F6.1
G3 X2.8301 Y-7.0689 I-0.125 J0.4836
G1 Z0.5938
G3 X2.8459 Y-6.9317 I-0.4836 J0.125
G3 X2.842 Y-6.9229 I-0.0125 J-0.0003
G3 X2.8331 Y-6.9195 I-0.0086 J-0.0091
G1 X2.8081 Y-6.9201
G0 X2.8087 Y-6.9451
G1 X2.8212 Y-6.9448 F6.1
G1 X2.8337 Y-6.9445
G3 X2.8459 Y-6.9317 I-0.0003 J0.0125
G3 X2.8301 Y-6.8189 I-0.4994 J-0.0123
G1 Z0.06 F30.
G3 X2.2215 Y-6.4603 I-0.4836 J-0.125 F6.1
G3 X1.8629 Y-6.8189 I0.125 J-0.4836
G1 Z0.5938
G3 Y-7.0689 I0.4836 J-0.125
G1 Z0.06 F30.
G3 X2.4715 Y-7.4276 I0.4836 J0.125 F6.1
G3 X2.8301 Y-7.0689 I-0.125 J0.4836
G1 Z0.5938
G3 X2.8459 Y-6.9317 I-0.4836 J0.125
G3 X2.842 Y-6.9229 I-0.0125 J-0.0003
G3 X2.8331 Y-6.9195 I-0.0086 J-0.0091
G1 X2.8081 Y-6.9201
G0 X2.8087 Y-6.9451
G1 X2.8212 Y-6.9448 F6.1
G1 X2.8337 Y-6.9445
G3 X2.8459 Y-6.9317 I-0.0003 J0.0125
G3 X2.8301 Y-6.8189 I-0.4994 J-0.0123
G1 Z0.0438 F30.
G3 X2.2215 Y-6.4603 I-0.4836 J-0.125 F6.1
G3 X1.8629 Y-6.8189 I0.125 J-0.4836
G1 Z0.5938
G3 Y-7.0689 I0.4836 J-0.125
G1 Z0.0438 F30.
G3 X2.4715 Y-7.4276 I0.4836 J0.125 F6.1
G3 X2.8301 Y-7.0689 I-0.125 J0.4836
G1 Z0.5938
G3 X2.8459 Y-6.9317 I-0.4836 J0.125
G3 X2.842 Y-6.9229 I-0.0125 J-0.0003
G3 X2.8331 Y-6.9195 I-0.0086 J-0.0091
G1 X2.8081 Y-6.9201
G0 X2.8087 Y-6.9451
G1 X2.8212 Y-6.9448 F6.1
G1 X2.8337 Y-6.9445
G3 X2.8459 Y-6.9317 I-0.0003 J0.0125
G3 X2.8301 Y-6.8189 I-0.4994 J-0.0123
G1 Z0.0275 F30.
G3 X2.2215 Y-6.4603 I-0.4836 J-0.125 F6.1
G3 X1.8629 Y-6.8189 I0.125 J-0.4836
G1 Z0.5938
G3 Y-7.0689 I0.4836 J-0.125
G1 Z0.0275 F30.
G3 X2.4715 Y-7.4276 I0.4836 J0.125 F6.1
G3 X2.8301 Y-7.0689 I-0.125 J0.4836
G1 Z0.5938
G3 X2.8459 Y-6.9317 I-0.4836 J0.125
G3 X2.842 Y-6.9229 I-0.0125 J-0.0003
G3 X2.8331 Y-6.9195 I-0.0086 J-0.0091
G1 X2.8081 Y-6.9201
G0 X2.8087 Y-6.9451
G1 X2.8212 Y-6.9448 F6.1
G1 X2.8337 Y-6.9445
G3 X2.8459 Y-6.9317 I-0.0003 J0.0125
G3 X2.8301 Y-6.8189 I-0.4994 J-0.0123
G1 Z0.0113 F30.
G3 X2.2215 Y-6.4603 I-0.4836 J-0.125 F6.1
G3 X1.8629 Y-6.8189 I0.125 J-0.4836
G1 Z0.5938
G3 Y-7.0689 I0.4836 J-0.125
G1 Z0.0113 F30.
G3 X2.4715 Y-7.4276 I0.4836 J0.125 F6.1
G3 X2.8301 Y-7.0689 I-0.125 J0.4836
G1 Z0.5938
G3 X2.8459 Y-6.9317 I-0.4836 J0.125
G3 X2.842 Y-6.9229 I-0.0125 J-0.0003
G3 X2.8331 Y-6.9195 I-0.0086 J-0.0091
G1 X2.8081 Y-6.9201
G0 X2.8087 Y-6.9451
G1 X2.8212 Y-6.9448 F6.1
G1 X2.8337 Y-6.9445
G3 X2.8459 Y-6.9317 I-0.0003 J0.0125
G3 X2.8301 Y-6.8189 I-0.4994 J-0.0123
G1 Z-0.005 F30.
G3 X2.2215 Y-6.4603 I-0.4836 J-0.125 F6.1
G3 X1.8629 Y-6.8189 I0.125 J-0.4836
G1 Z0.5938
G3 Y-7.0689 I0.4836 J-0.125
G1 Z-0.005 F30.
G3 X2.4715 Y-7.4276 I0.4836 J0.125 F6.1
G3 X2.8301 Y-7.0689 I-0.125 J0.4836
G1 Z0.5938
G3 X2.8459 Y-6.9317 I-0.4836 J0.125
G3 X2.842 Y-6.9229 I-0.0125 J-0.0003
G3 X2.8331 Y-6.9195 I-0.0086 J-0.0091
G1 X2.8081 Y-6.9201
G0 X2.8087 Y-6.9451
G1 X2.8212 Y-6.9448 F6.1
G1 X2.8337 Y-6.9445
G3 X2.8459 Y-6.9317 I-0.0003 J0.0125
G3 X2.8301 Y-6.8189 I-0.4994 J-0.0123
G1 Z-0.0212 F30.
G3 X2.2215 Y-6.4603 I-0.4836 J-0.125 F6.1
G3 X1.8629 Y-6.8189 I0.125 J-0.4836
G1 Z0.5938
G3 Y-7.0689 I0.4836 J-0.125
G1 Z-0.0212 F30.
G3 X2.4715 Y-7.4276 I0.4836 J0.125 F6.1
G3 X2.8301 Y-7.0689 I-0.125 J0.4836
G1 Z0.5938
G3 X2.8459 Y-6.9317 I-0.4836 J0.125
G3 X2.842 Y-6.9229 I-0.0125 J-0.0003
G3 X2.8331 Y-6.9195 I-0.0086 J-0.0091
G1 X2.8081 Y-6.9201
G0 X2.8087 Y-6.9451
G1 X2.8212 Y-6.9448 F6.1
G1 X2.8337 Y-6.9445
G3 X2.8459 Y-6.9317 I-0.0003 J0.0125
G3 X2.8301 Y-6.8189 I-0.4994 J-0.0123
G1 Z-0.0312 F30.
G3 X2.2215 Y-6.4603 I-0.4836 J-0.125 F6.1
G3 X1.8629 Y-6.8189 I0.125 J-0.4836
G1 Z0.5938
G3 Y-7.0689 I0.4836 J-0.125
G1 Z-0.0312 F30.
G3 X2.4715 Y-7.4276 I0.4836 J0.125 F6.1
G3 X2.8301 Y-7.0689 I-0.125 J0.4836
G1 Z0.5938
G3 X2.8459 Y-6.9317 I-0.4836 J0.125
G3 X2.842 Y-6.9229 I-0.0125 J-0.0003
G3 X2.8331 Y-6.9195 I-0.0086 J-0.0091
G1 X2.8081 Y-6.9201
G0 X3.0976 Y-3.5448
G0 Z0.325
G1 Z0.1806 F30.
G1 Z0.1212
G1 X3.0978 Y-3.5445 Z0.1185 F6.1
G1 X3.0985 Y-3.5439 Z0.1158
G1 X3.0996 Y-3.5429 Z0.1135
G1 X3.1011 Y-3.5416 Z0.1115
G1 X3.1029 Y-3.5401 Z0.11
G1 X3.1049 Y-3.5383 Z0.1091
G1 X3.107 Y-3.5365 Z0.1087
G1 X3.1163 Y-3.5282
G3 X3.1174 Y-3.5105 I-0.0083 J0.0093
G1 X2.7295 Y-3.0735
G1 X1.9908 Y-3.729
G1 Z0.5938
G1 X1.8038 Y-3.8949
G1 Z0.1087 F30.
G1 X1.1415 Y-4.4827 F6.1
G1 X2.423
G1 Z0.5938
G1 X2.673
G1 Z0.1087 F30.
G1 X3.98 F6.1
G1 X3.4631 Y-3.9002
G1 Z0.5938
G1 X3.2972 Y-3.7132
G1 Z0.1087 F30.
G1 X3.1174 Y-3.5105 F6.1
G3 X3.1088 Y-3.5063 I-0.0093 J-0.0083
G3 X3.0997 Y-3.5095 I-0.0007 J-0.0125
G1 X3.0904 Y-3.5178
G1 X3.0883 Y-3.5196 Z0.1091
G1 X3.0863 Y-3.5214 Z0.11
G1 X3.0845 Y-3.5229 Z0.1115
G1 X3.0831 Y-3.5242 Z0.1135
G1 X3.0819 Y-3.5252 Z0.1158
G1 X3.0812 Y-3.5258 Z0.1185
G1 X3.081 Y-3.5261 Z0.1212
G0 Z0.325
G0 X3.0976 Y-3.5448
G1 Z0.1644 F30.
G1 Z0.105
G1 X3.0978 Y-3.5445 Z0.1022 F6.1
G1 X3.0985 Y-3.5439 Z0.0996
G1 X3.0996 Y-3.5429 Z0.0972
G1 X3.1011 Y-3.5416 Z0.0952
G1 X3.1029 Y-3.5401 Z0.0937
G1 X3.1049 Y-3.5383 Z0.0928
G1 X3.107 Y-3.5365 Z0.0925
G1 X3.1163 Y-3.5282
G3 X3.1174 Y-3.5105 I-0.0083 J0.0093
G1 X2.7295 Y-3.0735
G1 X1.9908 Y-3.729
G1 Z0.5938
G1 X1.8038 Y-3.8949
G1 Z0.0925 F30.
G1 X1.1415 Y-4.4827 F6.1
G1 X2.423
G1 Z0.5938
G1 X2.673
G1 Z0.0925 F30.
G1 X3.98 F6.1
G1 X3.4631 Y-3.9002
G1 Z0.5938
G1 X3.2972 Y-3.7132
G1 Z0.0925 F30.
G1 X3.1174 Y-3.5105 F6.1
G3 X3.1088 Y-3.5063 I-0.0093 J-0.0083
G3 X3.0997 Y-3.5095 I-0.0007 J-0.0125
G1 X3.0904 Y-3.5178
G1 X3.0883 Y-3.5196 Z0.0928
G1 X3.0863 Y-3.5214 Z0.0937
G1 X3.0845 Y-3.5229 Z0.0952
G1 X3.0831 Y-3.5242 Z0.0972
G1 X3.0819 Y-3.5252 Z0.0996
G1 X3.0812 Y-3.5258 Z0.1022
G1 X3.081 Y-3.5261 Z0.105
G0 Z0.325
G0 X3.0976 Y-3.5448
G1 Z0.1481 F30.
G1 Z0.0887
G1 X3.0978 Y-3.5445 Z0.086 F6.1
G1 X3.0985 Y-3.5439 Z0.0833
G1 X3.0996 Y-3.5429 Z0.081
G1 X3.1011 Y-3.5416 Z0.079
G1 X3.1029 Y-3.5401 Z0.0775
G1 X3.1049 Y-3.5383 Z0.0766
G1 X3.107 Y-3.5365 Z0.0763
G1 X3.1163 Y-3.5282
G3 X3.1174 Y-3.5105 I-0.0083 J0.0093
G1 X2.7295 Y-3.0735
G1 X1.9908 Y-3.729
G1 Z0.5938
G1 X1.8038 Y-3.8949
G1 Z0.0763 F30.
G1 X1.1415 Y-4.4827 F6.1
G1 X2.423
G1 Z0.5938
G1 X2.673
G1 Z0.0763 F30.
G1 X3.98 F6.1
G1 X3.4631 Y-3.9002
G1 Z0.5938
G1 X3.2972 Y-3.7132
G1 Z0.0763 F30.
G1 X3.1174 Y-3.5105 F6.1
G3 X3.1088 Y-3.5063 I-0.0093 J-0.0083
G3 X3.0997 Y-3.5095 I-0.0007 J-0.0125
G1 X3.0904 Y-3.5178
G1 X3.0883 Y-3.5196 Z0.0766
G1 X3.0863 Y-3.5214 Z0.0775
G1 X3.0845 Y-3.5229 Z0.079
G1 X3.0831 Y-3.5242 Z0.081
G1 X3.0819 Y-3.5252 Z0.0833
G1 X3.0812 Y-3.5258 Z0.086
G1 X3.081 Y-3.5261 Z0.0887
G0 Z0.325
G0 X3.0976 Y-3.5448
G1 Z0.1319 F30.
G1 Z0.0725
G1 X3.0978 Y-3.5445 Z0.0697 F6.1
G1 X3.0985 Y-3.5439 Z0.0671
G1 X3.0996 Y-3.5429 Z0.0647
G1 X3.1011 Y-3.5416 Z0.0627
G1 X3.1029 Y-3.5401 Z0.0612
G1 X3.1049 Y-3.5383 Z0.0603
G1 X3.107 Y-3.5365 Z0.06
G1 X3.1163 Y-3.5282
G3 X3.1174 Y-3.5105 I-0.0083 J0.0093
G1 X2.7295 Y-3.0735
G1 X1.9908 Y-3.729
G1 Z0.5938
G1 X1.8038 Y-3.8949
G1 Z0.06 F30.
G1 X1.1415 Y-4.4827 F6.1
G1 X2.423
G1 Z0.5938
G1 X2.673
G1 Z0.06 F30.
G1 X3.98 F6.1
G1 X3.4631 Y-3.9002
G1 Z0.5938
G1 X3.2972 Y-3.7132
G1 Z0.06 F30.
G1 X3.1174 Y-3.5105 F6.1
G3 X3.1088 Y-3.5063 I-0.0093 J-0.0083
G3 X3.0997 Y-3.5095 I-0.0007 J-0.0125
G1 X3.0904 Y-3.5178
G1 X3.0883 Y-3.5196 Z0.0603
G1 X3.0863 Y-3.5214 Z0.0612
G1 X3.0845 Y-3.5229 Z0.0627
G1 X3.0831 Y-3.5242 Z0.0647
G1 X3.0819 Y-3.5252 Z0.0671
G1 X3.0812 Y-3.5258 Z0.0697
G1 X3.081 Y-3.5261 Z0.0725
G0 Z0.325
G0 X3.0976 Y-3.5448
G1 Z0.1156 F30.
G1 Z0.0562
G1 X3.0978 Y-3.5445 Z0.0535 F6.1
G1 X3.0985 Y-3.5439 Z0.0508
G1 X3.0996 Y-3.5429 Z0.0485
G1 X3.1011 Y-3.5416 Z0.0465
G1 X3.1029 Y-3.5401 Z0.045
G1 X3.1049 Y-3.5383 Z0.0441
G1 X3.107 Y-3.5365 Z0.0438
G1 X3.1163 Y-3.5282
G3 X3.1174 Y-3.5105 I-0.0083 J0.0093
G1 X2.7295 Y-3.0735
G1 X1.9908 Y-3.729
G1 Z0.5938
G1 X1.8038 Y-3.8949
G1 Z0.0438 F30.
G1 X1.1415 Y-4.4827 F6.1
G1 X2.423
G1 Z0.5938
G1 X2.673
G1 Z0.0438 F30.
G1 X3.98 F6.1
G1 X3.4631 Y-3.9002
G1 Z0.5938
G1 X3.2972 Y-3.7132
G1 Z0.0438 F30.
G1 X3.1174 Y-3.5105 F6.1
G3 X3.1088 Y-3.5063 I-0.0093 J-0.0083
G3 X3.0997 Y-3.5095 I-0.0007 J-0.0125
G1 X3.0904 Y-3.5178
G1 X3.0883 Y-3.5196 Z0.0441
G1 X3.0863 Y-3.5214 Z0.045
G1 X3.0845 Y-3.5229 Z0.0465
G1 X3.0831 Y-3.5242 Z0.0485
G1 X3.0819 Y-3.5252 Z0.0508
G1 X3.0812 Y-3.5258 Z0.0535
G1 X3.081 Y-3.5261 Z0.0562
G0 Z0.325
G0 X3.0976 Y-3.5448
G1 Z0.0994 F30.
G1 Z0.04
G1 X3.0978 Y-3.5445 Z0.0372 F6.1
G1 X3.0985 Y-3.5439 Z0.0346
G1 X3.0996 Y-3.5429 Z0.0322
G1 X3.1011 Y-3.5416 Z0.0302
G1 X3.1029 Y-3.5401 Z0.0287
G1 X3.1049 Y-3.5383 Z0.0278
G1 X3.107 Y-3.5365 Z0.0275
G1 X3.1163 Y-3.5282
G3 X3.1174 Y-3.5105 I-0.0083 J0.0093
G1 X2.7295 Y-3.0735
G1 X1.9908 Y-3.729
G1 Z0.5938
G1 X1.8038 Y-3.8949
G1 Z0.0275 F30.
G1 X1.1415 Y-4.4827 F6.1
G1 X2.423
G1 Z0.5938
G1 X2.673
G1 Z0.0275 F30.
G1 X3.98 F6.1
G1 X3.4631 Y-3.9002
G1 Z0.5938
G1 X3.2972 Y-3.7132
G1 Z0.0275 F30.
G1 X3.1174 Y-3.5105 F6.1
G3 X3.1088 Y-3.5063 I-0.0093 J-0.0083
G3 X3.0997 Y-3.5095 I-0.0007 J-0.0125
G1 X3.0904 Y-3.5178
G1 X3.0883 Y-3.5196 Z0.0278
G1 X3.0863 Y-3.5214 Z0.0287
G1 X3.0845 Y-3.5229 Z0.0302
G1 X3.0831 Y-3.5242 Z0.0322
G1 X3.0819 Y-3.5252 Z0.0346
G1 X3.0812 Y-3.5258 Z0.0372
G1 X3.081 Y-3.5261 Z0.04
G0 Z0.325
G0 X3.0976 Y-3.5448
G1 Z0.0831 F30.
G1 Z0.0237
G1 X3.0978 Y-3.5445 Z0.021 F6.1
G1 X3.0985 Y-3.5439 Z0.0183
G1 X3.0996 Y-3.5429 Z0.016
G1 X3.1011 Y-3.5416 Z0.014
G1 X3.1029 Y-3.5401 Z0.0125
G1 X3.1049 Y-3.5383 Z0.0116
G1 X3.107 Y-3.5365 Z0.0113
G1 X3.1163 Y-3.5282
G3 X3.1174 Y-3.5105 I-0.0083 J0.0093
G1 X2.7295 Y-3.0735
G1 X1.9908 Y-3.729
G1 Z0.5938
G1 X1.8038 Y-3.8949
G1 Z0.0113 F30.
G1 X1.1415 Y-4.4827 F6.1
G1 X2.423
G1 Z0.5938
G1 X2.673
G1 Z0.0113 F30.
G1 X3.98 F6.1
G1 X3.4631 Y-3.9002
G1 Z0.5938
G1 X3.2972 Y-3.7132
G1 Z0.0113 F30.
G1 X3.1174 Y-3.5105 F6.1
G3 X3.1088 Y-3.5063 I-0.0093 J-0.0083
G3 X3.0997 Y-3.5095 I-0.0007 J-0.0125
G1 X3.0904 Y-3.5178
G1 X3.0883 Y-3.5196 Z0.0116
G1 X3.0863 Y-3.5214 Z0.0125
G1 X3.0845 Y-3.5229 Z0.014
G1 X3.0831 Y-3.5242 Z0.016
G1 X3.0819 Y-3.5252 Z0.0183
G1 X3.0812 Y-3.5258 Z0.021
G1 X3.081 Y-3.5261 Z0.0237
G0 Z0.325
G0 X3.0976 Y-3.5448
G1 Z0.0669 F30.
G1 Z0.0075
G1 X3.0978 Y-3.5445 Z0.0047 F6.1
G1 X3.0985 Y-3.5439 Z0.0021
G1 X3.0996 Y-3.5429 Z-0.0003
G1 X3.1011 Y-3.5416 Z-0.0023
G1 X3.1029 Y-3.5401 Z-0.0038
G1 X3.1049 Y-3.5383 Z-0.0047
G1 X3.107 Y-3.5365 Z-0.005
G1 X3.1163 Y-3.5282
G3 X3.1174 Y-3.5105 I-0.0083 J0.0093
G1 X2.7295 Y-3.0735
G1 X1.9908 Y-3.729
G1 Z0.5938
G1 X1.8038 Y-3.8949
G1 Z-0.005 F30.
G1 X1.1415 Y-4.4827 F6.1
G1 X2.423
G1 Z0.5938
G1 X2.673
G1 Z-0.005 F30.
G1 X3.98 F6.1
G1 X3.4631 Y-3.9002
G1 Z0.5938
G1 X3.2972 Y-3.7132
G1 Z-0.005 F30.
G1 X3.1174 Y-3.5105 F6.1
G3 X3.1088 Y-3.5063 I-0.0093 J-0.0083
G3 X3.0997 Y-3.5095 I-0.0007 J-0.0125
G1 X3.0904 Y-3.5178
G1 X3.0883 Y-3.5196 Z-0.0047
G1 X3.0863 Y-3.5214 Z-0.0038
G1 X3.0845 Y-3.5229 Z-0.0023
G1 X3.0831 Y-3.5242 Z-0.0003
G1 X3.0819 Y-3.5252 Z0.0021
G1 X3.0812 Y-3.5258 Z0.0047
G1 X3.081 Y-3.5261 Z0.0075
G0 Z0.325
G0 X3.0976 Y-3.5448
G1 Z0.0506 F30.
G1 Z-0.0088
G1 X3.0978 Y-3.5445 Z-0.0115 F6.1
G1 X3.0985 Y-3.5439 Z-0.0142
G1 X3.0996 Y-3.5429 Z-0.0165
G1 X3.1011 Y-3.5416 Z-0.0185
G1 X3.1029 Y-3.5401 Z-0.02
G1 X3.1049 Y-3.5383 Z-0.0209
G1 X3.107 Y-3.5365 Z-0.0212
G1 X3.1163 Y-3.5282
G3 X3.1174 Y-3.5105 I-0.0083 J0.0093
G1 X2.7295 Y-3.0735
G1 X1.9908 Y-3.729
G1 Z0.5938
G1 X1.8038 Y-3.8949
G1 Z-0.0212 F30.
G1 X1.1415 Y-4.4827 F6.1
G1 X2.423
G1 Z0.5938
G1 X2.673
G1 Z-0.0212 F30.
G1 X3.98 F6.1
G1 X3.4631 Y-3.9002
G1 Z0.5938
G1 X3.2972 Y-3.7132
G1 Z-0.0212 F30.
G1 X3.1174 Y-3.5105 F6.1
G3 X3.1088 Y-3.5063 I-0.0093 J-0.0083
G3 X3.0997 Y-3.5095 I-0.0007 J-0.0125
G1 X3.0904 Y-3.5178
G1 X3.0883 Y-3.5196 Z-0.0209
G1 X3.0863 Y-3.5214 Z-0.02
G1 X3.0845 Y-3.5229 Z-0.0185
G1 X3.0831 Y-3.5242 Z-0.0165
G1 X3.0819 Y-3.5252 Z-0.0142
G1 X3.0812 Y-3.5258 Z-0.0115
G1 X3.081 Y-3.5261 Z-0.0088
G0 Z0.325
G0 X3.0976 Y-3.5448
G1 Z0.0344 F30.
G1 Z-0.0188
G1 X3.0978 Y-3.5445 Z-0.0215 F6.1
G1 X3.0985 Y-3.5439 Z-0.0242
G1 X3.0996 Y-3.5429 Z-0.0265
G1 X3.1011 Y-3.5416 Z-0.0285
G1 X3.1029 Y-3.5401 Z-0.03
G1 X3.1049 Y-3.5383 Z-0.0309
G1 X3.107 Y-3.5365 Z-0.0312
G1 X3.1163 Y-3.5282
G3 X3.1174 Y-3.5105 I-0.0083 J0.0093
G1 X2.7295 Y-3.0735
G1 X1.9908 Y-3.729
G1 Z0.5938
G1 X1.8038 Y-3.8949
G1 Z-0.0312 F30.
G1 X1.1415 Y-4.4827 F6.1
G1 X2.423
G1 Z0.5938
G1 X2.673
G1 Z-0.0312 F30.
G1 X3.98 F6.1
G1 X3.4631 Y-3.9002
G1 Z0.5938
G1 X3.2972 Y-3.7132
G1 Z-0.0312 F30.
G1 X3.1174 Y-3.5105 F6.1
G3 X3.1088 Y-3.5063 I-0.0093 J-0.0083
G3 X3.0997 Y-3.5095 I-0.0007 J-0.0125
G1 X3.0904 Y-3.5178
G1 X3.0883 Y-3.5196 Z-0.0309
G1 X3.0863 Y-3.5214 Z-0.03
G1 X3.0845 Y-3.5229 Z-0.0285
G1 X3.0831 Y-3.5242 Z-0.0265
G1 X3.0819 Y-3.5252 Z-0.0242
G1 X3.0812 Y-3.5258 Z-0.0215
G1 X3.081 Y-3.5261 Z-0.0188
G0 Z0.5938
G0 X4.4138 Y-2.6525
G1 X4.4263 F6.1
G1 X4.4388
G3 X4.4513 Y-2.64 I0 J0.0125
G1 Y-2.6284
G1 Z0.1087 F30.
G1 Y-1.5456 F6.1
G1 X3.9801 Y-1.9637
G1 Z0.5938
G1 X3.7932 Y-2.1296
G1 Z0.1087 F30.
G1 X3.2647 Y-2.5985 F6.1
G1 X3.8089 Y-3.2118
G1 Z0.5938
G1 X3.9749 Y-3.3988
G1 Z0.1087 F30.
G1 X4.4513 Y-3.9357 F6.1
G1 Y-2.8784
G1 Z0.5938
G1 Y-2.64
G3 X4.4436 Y-2.6284 I-0.0125 J0
G1 Z0.1087 F30.
G1 X4.4413 Y-2.6277 F6.1
G1 X4.4388 Y-2.6275
G1 X4.4263
G1 X4.4235 Z0.1091
G1 X4.4209 Z0.11
G1 X4.4185 Z0.1115
G1 X4.4165 Z0.1135
G1 X4.4151 Z0.1158
G1 X4.4141 Z0.1185
G1 X4.4138 Z0.1212
G0 Z0.5938
G0 Y-2.6525
G1 X4.4263 F6.1
G1 X4.4388
G3 X4.4513 Y-2.64 I0 J0.0125
G1 Y-2.6284
G1 Z0.0925 F30.
G1 Y-1.5456 F6.1
G1 X3.9801 Y-1.9637
G1 Z0.5938
G1 X3.7932 Y-2.1296
G1 Z0.0925 F30.
G1 X3.2647 Y-2.5985 F6.1
G1 X3.8089 Y-3.2118
G1 Z0.5938
G1 X3.9749 Y-3.3988
G1 Z0.0925 F30.
G1 X4.4513 Y-3.9357 F6.1
G1 Y-2.8784
G1 Z0.5938
G1 Y-2.64
G3 X4.4436 Y-2.6284 I-0.0125 J0
G1 Z0.0925 F30.
G1 X4.4413 Y-2.6277 F6.1
G1 X4.4388 Y-2.6275
G1 X4.4263
G1 X4.4235 Z0.0928
G1 X4.4209 Z0.0937
G1 X4.4185 Z0.0952
G1 X4.4165 Z0.0972
G1 X4.4151 Z0.0996
G1 X4.4141 Z0.1022
G1 X4.4138 Z0.105
G0 Z0.5938
G0 Y-2.6525
G1 X4.4263 F6.1
G1 X4.4388
G3 X4.4513 Y-2.64 I0 J0.0125
G1 Y-2.6284
G1 Z0.0763 F30.
G1 Y-1.5456 F6.1
G1 X3.9801 Y-1.9637
G1 Z0.5938
G1 X3.7932 Y-2.1296
G1 Z0.0763 F30.
G1 X3.2647 Y-2.5985 F6.1
G1 X3.8089 Y-3.2118
G1 Z0.5938
G1 X3.9749 Y-3.3988
G1 Z0.0763 F30.
G1 X4.4513 Y-3.9357 F6.1
G1 Y-2.8784
G1 Z0.5938
G1 Y-2.64
G3 X4.4436 Y-2.6284 I-0.0125 J0
G1 Z0.0763 F30.
G1 X4.4413 Y-2.6277 F6.1
G1 X4.4388 Y-2.6275
G1 X4.4263
G1 X4.4235 Z0.0766
G1 X4.4209 Z0.0775
G1 X4.4185 Z0.079
G1 X4.4165 Z0.081
G1 X4.4151 Z0.0833
G1 X4.4141 Z0.086
G1 X4.4138 Z0.0887
G0 Z0.5938
G0 Y-2.6525
G1 X4.4263 F6.1
G1 X4.4388
G3 X4.4513 Y-2.64 I0 J0.0125
G1 Y-2.6284
G1 Z0.06 F30.
G1 Y-1.5456 F6.1
G1 X3.9801 Y-1.9637
G1 Z0.5938
G1 X3.7932 Y-2.1296
G1 Z0.06 F30.
G1 X3.2647 Y-2.5985 F6.1
G1 X3.8089 Y-3.2118
G1 Z0.5938
G1 X3.9749 Y-3.3988
G1 Z0.06 F30.
G1 X4.4513 Y-3.9357 F6.1
G1 Y-2.8784
G1 Z0.5938
G1 Y-2.64
G3 X4.4436 Y-2.6284 I-0.0125 J0
G1 Z0.06 F30.
G1 X4.4413 Y-2.6277 F6.1
G1 X4.4388 Y-2.6275
G1 X4.4263
G1 X4.4235 Z0.0603
G1 X4.4209 Z0.0612
G1 X4.4185 Z0.0627
G1 X4.4165 Z0.0647
G1 X4.4151 Z0.0671
G1 X4.4141 Z0.0697
G1 X4.4138 Z0.0725
G0 Z0.5938
G0 Y-2.6525
G1 X4.4263 F6.1
G1 X4.4388
G3 X4.4513 Y-2.64 I0 J0.0125
G1 Y-2.6284
G1 Z0.0438 F30.
G1 Y-1.5456 F6.1
G1 X3.9801 Y-1.9637
G1 Z0.5938
G1 X3.7932 Y-2.1296
G1 Z0.0438 F30.
G1 X3.2647 Y-2.5985 F6.1
G1 X3.8089 Y-3.2118
G1 Z0.5938
G1 X3.9749 Y-3.3988
G1 Z0.0438 F30.
G1 X4.4513 Y-3.9357 F6.1
G1 Y-2.8784
G1 Z0.5938
G1 Y-2.64
G3 X4.4436 Y-2.6284 I-0.0125 J0
G1 Z0.0438 F30.
G1 X4.4413 Y-2.6277 F6.1
G1 X4.4388 Y-2.6275
G1 X4.4263
G1 X4.4235 Z0.0441
G1 X4.4209 Z0.045
G1 X4.4185 Z0.0465
G1 X4.4165 Z0.0485
G1 X4.4151 Z0.0508
G1 X4.4141 Z0.0535
G1 X4.4138 Z0.0562
G0 Z0.5938
G0 Y-2.6525
G1 X4.4263 F6.1
G1 X4.4388
G3 X4.4513 Y-2.64 I0 J0.0125
G1 Y-2.6284
G1 Z0.0275 F30.
G1 Y-1.5456 F6.1
G1 X3.9801 Y-1.9637
G1 Z0.5938
G1 X3.7932 Y-2.1296
G1 Z0.0275 F30.
G1 X3.2647 Y-2.5985 F6.1
G1 X3.8089 Y-3.2118
G1 Z0.5938
G1 X3.9749 Y-3.3988
G1 Z0.0275 F30.
G1 X4.4513 Y-3.9357 F6.1
G1 Y-2.8784
G1 Z0.5938
G1 Y-2.64
G3 X4.4436 Y-2.6284 I-0.0125 J0
G1 Z0.0275 F30.
G1 X4.4413 Y-2.6277 F6.1
G1 X4.4388 Y-2.6275
G1 X4.4263
