(1001)
(T1  D=0.25 CR=0 - ZMIN=-0.8 - FLAT END MILL)
G0 G40 G90 G17
G20

(2D POCKET1)
T1 M6
M3 S1220
G0 X-2.6064 Y1.4497
G0 Z0.6
G0 Z0.2
G1 Z0.125 F6.
G1 X-2.6065 Y1.4485 Z0.1174
G1 X-2.6068 Y1.4452 Z0.1106
G1 X-2.607 Y1.4398 Z0.1051
G1 X-2.6069 Y1.4331 Z0.1014
G1 X-2.6064 Y1.4256 Z0.1
G1 X-2.6053 Y1.4171 Z0.0997
G1 X-2.6035 Y1.4086 Z0.0994
G1 X-2.6011 Y1.4003 Z0.0991
G1 X-2.598 Y1.3922 Z0.0988
G1 X-2.5945 Y1.3843 Z0.0985
G1 X-2.5903 Y1.3768 Z0.0982
G1 X-2.5856 Y1.3695 Z0.0979
G1 X-2.5804 Y1.3626 Z0.0976
G1 X-2.5747 Y1.3561 Z0.0973
G1 X-2.5686 Y1.35 Z0.097
G1 X-2.562 Y1.3444 Z0.0967
G1 X-2.555 Y1.3393 Z0.0964
G1 X-2.5477 Y1.3347 Z0.0961
G1 X-2.5401 Y1.3307 Z0.0958
G1 X-2.5322 Y1.3272 Z0.0955
G1 X-2.524 Y1.3243 Z0.0952
G1 X-2.5157 Y1.322 Z0.0949
G1 X-2.5072 Y1.3203 Z0.0946
G1 X-2.4987 Y1.3192 Z0.0943
G1 X-2.49 Y1.3188 Z0.094
G1 X-2.4814 Y1.3189 Z0.0937
G1 X-2.4728 Y1.3198 Z0.0934
G1 X-2.4643 Y1.3212 Z0.0931
G1 X-2.4559 Y1.3233 Z0.0928
G1 X-2.4476 Y1.3259 Z0.0925
G1 X-2.4396 Y1.3292 Z0.0922
G1 X-2.4319 Y1.333 Z0.0918
G1 X-2.4244 Y1.3374 Z0.0915
G1 X-2.4173 Y1.3423 Z0.0912
G1 X-2.4106 Y1.3477 Z0.0909
G1 X-2.4043 Y1.3536 Z0.0906
G1 X-2.3984 Y1.3599 Z0.0903
G1 X-2.393 Y1.3666 Z0.09
G1 X-2.3881 Y1.3738 Z0.0897
G1 X-2.3837 Y1.3812 Z0.0894
G1 X-2.3799 Y1.389 Z0.0891
G1 X-2.3766 Y1.397 Z0.0888
G1 X-2.374 Y1.4052 Z0.0885
G1 X-2.372 Y1.4136 Z0.0882
G1 X-2.3705 Y1.4221 Z0.0879
G1 X-2.3697 Y1.4307 Z0.0876
G1 X-2.3695 Y1.4394 Z0.0873
G1 X-2.37 Y1.448 Z0.087
G1 X-2.3711 Y1.4566 Z0.0867
G1 X-2.3728 Y1.4651 Z0.0864
G1 X-2.3751 Y1.4734 Z0.0861
G1 X-2.378 Y1.4815 Z0.0858
G1 X-2.3815 Y1.4894 Z0.0855
G1 X-2.3855 Y1.4971 Z0.0852
G1 X-2.3901 Y1.5044 Z0.0849
G1 X-2.3953 Y1.5113 Z0.0846
G1 X-2.4009 Y1.5179 Z0.0843
G1 X-2.407 Y1.524 Z0.084
G1 X-2.4135 Y1.5297 Z0.0837
G1 X-2.4204 Y1.5349 Z0.0834
G1 X-2.4276 Y1.5396 Z0.0831
G1 X-2.4352 Y1.5437 Z0.0828
G1 X-2.4431 Y1.5473 Z0.0825
G1 X-2.4512 Y1.5503 Z0.0822
G1 X-2.4595 Y1.5527 Z0.0819
G1 X-2.468 Y1.5545 Z0.0816
G1 X-2.4765 Y1.5557 Z0.0813
G1 X-2.4851 Y1.5562 Z0.081
G1 X-2.4938 Y1.5561 Z0.0807
G1 X-2.5024 Y1.5554 Z0.0804
G1 X-2.5109 Y1.5541 Z0.0801
G1 X-2.5194 Y1.5521 Z0.0798
G1 X-2.5276 Y1.5495 Z0.0795
G1 X-2.5357 Y1.5464 Z0.0792
G1 X-2.5434 Y1.5427 Z0.0789
G1 X-2.5509 Y1.5384 Z0.0786
G1 X-2.5581 Y1.5335 Z0.0783
G1 X-2.5649 Y1.5282 Z0.078
G1 X-2.5713 Y1.5224 Z0.0777
G1 X-2.5773 Y1.5161 Z0.0774
G1 X-2.5827 Y1.5094 Z0.0771
G1 X-2.5877 Y1.5024 Z0.0768
G1 X-2.5922 Y1.495 Z0.0765
G1 X-2.5961 Y1.4873 Z0.0762
G1 X-2.5994 Y1.4793 Z0.0759
G1 X-2.6022 Y1.4711 Z0.0755
G1 X-2.6043 Y1.4627 Z0.0752
G1 X-2.6058 Y1.4542 Z0.0749
G1 X-2.6067 Y1.4456 Z0.0746
G1 X-2.607 Y1.437 Z0.0743
G1 X-2.6067 Y1.4284 Z0.074
G1 X-2.6057 Y1.4198 Z0.0737
G1 X-2.6041 Y1.4113 Z0.0734
G1 X-2.6019 Y1.4029 Z0.0731
G1 X-2.5991 Y1.3948 Z0.0728
G1 X-2.5957 Y1.3868 Z0.0725
G1 X-2.5917 Y1.3791 Z0.0722
G1 X-2.5872 Y1.3718 Z0.0719
G1 X-2.5821 Y1.3647 Z0.0716
G1 X-2.5766 Y1.3581 Z0.0713
G1 X-2.5706 Y1.3519 Z0.071
G1 X-2.5641 Y1.3461 Z0.0707
G1 X-2.5573 Y1.3409 Z0.0704
G1 X-2.5501 Y1.3361 Z0.0701
G1 X-2.5425 Y1.3319 Z0.0698
G1 X-2.5347 Y1.3282 Z0.0695
G1 X-2.5266 Y1.3251 Z0.0692
G1 X-2.5184 Y1.3226 Z0.0689
G1 X-2.5099 Y1.3207 Z0.0686
G1 X-2.5014 Y1.3195 Z0.0683
G1 X-2.4928 Y1.3188 Z0.068
G1 X-2.4841 Z0.0677
G1 X-2.4755 Y1.3194 Z0.0674
G1 X-2.467 Y1.3207 Z0.0671
G1 X-2.4585 Y1.3225 Z0.0668
G1 X-2.4502 Y1.325 Z0.0665
G1 X-2.4422 Y1.3281 Z0.0662
G1 X-2.4343 Y1.3317 Z0.0659
G1 X-2.4268 Y1.3359 Z0.0656
G1 X-2.4195 Y1.3407 Z0.0653
G1 X-2.4127 Y1.3459 Z0.065
G1 X-2.4062 Y1.3517 Z0.0647
G1 X-2.4002 Y1.3579 Z0.0644
G1 X-2.3946 Y1.3645 Z0.0641
G1 X-2.3896 Y1.3715 Z0.0638
G1 X-2.385 Y1.3788 Z0.0635
G1 X-2.381 Y1.3865 Z0.0632
G1 X-2.3776 Y1.3944 Z0.0629
G1 X-2.3748 Y1.4026 Z0.0626
G1 X-2.3725 Y1.4109 Z0.0623
G1 X-2.3709 Y1.4194 Z0.062
G1 X-2.3699 Y1.428 Z0.0617
G1 X-2.3695 Y1.4366 Z0.0614
G1 X-2.3698 Y1.4453 Z0.0611
G1 X-2.3707 Y1.4539 Z0.0608
G1 X-2.3722 Y1.4624 Z0.0605
G1 X-2.3743 Y1.4708 Z0.0602
G1 X-2.377 Y1.479 Z0.0599
G1 X-2.3803 Y1.487 Z0.0596
G1 X-2.3842 Y1.4947 Z0.0592
G1 X-2.3886 Y1.5021 Z0.0589
G1 X-2.3936 Y1.5092 Z0.0586
G1 X-2.3991 Y1.5159 Z0.0583
G1 X-2.405 Y1.5221 Z0.058
G1 X-2.4114 Y1.528 Z0.0577
G1 X-2.4181 Y1.5333 Z0.0574
G1 X-2.4253 Y1.5382 Z0.0571
G1 X-2.4328 Y1.5425 Z0.0568
G1 X-2.4406 Y1.5462 Z0.0565
G1 X-2.4486 Y1.5494 Z0.0562
G1 X-2.4569 Y1.552 Z0.0559
G1 X-2.4653 Y1.554 Z0.0556
G1 X-2.4738 Y1.5554 Z0.0553
G1 X-2.4824 Y1.5561 Z0.055
G1 X-2.4911 Y1.5562 Z0.0547
G1 X-2.4997 Y1.5557 Z0.0544
G1 X-2.5082 Y1.5546 Z0.0541
G1 X-2.5167 Y1.5528 Z0.0538
G1 X-2.525 Y1.5504 Z0.0535
G1 X-2.5331 Y1.5475 Z0.0532
G1 X-2.541 Y1.5439 Z0.0529
G1 X-2.5486 Y1.5398 Z0.0526
G1 X-2.5559 Y1.5351 Z0.0523
G1 X-2.5628 Y1.5299 Z0.052
G1 X-2.5693 Y1.5243 Z0.0517
G1 X-2.5754 Y1.5182 Z0.0514
G1 X-2.5811 Y1.5116 Z0.0511
G1 X-2.5862 Y1.5047 Z0.0508
G1 X-2.5908 Y1.4974 Z0.0505
G1 X-2.5949 Y1.4897 Z0.0502
G1 X-2.5984 Y1.4818 Z0.0499
G1 X-2.6014 Y1.4737 Z0.0496
G1 X-2.6037 Y1.4654 Z0.0493
G1 X-2.6054 Y1.4569 Z0.049
G1 X-2.6065 Y1.4484 Z0.0487
G1 X-2.607 Y1.4397 Z0.0484
G1 X-2.6069 Y1.4311 Z0.0481
G1 X-2.6061 Y1.4225 Z0.0478
G1 X-2.6047 Y1.414 Z0.0475
G1 X-2.6026 Y1.4056 Z0.0472
G1 X-2.6 Y1.3973 Z0.0469
G1 X-2.5968 Y1.3893 Z0.0466
G1 X-2.593 Y1.3815 Z0.0463
G1 X-2.5887 Y1.3741 Z0.046
G1 X-2.5838 Y1.3669 Z0.0457
G1 X-2.5784 Y1.3602 Z0.0454
G1 X-2.5725 Y1.3538 Z0.0451
G1 X-2.5662 Y1.3479 Z0.0448
G1 X-2.5595 Y1.3425 Z0.0445
G1 X-2.5524 Y1.3376 Z0.0442
G1 X-2.545 Y1.3332 Z0.0439
G1 X-2.5372 Y1.3293 Z0.0436
G1 X-2.5292 Y1.326 Z0.0433
G1 X-2.521 Y1.3234 Z0.0429
G1 X-2.5126 Y1.3213 Z0.0426
G1 X-2.5041 Y1.3198 Z0.0423
G1 X-2.4955 Y1.319 Z0.042
G1 X-2.4869 Y1.3188 Z0.0417
G1 X-2.4782 Y1.3192 Z0.0414
G1 X-2.4697 Y1.3202 Z0.0411
G1 X-2.4612 Y1.3219 Z0.0408
G1 X-2.4528 Y1.3242 Z0.0405
G1 X-2.4447 Y1.327 Z0.0402
G1 X-2.4368 Y1.3305 Z0.0399
G1 X-2.4291 Y1.3345 Z0.0396
G1 X-2.4218 Y1.3391 Z0.0393
G1 X-2.4148 Y1.3442 Z0.039
G1 X-2.4082 Y1.3498 Z0.0387
G1 X-2.4021 Y1.3558 Z0.0384
G1 X-2.3963 Y1.3623 Z0.0381
G1 X-2.3911 Y1.3692 Z0.0378
G1 X-2.3864 Y1.3765 Z0.0375
G1 X-2.3822 Y1.384 Z0.0372
G1 X-2.3786 Y1.3919 Z0.0369
G1 X-2.3756 Y1.4 Z0.0366
G1 X-2.3732 Y1.4083 Z0.0363
G1 X-2.3714 Y1.4167 Z0.036
G1 X-2.3702 Y1.4253 Z0.0357
G1 X-2.3696 Y1.4339 Z0.0354
G1 Y1.4425 Z0.0351
G1 X-2.3703 Y1.4512 Z0.0348
G1 X-2.3716 Y1.4597 Z0.0345
G1 X-2.3735 Y1.4681 Z0.0342
G1 X-2.3761 Y1.4764 Z0.0339
G1 X-2.3792 Y1.4844 Z0.0336
G1 X-2.3829 Y1.4923 Z0.0333
G1 X-2.3872 Y1.4998 Z0.033
G1 X-2.392 Y1.507 Z0.0327
G1 X-2.3973 Y1.5138 Z0.0324
G1 X-2.4031 Y1.5202 Z0.0321
G1 X-2.4093 Y1.5262 Z0.0318
G1 X-2.416 Y1.5317 Z0.0315
G1 X-2.423 Y1.5367 Z0.0312
G1 X-2.4304 Y1.5412 Z0.0309
G1 X-2.4381 Y1.5451 Z0.0306
G1 X-2.446 Y1.5485 Z0.0303
G1 X-2.4542 Y1.5513 Z0.03
G1 X-2.4626 Y1.5534 Z0.0297
G1 X-2.4711 Y1.555 Z0.0294
G1 X-2.4797 Y1.5559 Z0.0291
G1 X-2.4883 Y1.5563 Z0.0288
G1 X-2.497 Y1.5559 Z0.0285
G1 X-2.5055 Y1.555 Z0.0282
G1 X-2.514 Y1.5534 Z0.0279
G1 X-2.5224 Y1.5512 Z0.0276
G1 X-2.5306 Y1.5485 Z0.0273
G1 X-2.5385 Y1.5451 Z0.027
G1 X-2.5462 Y1.5411 Z0.0266
G1 X-2.5536 Y1.5367 Z0.0263
G1 X-2.5607 Y1.5316 Z0.026
G1 X-2.5673 Y1.5261 Z0.0257
G1 X-2.5735 Y1.5201 Z0.0254
G1 X-2.5793 Y1.5137 Z0.0251
G1 X-2.5846 Y1.5069 Z0.0248
G1 X-2.5894 Y1.4997 Z0.0245
G1 X-2.5937 Y1.4922 Z0.0242
G1 X-2.5974 Y1.4844 Z0.0239
G1 X-2.6005 Y1.4763 Z0.0236
G1 X-2.603 Y1.4681 Z0.0233
G1 X-2.6049 Y1.4596 Z0.023
G1 X-2.6062 Y1.4511 Z0.0227
G1 X-2.6069 Y1.4425 Z0.0224
G1 X-2.607 Y1.4338 Z0.0221
G1 X-2.6064 Y1.4252 Z0.0218
G1 X-2.6052 Y1.4166 Z0.0215
G1 X-2.6034 Y1.4082 Z0.0212
G1 X-2.6009 Y1.3999 Z0.0209
G1 X-2.5979 Y1.3918 Z0.0206
G1 X-2.5943 Y1.384 Z0.0203
G1 X-2.5901 Y1.3764 Z0.02
G1 X-2.5854 Y1.3692 Z0.0197
G1 X-2.5802 Y1.3623 Z0.0194
G1 X-2.5744 Y1.3558 Z0.0191
G1 X-2.5683 Y1.3497 Z0.0188
G1 X-2.5617 Y1.3442 Z0.0185
G1 X-2.5547 Y1.3391 Z0.0182
G1 X-2.5474 Y1.3345 Z0.0179
G1 X-2.5397 Y1.3305 Z0.0176
G1 X-2.5318 Y1.327 Z0.0173
G1 X-2.5236 Y1.3241 Z0.017
G1 X-2.5153 Y1.3219 Z0.0167
G1 X-2.5068 Y1.3202 Z0.0164
G1 X-2.4982 Y1.3192 Z0.0161
G1 X-2.4896 Y1.3188 Z0.0158
G1 X-2.481 Y1.319 Z0.0155
G1 X-2.4724 Y1.3198 Z0.0152
G1 X-2.4638 Y1.3213 Z0.0149
G1 X-2.4555 Y1.3234 Z0.0146
G1 X-2.4472 Y1.3261 Z0.0143
G1 X-2.4392 Y1.3293 Z0.014
G1 X-2.4315 Y1.3332 Z0.0137
G1 X-2.4241 Y1.3376 Z0.0134
G1 X-2.417 Y1.3425 Z0.0131
G1 X-2.4103 Y1.348 Z0.0128
G1 X-2.404 Y1.3539 Z0.0125
G1 X-2.3981 Y1.3602 Z0.0122
G1 X-2.3927 Y1.367 Z0.0119
G1 X-2.3878 Y1.3741 Z0.0116
G1 X-2.3835 Y1.3816 Z0.0113
G1 X-2.3797 Y1.3894 Z0.011
G1 X-2.3765 Y1.3974 Z0.0107
G1 X-2.3739 Y1.4056 Z0.0103
G1 X-2.3719 Y1.414 Z0.01
G1 X-2.3705 Y1.4226 Z0.0097
G1 X-2.3697 Y1.4312 Z0.0094
G1 X-2.3695 Y1.4398 Z0.0091
G1 X-2.37 Y1.4484 Z0.0088
G1 X-2.3711 Y1.457 Z0.0085
G1 X-2.3729 Y1.4655 Z0.0082
G1 X-2.3752 Y1.4738 Z0.0079
G1 X-2.3781 Y1.4819 Z0.0076
G1 X-2.3817 Y1.4898 Z0.0073
G1 X-2.3858 Y1.4974 Z0.007
G1 X-2.3904 Y1.5047 Z0.0067
G1 X-2.3955 Y1.5117 Z0.0064
G1 X-2.4012 Y1.5182 Z0.0061
G1 X-2.4073 Y1.5243 Z0.0058
G1 X-2.4138 Y1.53 Z0.0055
G1 X-2.4207 Y1.5352 Z0.0052
G1 X-2.428 Y1.5398 Z0.0049
G1 X-2.4356 Y1.5439 Z0.0046
G1 X-2.4435 Y1.5475 Z0.0043
G1 X-2.4516 Y1.5504 Z0.004
G1 X-2.4599 Y1.5528 Z0.0037
G1 X-2.4684 Y1.5546 Z0.0034
G1 X-2.4769 Y1.5557 Z0.0031
G1 X-2.4856 Y1.5562 Z0.0028
G1 X-2.4942 Y1.5561 Z0.0025
G1 X-2.5028 Y1.5554 Z0.0022
G1 X-2.5114 Y1.554 Z0.0019
G1 X-2.5198 Y1.552 Z0.0016
G1 X-2.528 Y1.5494 Z0.0013
G1 X-2.536 Y1.5462 Z0.001
G1 X-2.5438 Y1.5425 Z0.0007
G1 X-2.5513 Y1.5381 Z0.0004
G1 X-2.5585 Y1.5333 Z0.0001
G1 X-2.5652 Y1.5279 Z-0.0002
G1 X-2.5716 Y1.5221 Z-0.0005
G1 X-2.5776 Y1.5158 Z-0.0008
G1 X-2.583 Y1.5091 Z-0.0011
G1 X-2.588 Y1.502 Z-0.0014
G1 X-2.5924 Y1.4946 Z-0.0017
G1 X-2.5963 Y1.4869 Z-0.002
G1 X-2.5996 Y1.4789 Z-0.0023
G1 X-2.6023 Y1.4707 Z-0.0026
G1 X-2.6044 Y1.4623 Z-0.0029
G1 X-2.6059 Y1.4538 Z-0.0032
G1 X-2.6068 Y1.4452 Z-0.0035
G1 X-2.607 Y1.4366 Z-0.0038
G1 X-2.6066 Y1.4279 Z-0.0041
G1 X-2.6056 Y1.4193 Z-0.0044
G1 X-2.604 Y1.4109 Z-0.0047
G1 X-2.6018 Y1.4025 Z-0.005
G1 X-2.5989 Y1.3944 Z-0.0053
G1 X-2.5955 Y1.3864 Z-0.0057
G1 X-2.5915 Y1.3788 Z-0.006
G1 X-2.5869 Y1.3714 Z-0.0063
G1 X-2.5819 Y1.3644 Z-0.0066
G1 X-2.5763 Y1.3578 Z-0.0069
G1 X-2.5703 Y1.3516 Z-0.0072
G1 X-2.5638 Y1.3459 Z-0.0075
G1 X-2.5569 Y1.3406 Z-0.0078
G1 X-2.5497 Y1.3359 Z-0.0081
G1 X-2.5422 Y1.3317 Z-0.0084
G1 X-2.5343 Y1.328 Z-0.0087
G1 X-2.5262 Y1.325 Z-0.009
G1 X-2.518 Y1.3225 Z-0.0093
G1 X-2.5095 Y1.3207 Z-0.0096
G1 X-2.501 Y1.3194 Z-0.0099
G1 X-2.4923 Y1.3188 Z-0.0102
G1 X-2.4837 Z-0.0105
G1 X-2.4751 Y1.3195 Z-0.0108
G1 X-2.4665 Y1.3208 Z-0.0111
G1 X-2.4581 Y1.3226 Z-0.0114
G1 X-2.4498 Y1.3251 Z-0.0117
G1 X-2.4418 Y1.3282 Z-0.012
G1 X-2.4339 Y1.3319 Z-0.0123
G1 X-2.4264 Y1.3361 Z-0.0126
G1 X-2.4192 Y1.3409 Z-0.0129
G1 X-2.4123 Y1.3462 Z-0.0132
G1 X-2.4059 Y1.352 Z-0.0135
G1 X-2.3999 Y1.3582 Z-0.0138
G1 X-2.3944 Y1.3648 Z-0.0141
G1 X-2.3893 Y1.3718 Z-0.0144
G1 X-2.3848 Y1.3792 Z-0.0147
G1 X-2.3809 Y1.3869 Z-0.015
G1 X-2.3775 Y1.3948 Z-0.0153
G1 X-2.3746 Y1.403 Z-0.0156
G1 X-2.3724 Y1.4114 Z-0.0159
G1 X-2.3708 Y1.4198 Z-0.0162
G1 X-2.3699 Y1.4284 Z-0.0165
G1 X-2.3695 Y1.4371 Z-0.0168
G1 X-2.3698 Y1.4457 Z-0.0171
G1 X-2.3707 Y1.4543 Z-0.0174
G1 X-2.3723 Y1.4628 Z-0.0177
G1 X-2.3744 Y1.4712 Z-0.018
G1 X-2.3772 Y1.4794 Z-0.0183
G1 X-2.3805 Y1.4873 Z-0.0186
G1 X-2.3844 Y1.495 Z-0.0189
G1 X-2.3889 Y1.5025 Z-0.0192
G1 X-2.3938 Y1.5095 Z-0.0195
G1 X-2.3993 Y1.5162 Z-0.0198
G1 X-2.4053 Y1.5224 Z-0.0201
G1 X-2.4117 Y1.5283 Z-0.0204
G1 X-2.4185 Y1.5336 Z-0.0207
G1 X-2.4257 Y1.5384 Z-0.021
G1 X-2.4332 Y1.5427 Z-0.0213
G1 X-2.441 Y1.5464 Z-0.0216
G1 X-2.449 Y1.5496 Z-0.022
G1 X-2.4573 Y1.5521 Z-0.0223
G1 X-2.4657 Y1.5541 Z-0.0226
G1 X-2.4742 Y1.5554 Z-0.0229
G1 X-2.4828 Y1.5561 Z-0.0232
G1 X-2.4915 Y1.5562 Z-0.0235
G1 X-2.5001 Y1.5557 Z-0.0238
G1 X-2.5087 Y1.5545 Z-0.0241
G1 X-2.5171 Y1.5527 Z-0.0244
G1 X-2.5254 Y1.5503 Z-0.0247
G1 X-2.5335 Y1.5473 Z-0.025
G1 X-2.5414 Y1.5437 Z-0.0253
G1 X-2.549 Y1.5396 Z-0.0256
G1 X-2.5562 Y1.5349 Z-0.0259
G1 X-2.5631 Y1.5297 Z-0.0262
G1 X-2.5696 Y1.524 Z-0.0265
G1 X-2.5757 Y1.5178 Z-0.0268
G1 X-2.5813 Y1.5113 Z-0.0271
G1 X-2.5865 Y1.5043 Z-0.0274
G1 X-2.591 Y1.497 Z-0.0277
G1 X-2.5951 Y1.4894 Z-0.028
G1 X-2.5986 Y1.4814 Z-0.0283
G1 X-2.6015 Y1.4733 Z-0.0286
G1 X-2.6038 Y1.465 Z-0.0289
G1 X-2.6055 Y1.4565 Z-0.0292
G1 X-2.6066 Y1.4479 Z-0.0295
G1 X-2.607 Y1.4393 Z-0.0298
G1 X-2.6068 Y1.4307 Z-0.0301
G1 X-2.606 Y1.4221 Z-0.0304
G1 X-2.6046 Y1.4135 Z-0.0307
G1 X-2.6025 Y1.4051 Z-0.031
G1 X-2.5999 Y1.3969 Z-0.0313
G1 X-2.5966 Y1.3889 Z-0.0316
G1 X-2.5928 Y1.3812 Z-0.0319
G1 X-2.5884 Y1.3737 Z-0.0322
G1 X-2.5835 Y1.3666 Z-0.0325
G1 X-2.5781 Y1.3598 Z-0.0328
G1 X-2.5722 Y1.3535 Z-0.0331
G1 X-2.5659 Y1.3476 Z-0.0334
G1 X-2.5592 Y1.3422 Z-0.0337
G1 X-2.552 Y1.3373 Z-0.034
G1 X-2.5446 Y1.333 Z-0.0343
G1 X-2.5368 Y1.3291 Z-0.0346
G1 X-2.5288 Y1.3259 Z-0.0349
G1 X-2.5206 Y1.3232 Z-0.0352
G1 X-2.5122 Y1.3212 Z-0.0355
G1 X-2.5037 Y1.3198 Z-0.0358
G1 X-2.4951 Y1.3189 Z-0.0361
G1 X-2.4864 Y1.3188 Z-0.0364
G1 X-2.4778 Y1.3192 Z-0.0367
G1 X-2.4692 Y1.3203 Z-0.037
G1 X-2.4608 Y1.322 Z-0.0373
G1 X-2.4524 Y1.3243 Z-0.0376
G1 X-2.4443 Y1.3272 Z-0.0379
G1 X-2.4364 Y1.3307 Z-0.0383
G1 X-2.4288 Y1.3347 Z-0.0386
G1 X-2.4214 Y1.3393 Z-0.0389
G1 X-2.4145 Y1.3445 Z-0.0392
G1 X-2.4079 Y1.3501 Z-0.0395
G1 X-2.4018 Y1.3562 Z-0.0398
G1 X-2.3961 Y1.3627 Z-0.0401
G1 X-2.3909 Y1.3696 Z-0.0404
G1 X-2.3862 Y1.3768 Z-0.0407
G1 X-2.382 Y1.3844 Z-0.041
G1 X-2.3785 Y1.3923 Z-0.0413
G1 X-2.3755 Y1.4004 Z-0.0416
G1 X-2.3731 Y1.4087 Z-0.0419
G1 X-2.3713 Y1.4171 Z-0.0422
G1 X-2.3701 Y1.4257 Z-0.0425
G1 X-2.3696 Y1.4343 Z-0.0428
G1 X-2.3697 Y1.443 Z-0.0431
G1 X-2.3704 Y1.4516 Z-0.0434
G1 X-2.3717 Y1.4601 Z-0.0437
G1 X-2.3737 Y1.4685 Z-0.044
G1 X-2.3762 Y1.4768 Z-0.0443
G1 X-2.3794 Y1.4848 Z-0.0446
G1 X-2.3831 Y1.4926 Z-0.0449
G1 X-2.3874 Y1.5001 Z-0.0452
G1 X-2.3922 Y1.5073 Z-0.0455
G1 X-2.3975 Y1.5141 Z-0.0458
G1 X-2.4034 Y1.5205 Z-0.0461
G1 X-2.4096 Y1.5265 Z-0.0464
G1 X-2.4163 Y1.532 Z-0.0467
G1 X-2.4234 Y1.5369 Z-0.047
G1 X-2.4308 Y1.5414 Z-0.0473
G1 X-2.4385 Y1.5453 Z-0.0476
G1 X-2.4464 Y1.5486 Z-0.0479
G1 X-2.4546 Y1.5514 Z-0.0482
G1 X-2.463 Y1.5535 Z-0.0485
G1 X-2.4715 Y1.5551 Z-0.0488
G1 X-2.4801 Y1.556 Z-0.0491
G1 X-2.4887 Y1.5562 Z-0.0494
G1 X-2.4974 Y1.5559 Z-0.0497
G1 X-2.506 Y1.5549 Z-0.05
G1 X-2.5145 Y1.5533 Z-0.0503
G1 X-2.5228 Y1.5511 Z-0.0506
G1 X-2.531 Y1.5483 Z-0.0509
G1 X-2.5389 Y1.5449 Z-0.0512
G1 X-2.5466 Y1.5409 Z-0.0515
G1 X-2.554 Y1.5364 Z-0.0518
G1 X-2.561 Y1.5314 Z-0.0521
G1 X-2.5676 Y1.5258 Z-0.0524
G1 X-2.5738 Y1.5198 Z-0.0527
G1 X-2.5796 Y1.5134 Z-0.053
G1 X-2.5849 Y1.5066 Z-0.0533
G1 X-2.5897 Y1.4993 Z-0.0536
G1 X-2.5939 Y1.4918 Z-0.0539
G1 X-2.5975 Y1.484 Z-0.0542
G1 X-2.6006 Y1.4759 Z-0.0546
G1 X-2.6031 Y1.4676 Z-0.0549
G1 X-2.605 Y1.4592 Z-0.0552
G1 X-2.6063 Y1.4507 Z-0.0555
G1 X-2.6069 Y1.442 Z-0.0558
G1 X-2.607 Y1.4334 Z-0.0561
G1 X-2.6063 Y1.4248 Z-0.0564
G1 X-2.6051 Y1.4162 Z-0.0567
G1 X-2.6032 Y1.4078 Z-0.057
G1 X-2.6008 Y1.3995 Z-0.0573
G1 X-2.5977 Y1.3914 Z-0.0576
G1 X-2.5941 Y1.3836 Z-0.0579
G1 X-2.5899 Y1.376 Z-0.0582
G1 X-2.5851 Y1.3688 Z-0.0585
G1 X-2.5799 Y1.3619 Z-0.0588
G1 X-2.5741 Y1.3555 Z-0.0591
G1 X-2.5679 Y1.3494 Z-0.0594
G1 X-2.5613 Y1.3439 Z-0.0597
G1 X-2.5543 Y1.3388 Z-0.06
G1 X-2.547 Y1.3343 Z-0.0603
G1 X-2.5393 Y1.3303 Z-0.0606
G1 X-2.5314 Y1.3269 Z-0.0609
G1 X-2.5232 Y1.324 Z-0.0612
G1 X-2.5149 Y1.3218 Z-0.0615
G1 X-2.5064 Y1.3201 Z-0.0618
G1 X-2.4978 Y1.3191 Z-0.0621
G1 X-2.4892 Y1.3188 Z-0.0624
G1 X-2.4805 Y1.319 Z-0.0627
G1 X-2.4719 Y1.3199 Z-0.063
G1 X-2.4634 Y1.3214 Z-0.0633
G1 X-2.455 Y1.3235 Z-0.0636
G1 X-2.4468 Y1.3262 Z-0.0639
G1 X-2.4389 Y1.3295 Z-0.0642
G1 X-2.4311 Y1.3334 Z-0.0645
G1 X-2.4237 Y1.3378 Z-0.0648
G1 X-2.4166 Y1.3428 Z-0.0651
G1 X-2.4099 Y1.3483 Z-0.0654
G1 X-2.4037 Y1.3542 Z-0.0657
G1 X-2.3978 Y1.3606 Z-0.066
G1 X-2.3925 Y1.3673 Z-0.0663
G1 X-2.3876 Y1.3745 Z-0.0666
G1 X-2.3833 Y1.382 Z-0.0669
G1 X-2.3795 Y1.3898 Z-0.0672
G1 X-2.3764 Y1.3978 Z-0.0675
G1 X-2.3738 Y1.406 Z-0.0678
G1 X-2.3718 Y1.4145 Z-0.0681
G1 X-2.3704 Y1.423 Z-0.0684
G1 X-2.3697 Y1.4316 Z-0.0687
G1 X-2.3696 Y1.4402 Z-0.069
G1 X-2.3701 Y1.4489 Z-0.0693
G1 X-2.3712 Y1.4574 Z-0.0696
G1 X-2.373 Y1.4659 Z-0.0699
G1 X-2.3753 Y1.4742 Z-0.0702
G1 X-2.3783 Y1.4823 Z-0.0705
G1 X-2.3819 Y1.4902 Z-0.0709
G1 X-2.386 Y1.4978 Z-0.0712
G1 X-2.3906 Y1.5051 Z-0.0715
G1 X-2.3958 Y1.512 Z-0.0718
G1 X-2.4015 Y1.5185 Z-0.0721
G1 X-2.4076 Y1.5246 Z-0.0724
G1 X-2.4141 Y1.5303 Z-0.0727
G1 X-2.4211 Y1.5354 Z-0.073
G1 X-2.4284 Y1.54 Z-0.0733
G1 X-2.436 Y1.5441 Z-0.0736
G1 X-2.4439 Y1.5476 Z-0.0739
G1 X-2.452 Y1.5506 Z-0.0742
G1 X-2.4603 Y1.5529 Z-0.0745
G1 X-2.4688 Y1.5546 Z-0.0748
G1 X-2.4774 Y1.5557 Z-0.0751
G1 X-2.486 Y1.5562 Z-0.0754
G1 X-2.4946 Y1.5561 Z-0.0757
G1 X-2.5033 Y1.5553 Z-0.076
G1 X-2.5118 Y1.5539 Z-0.0763
G1 X-2.5202 Y1.5519 Z-0.0766
G1 X-2.5284 Y1.5493 Z-0.0769
G1 X-2.5364 Y1.546 Z-0.0772
G1 X-2.5442 Y1.5423 Z-0.0775
G1 X-2.5517 Y1.5379 Z-0.0778
G1 X-2.5588 Y1.533 Z-0.0781
G1 X-2.5656 Y1.5276 Z-0.0784
G1 X-2.5719 Y1.5218 Z-0.0787
G1 X-2.5778 Y1.5155 Z-0.079
G1 X-2.5833 Y1.5088 Z-0.0793
G1 X-2.5882 Y1.5017 Z-0.0796
G1 X-2.5926 Y1.4942 Z-0.0799
G1 X-2.5964 Y1.4865 Z-0.0802
G1 X-2.5997 Y1.4785 Z-0.0805
G1 X-2.6024 Y1.4703 Z-0.0808
G1 X-2.6045 Y1.4619 Z-0.0811
G1 X-2.606 Y1.4534 Z-0.0814
G1 X-2.6068 Y1.4448 Z-0.0817
G1 X-2.607 Y1.4361 Z-0.082
G1 X-2.6066 Y1.4275 Z-0.0823
G1 X-2.6056 Y1.4189 Z-0.0826
G1 X-2.6039 Y1.4104 Z-0.0829
G1 X-2.6016 Y1.4021 Z-0.0832
G1 X-2.5988 Y1.394 Z-0.0835
G1 X-2.5953 Y1.386 Z-0.0838
G1 X-2.5913 Y1.3784 Z-0.0841
G1 X-2.5867 Y1.3711 Z-0.0844
G1 X-2.5816 Y1.3641 Z-0.0847
G1 X-2.576 Y1.3575 Z-0.085
G1 X-2.57 Y1.3513 Z-0.0853
G1 X-2.5635 Y1.3456 Z-0.0856
G1 X-2.5566 Y1.3404 Z-0.0859
G1 X-2.5493 Y1.3357 Z-0.0862
G1 X-2.5418 Y1.3315 Z-0.0865
G1 X-2.5339 Y1.3279 Z-0.0868
G1 X-2.5258 Y1.3248 Z-0.0872
G1 X-2.5175 Y1.3224 Z-0.0875
G1 X-2.5091 Y1.3206 Z-0.0878
G1 X-2.5005 Y1.3194 Z-0.0881
G1 X-2.4919 Y1.3188 Z-0.0884
G1 X-2.4833 Y1.3189 Z-0.0887
G1 X-2.4747 Y1.3195 Z-0.089
G1 X-2.4661 Y1.3208 Z-0.0893
G1 X-2.4577 Y1.3228 Z-0.0896
G1 X-2.4494 Y1.3253 Z-0.0899
G1 X-2.4414 Y1.3284 Z-0.0902
G1 X-2.4336 Y1.3321 Z-0.0905
G1 X-2.426 Y1.3364 Z-0.0908
G1 X-2.4188 Y1.3412 Z-0.0911
G1 X-2.412 Y1.3465 Z-0.0914
G1 X-2.4056 Y1.3523 Z-0.0917
G1 X-2.3996 Y1.3585 Z-0.092
G1 X-2.3941 Y1.3652 Z-0.0923
G1 X-2.3891 Y1.3722 Z-0.0926
G1 X-2.3846 Y1.3796 Z-0.0929
G1 X-2.3807 Y1.3873 Z-0.0932
G1 X-2.3773 Y1.3952 Z-0.0935
G1 X-2.3745 Y1.4034 Z-0.0938
G1 X-2.3723 Y1.4118 Z-0.0941
G1 X-2.3708 Y1.4203 Z-0.0944
G1 X-2.3698 Y1.4289 Z-0.0947
G1 X-2.3695 Y1.4375 Z-0.095
G1 Y1.4927 F30.
G3 X-2.3823 Y1.5055 I-0.0128 J0
G1 X-18.6405
G3 X-18.6532 Y1.4927 I0 J-0.0128
G1 Y1.3823
G3 X-18.6405 Y1.3695 I0.0128 J0
G1 X-2.3823
G3 X-2.3695 Y1.3823 I0 J0.0128
G1 Y1.4375
G2 X-2.2819 Y1.5606 I0.1303 J0
G3 X-2.2347 Y1.658 I-0.0251 J0.0724
G3 X-2.307 Y1.7095 I-0.0724 J-0.0251
G1 X-18.8445
G3 X-18.8573 Y1.6968 I0 J-0.0128
G1 Y1.1782
G3 X-18.8445 Y1.1655 I0.0128 J0
G1 X-2.1782
G3 X-2.1655 Y1.1782 I0 J0.0128
G1 Y1.6968
G3 X-2.1782 Y1.7095 I-0.0128 J0
G1 X-2.307
G2 X-2.4601 Y1.8116 I0 J0.1658
G3 X-2.6131 Y1.9136 I-0.153 J-0.0638
G1 X-19.0486
G3 X-19.0613 Y1.9008 I0 J-0.0128
G1 Y0.9742
G3 X-19.0486 Y0.9614 I0.0128 J0
G1 X-1.9742
G3 X-1.9614 Y0.9742 I0 J0.0128
G1 Y1.9008
G3 X-1.9742 Y1.9136 I-0.0128 J0
G1 X-2.6131
G2 X-2.7662 Y2.0156 I0 J0.1658
G3 X-2.9192 Y2.1176 I-0.153 J-0.0638
G1 X-19.2526
G3 X-19.2654 Y2.1049 I0 J-0.0128
G1 Y0.7701
G3 X-19.2526 Y0.7574 I0.0128 J0
G1 X-1.7701
G3 X-1.7574 Y0.7701 I0 J0.0128
G1 Y2.1049
G3 X-1.7701 Y2.1176 I-0.0128 J0
G1 X-2.9192
G2 X-3.0722 Y2.2197 I0 J0.1658
G3 X-3.2253 Y2.3217 I-0.153 J-0.0638
G1 X-19.4567
G3 X-19.4694 Y2.3089 I0 J-0.0128
G1 Y0.5661
G3 X-19.4567 Y0.5533 I0.0128 J0
G1 X-1.5661
G3 X-1.5533 Y0.5661 I0 J0.0128
G1 Y2.3089
G3 X-1.5661 Y2.3217 I-0.0128 J0
G1 X-3.2253
G2 X-3.3783 Y2.4237 I0 J0.1658
G3 X-3.5314 Y2.5257 I-0.153 J-0.0638
G1 X-19.6607
G3 X-19.6735 Y2.513 I0 J-0.0128
G1 Y0.362
G3 X-19.6607 Y0.3493 I0.0128 J0
G1 X-1.362
G3 X-1.3493 Y0.362 I0 J0.0128
G1 Y2.513
G3 X-1.362 Y2.5257 I-0.0128 J0
G1 X-3.5314
G2 X-3.6845 Y2.6279 I0 J0.166
G3 X-3.8377 Y2.73 I-0.1532 J-0.0638
G1 X-19.8778
G1 Y0.145
G1 X-1.145
G1 Y2.73
G1 X-3.8377
G3 X-3.8502 Y2.7175 I0 J-0.0125
G3 X-3.8461 Y2.7082 I0.0125 J0
G1 X-2.5597 Y1.551
G2 X-2.5587 Y1.5334 I-0.0084 J-0.0093
G2 X-2.5604 Y1.5318 I-0.0093 J0.0084
G1 X-2.5671 Y1.5263 Z-0.0953 F6.
G1 X-2.5733 Y1.5204 Z-0.0956
G1 X-2.5791 Y1.514 Z-0.0959
G1 X-2.5844 Y1.5072 Z-0.0962
G1 X-2.5892 Y1.5 Z-0.0965
G1 X-2.5935 Y1.4925 Z-0.0968
G1 X-2.5972 Y1.4847 Z-0.0971
G1 X-2.6004 Y1.4767 Z-0.0974
G1 X-2.6029 Y1.4684 Z-0.0977
G1 X-2.6049 Y1.46 Z-0.098
G1 X-2.6062 Y1.4515 Z-0.0983
G1 X-2.6069 Y1.4429 Z-0.0986
G1 X-2.607 Y1.4342 Z-0.0989
G1 X-2.6064 Y1.4256 Z-0.0992
G1 X-2.6053 Y1.4171 Z-0.0995
G1 X-2.6035 Y1.4086 Z-0.0998
G1 X-2.6011 Y1.4003 Z-0.1001
G1 X-2.5981 Y1.3922 Z-0.1004
G1 X-2.5945 Y1.3844 Z-0.1007
G1 X-2.5903 Y1.3768 Z-0.101
G1 X-2.5856 Y1.3695 Z-0.1013
G1 X-2.5805 Y1.3626 Z-0.1016
G1 X-2.5748 Y1.3561 Z-0.1019
G1 X-2.5686 Y1.3501 Z-0.1022
G1 X-2.5621 Y1.3445 Z-0.1025
G1 X-2.5551 Y1.3393 Z-0.1028
G1 X-2.5478 Y1.3347 Z-0.1031
G1 X-2.5402 Y1.3307 Z-0.1034
G1 X-2.5323 Y1.3272 Z-0.1037
G1 X-2.5241 Y1.3243 Z-0.104
G1 X-2.5158 Y1.322 Z-0.1043
G1 X-2.5074 Y1.3203 Z-0.1047
G1 X-2.4988 Y1.3192 Z-0.105
G1 X-2.4902 Y1.3188 Z-0.1053
G1 X-2.4815 Y1.3189 Z-0.1056
G1 X-2.4729 Y1.3197 Z-0.1059
G1 X-2.4644 Y1.3212 Z-0.1062
G1 X-2.456 Y1.3232 Z-0.1065
G1 X-2.4478 Y1.3259 Z-0.1068
G1 X-2.4398 Y1.3291 Z-0.1071
G1 X-2.4321 Y1.3329 Z-0.1074
G1 X-2.4246 Y1.3373 Z-0.1077
G1 X-2.4175 Y1.3422 Z-0.108
G1 X-2.4107 Y1.3475 Z-0.1083
G1 X-2.4044 Y1.3534 Z-0.1086
G1 X-2.3985 Y1.3597 Z-0.1089
G1 X-2.3931 Y1.3665 Z-0.1092
G1 X-2.3882 Y1.3736 Z-0.1095
G1 X-2.3838 Y1.381 Z-0.1098
G1 X-2.38 Y1.3887 Z-0.1101
G1 X-2.3767 Y1.3967 Z-0.1104
G1 X-2.3741 Y1.405 Z-0.1107
G1 X-2.372 Y1.4133 Z-0.111
G1 X-2.3706 Y1.4218 Z-0.1113
G1 X-2.3697 Y1.4304 Z-0.1116
G1 X-2.3695 Y1.4391 Z-0.1119
G1 X-2.37 Y1.4477 Z-0.1122
G1 X-2.371 Y1.4563 Z-0.1125
G1 X-2.3727 Y1.4647 Z-0.1128
G1 X-2.375 Y1.4731 Z-0.1131
G1 X-2.3779 Y1.4812 Z-0.1134
G1 X-2.3813 Y1.4891 Z-0.1137
G1 X-2.3854 Y1.4967 Z-0.114
G1 X-2.3899 Y1.5041 Z-0.1143
G1 X-2.395 Y1.511 Z-0.1146
G1 X-2.4006 Y1.5176 Z-0.1149
G1 X-2.4067 Y1.5238 Z-0.1152
G1 X-2.4132 Y1.5295 Z-0.1155
G1 X-2.42 Y1.5347 Z-0.1158
G1 X-2.4273 Y1.5394 Z-0.1161
G1 X-2.4349 Y1.5436 Z-0.1164
G1 X-2.4427 Y1.5472 Z-0.1167
G1 X-2.4508 Y1.5502 Z-0.117
G1 X-2.4591 Y1.5526 Z-0.1173
G1 X-2.4675 Y1.5544 Z-0.1176
G1 X-2.4761 Y1.5556 Z-0.1179
G1 X-2.4847 Y1.5562 Z-0.1182
G1 X-2.4933 Y1.5561 Z-0.1185
G1 X-2.5019 Y1.5555 Z-0.1188
G1 X-2.5105 Y1.5542 Z-0.1191
G1 X-2.5189 Y1.5522 Z-0.1194
G1 X-2.5271 Y1.5497 Z-0.1197
G1 X-2.5352 Y1.5466 Z-0.12
G1 X-2.543 Y1.5429 Z-0.1203
G1 X-2.5505 Y1.5386 Z-0.1206
G1 X-2.5577 Y1.5339 Z-0.1209
G1 X-2.5645 Y1.5286 Z-0.1212
G1 X-2.5709 Y1.5228 Z-0.1215
G1 X-2.5769 Y1.5165 Z-0.1218
G1 X-2.5824 Y1.5099 Z-0.1221
G1 X-2.5874 Y1.5029 Z-0.1224
G1 X-2.5919 Y1.4955 Z-0.1227
G1 X-2.5958 Y1.4878 Z-0.123
G1 X-2.5992 Y1.4799 Z-0.1233
G1 X-2.602 Y1.4717 Z-0.1237
G1 X-2.6042 Y1.4633 Z-0.124
G1 X-2.6058 Y1.4548 Z-0.1243
G1 X-2.6067 Y1.4463 Z-0.1246
G1 X-2.607 Y1.4376 Z-0.1249
G1 X-2.6067 Y1.429 Z-0.1252
G1 X-2.6058 Y1.4204 Z-0.1255
G1 X-2.6042 Y1.4119 Z-0.1258
G1 X-2.6021 Y1.4036 Z-0.1261
G1 X-2.5993 Y1.3954 Z-0.1264
G1 X-2.5959 Y1.3874 Z-0.1267
G1 X-2.592 Y1.3797 Z-0.127
G1 X-2.5876 Y1.3723 Z-0.1273
G1 X-2.5826 Y1.3653 Z-0.1276
G1 X-2.5771 Y1.3586 Z-0.1279
G1 X-2.5711 Y1.3524 Z-0.1282
G1 X-2.5647 Y1.3466 Z-0.1285
G1 X-2.5579 Y1.3413 Z-0.1288
G1 X-2.5507 Y1.3365 Z-0.1291
G1 X-2.5432 Y1.3322 Z-0.1294
G1 X-2.5354 Y1.3285 Z-0.1297
G1 X-2.5274 Y1.3254 Z-0.13
G1 X-2.5191 Y1.3228 Z-0.1303
G1 X-2.5107 Y1.3209 Z-0.1306
G1 X-2.5022 Y1.3196 Z-0.1309
G1 X-2.4936 Y1.3189 Z-0.1312
G1 X-2.4849 Y1.3188 Z-0.1315
G1 X-2.4763 Y1.3194 Z-0.1318
G1 X-2.4678 Y1.3205 Z-0.1321
G1 X-2.4593 Y1.3223 Z-0.1324
G1 X-2.451 Y1.3247 Z-0.1327
G1 X-2.4429 Y1.3277 Z-0.133
G1 X-2.4351 Y1.3313 Z-0.1333
G1 X-2.4275 Y1.3355 Z-0.1336
G1 X-2.4203 Y1.3402 Z-0.1339
G1 X-2.4134 Y1.3454 Z-0.1342
G1 X-2.4069 Y1.3511 Z-0.1345
G1 X-2.4008 Y1.3572 Z-0.1348
G1 X-2.3952 Y1.3638 Z-0.1351
G1 X-2.3901 Y1.3707 Z-0.1354
G1 X-2.3855 Y1.378 Z-0.1357
G1 X-2.3814 Y1.3857 Z-0.136
G1 X-2.378 Y1.3936 Z-0.1363
G1 X-2.3751 Y1.4017 Z-0.1366
G1 X-2.3727 Y1.41 Z-0.1369
G1 X-2.3711 Y1.4185 Z-0.1372
G1 X-2.37 Y1.427 Z-0.1375
G1 X-2.3695 Y1.4357 Z-0.1378
G1 X-2.3697 Y1.4443 Z-0.1381
G1 X-2.3705 Y1.4529 Z-0.1384
G1 X-2.372 Y1.4614 Z-0.1387
G1 X-2.374 Y1.4698 Z-0.139
G1 X-2.3767 Y1.478 Z-0.1393
G1 X-2.3799 Y1.486 Z-0.1396
G1 X-2.3837 Y1.4938 Z-0.1399
G1 X-2.3881 Y1.5012 Z-0.1402
G1 X-2.393 Y1.5083 Z-0.1405
G1 X-2.3984 Y1.5151 Z-0.1408
G1 X-2.4042 Y1.5214 Z-0.1411
G1 X-2.4106 Y1.5273 Z-0.1414
G1 X-2.4173 Y1.5327 Z-0.1417
G1 X-2.4244 Y1.5376 Z-0.142
G1 X-2.4318 Y1.542 Z-0.1423
G1 X-2.4396 Y1.5458 Z-0.1427
G1 X-2.4476 Y1.5491 Z-0.143
G1 X-2.4558 Y1.5517 Z-0.1433
G1 X-2.4642 Y1.5538 Z-0.1436
G1 X-2.4727 Y1.5552 Z-0.1439
G1 X-2.4813 Y1.556 Z-0.1442
G1 X-2.4899 Y1.5562 Z-0.1445
G1 X-2.4985 Y1.5558 Z-0.1448
G1 X-2.5071 Y1.5547 Z-0.1451
G1 X-2.5156 Y1.5531 Z-0.1454
G1 X-2.5239 Y1.5508 Z-0.1457
G1 X-2.532 Y1.5479 Z-0.146
G1 X-2.5399 Y1.5444 Z-0.1463
G1 X-2.5476 Y1.5404 Z-0.1466
G1 X-2.5549 Y1.5358 Z-0.1469
G1 X-2.5619 Y1.5307 Z-0.1472
G1 X-2.5684 Y1.5251 Z-0.1475
G1 X-2.5746 Y1.5191 Z-0.1478
G1 X-2.5803 Y1.5126 Z-0.1481
G1 X-2.5855 Y1.5057 Z-0.1484
G1 X-2.5902 Y1.4984 Z-0.1487
G1 X-2.5944 Y1.4909 Z-0.149
G1 X-2.598 Y1.483 Z-0.1493
G1 X-2.601 Y1.4749 Z-0.1496
G1 X-2.6034 Y1.4666 Z-0.1499
G1 X-2.6052 Y1.4582 Z-0.1502
G1 X-2.6064 Y1.4496 Z-0.1505
G1 X-2.607 Y1.441 Z-0.1508
G1 X-2.6069 Y1.4324 Z-0.1511
G1 X-2.6062 Y1.4238 Z-0.1514
G1 X-2.6049 Y1.4153 Z-0.1517
G1 X-2.603 Y1.4068 Z-0.152
G1 X-2.6005 Y1.3986 Z-0.1523
G1 X-2.5973 Y1.3905 Z-0.1526
G1 X-2.5936 Y1.3827 Z-0.1529
G1 X-2.5894 Y1.3752 Z-0.1532
G1 X-2.5846 Y1.368 Z-0.1535
G1 X-2.5793 Y1.3612 Z-0.1538
G1 X-2.5735 Y1.3548 Z-0.1541
G1 X-2.5673 Y1.3488 Z-0.1544
G1 X-2.5606 Y1.3433 Z-0.1547
G1 X-2.5536 Y1.3383 Z-0.155
G1 X-2.5462 Y1.3338 Z-0.1553
G1 X-2.5385 Y1.3299 Z-0.1556
G1 X-2.5306 Y1.3265 Z-0.1559
G1 X-2.5224 Y1.3238 Z-0.1562
G1 X-2.514 Y1.3216 Z-0.1565
G1 X-2.5055 Y1.32 Z-0.1568
G1 X-2.497 Y1.3191 Z-0.1571
G1 X-2.4883 Y1.3188 Z-0.1574
G1 X-2.4797 Y1.3191 Z-0.1577
G1 X-2.4711 Y1.32 Z-0.158
G1 X-2.4626 Y1.3216 Z-0.1583
G1 X-2.4543 Y1.3237 Z-0.1586
G1 X-2.4461 Y1.3265 Z-0.1589
G1 X-2.4381 Y1.3299 Z-0.1592
G1 X-2.4305 Y1.3338 Z-0.1595
G1 X-2.4231 Y1.3383 Z-0.1598
G1 X-2.416 Y1.3433 Z-0.1601
G1 X-2.4094 Y1.3488 Z-0.1604
G1 X-2.4031 Y1.3547 Z-0.1607
G1 X-2.3973 Y1.3611 Z-0.161
G1 X-2.392 Y1.3679 Z-0.1613
G1 X-2.3872 Y1.3751 Z-0.1617
G1 X-2.383 Y1.3826 Z-0.162
G1 X-2.3793 Y1.3904 Z-0.1623
G1 X-2.3761 Y1.3985 Z-0.1626
G1 X-2.3736 Y1.4067 Z-0.1629
G1 X-2.3717 Y1.4151 Z-0.1632
G1 X-2.3703 Y1.4237 Z-0.1635
G1 X-2.3696 Y1.4323 Z-0.1638
G1 Y1.4409 Z-0.1641
G1 X-2.3701 Y1.4495 Z-0.1644
G1 X-2.3713 Y1.4581 Z-0.1647
G1 X-2.3731 Y1.4665 Z-0.165
G1 X-2.3755 Y1.4748 Z-0.1653
G1 X-2.3785 Y1.4829 Z-0.1656
G1 X-2.3821 Y1.4908 Z-0.1659
G1 X-2.3863 Y1.4983 Z-0.1662
G1 X-2.391 Y1.5056 Z-0.1665
G1 X-2.3962 Y1.5125 Z-0.1668
G1 X-2.4019 Y1.519 Z-0.1671
G1 X-2.408 Y1.525 Z-0.1674
G1 X-2.4146 Y1.5306 Z-0.1677
G1 X-2.4215 Y1.5357 Z-0.168
G1 X-2.4289 Y1.5403 Z-0.1683
G1 X-2.4365 Y1.5444 Z-0.1686
G1 X-2.4444 Y1.5478 Z-0.1689
G1 X-2.4525 Y1.5507 Z-0.1692
G1 X-2.4608 Y1.553 Z-0.1695
G1 X-2.4693 Y1.5547 Z-0.1698
G1 X-2.4779 Y1.5558 Z-0.1701
G1 X-2.4865 Y1.5562 Z-0.1704
G1 X-2.4951 Y1.5561 Z-0.1707
G1 X-2.5037 Y1.5552 Z-0.171
G1 X-2.5123 Y1.5538 Z-0.1713
G1 X-2.5206 Y1.5518 Z-0.1716
G1 X-2.5289 Y1.5491 Z-0.1719
G1 X-2.5369 Y1.5459 Z-0.1722
G1 X-2.5446 Y1.542 Z-0.1725
G1 X-2.552 Y1.5377 Z-0.1728
G1 X-2.5592 Y1.5328 Z-0.1731
G1 X-2.5659 Y1.5274 Z-0.1734
G1 X-2.5722 Y1.5215 Z-0.1737
G1 X-2.5781 Y1.5152 Z-0.174
G1 X-2.5835 Y1.5084 Z-0.1743
G1 X-2.5884 Y1.5013 Z-0.1746
G1 X-2.5928 Y1.4939 Z-0.1749
G1 X-2.5966 Y1.4861 Z-0.1752
G1 X-2.5999 Y1.4781 Z-0.1755
G1 X-2.6025 Y1.4699 Z-0.1758
G1 X-2.6046 Y1.4615 Z-0.1761
G1 X-2.606 Y1.453 Z-0.1764
G1 X-2.6068 Y1.4444 Z-0.1767
G1 X-2.607 Y1.4358 Z-0.177
G1 X-2.6066 Y1.4272 Z-0.1773
G1 X-2.6055 Y1.4186 Z-0.1776
G1 X-2.6038 Y1.4101 Z-0.1779
G1 X-2.6015 Y1.4018 Z-0.1782
G1 X-2.5986 Y1.3937 Z-0.1785
G1 X-2.5952 Y1.3858 Z-0.1788
G1 X-2.5911 Y1.3781 Z-0.1791
G1 X-2.5865 Y1.3708 Z-0.1794
G1 X-2.5814 Y1.3639 Z-0.1797
G1 X-2.5758 Y1.3573 Z-0.18
G1 X-2.5698 Y1.3511 Z-0.1803
G1 X-2.5633 Y1.3454 Z-0.1807
G1 X-2.5564 Y1.3402 Z-0.181
G1 X-2.5492 Y1.3355 Z-0.1813
G1 X-2.5416 Y1.3314 Z-0.1816
G1 X-2.5337 Y1.3278 Z-0.1819
G1 X-2.5256 Y1.3248 Z-0.1822
G1 X-2.5174 Y1.3224 Z-0.1825
G1 X-2.5089 Y1.3206 Z-0.1828
G1 X-2.5004 Y1.3194 Z-0.1831
G1 X-2.4917 Y1.3188 Z-0.1834
G1 X-2.4831 Y1.3189 Z-0.1837
G1 X-2.4745 Y1.3196 Z-0.184
G1 X-2.466 Y1.3209 Z-0.1843
G1 X-2.4575 Y1.3228 Z-0.1846
G1 X-2.4493 Y1.3253 Z-0.1849
G1 X-2.4412 Y1.3285 Z-0.1852
G1 X-2.4334 Y1.3322 Z-0.1855
G1 X-2.4259 Y1.3364 Z-0.1858
G1 X-2.4188 Y1.3412 Z-0.1861
G1 X-2.4119 Y1.3465 Z-0.1864
G1 X-2.4055 Y1.3523 Z-0.1867
G1 X-2.3996 Y1.3586 Z-0.187
G1 X-2.3941 Y1.3652 Z-0.1873
G1 X-2.3891 Y1.3722 Z-0.1876
G1 X-2.3846 Y1.3796 Z-0.1879
G1 X-2.3807 Y1.3873 Z-0.1882
G1 X-2.3773 Y1.3953 Z-0.1885
G1 X-2.3745 Y1.4034 Z-0.1888
G1 X-2.3723 Y1.4118 Z-0.1891
G1 X-2.3708 Y1.4203 Z-0.1894
G1 X-2.3698 Y1.4289 Z-0.1897
G1 X-2.3695 Y1.4375 Z-0.19
G1 Y1.4927 F30.
G3 X-2.3823 Y1.5055 I-0.0128 J0
G1 X-18.6405
G3 X-18.6532 Y1.4927 I0 J-0.0128
G1 Y1.3823
G3 X-18.6405 Y1.3695 I0.0128 J0
G1 X-2.3823
G3 X-2.3695 Y1.3823 I0 J0.0128
G1 Y1.4375
G2 X-2.2819 Y1.5606 I0.1303 J0
G3 X-2.2347 Y1.658 I-0.0251 J0.0724
G3 X-2.307 Y1.7095 I-0.0724 J-0.0251
G1 X-18.8445
G3 X-18.8573 Y1.6968 I0 J-0.0128
G1 Y1.1782
G3 X-18.8445 Y1.1655 I0.0128 J0
G1 X-2.1782
G3 X-2.1655 Y1.1782 I0 J0.0128
G1 Y1.6968
G3 X-2.1782 Y1.7095 I-0.0128 J0
G1 X-2.307
G2 X-2.4601 Y1.8116 I0 J0.1658
G3 X-2.6131 Y1.9136 I-0.153 J-0.0638
G1 X-19.0486
G3 X-19.0613 Y1.9008 I0 J-0.0128
G1 Y0.9742
G3 X-19.0486 Y0.9614 I0.0128 J0
G1 X-1.9742
G3 X-1.9614 Y0.9742 I0 J0.0128
G1 Y1.9008
G3 X-1.9742 Y1.9136 I-0.0128 J0
G1 X-2.6131
G2 X-2.7662 Y2.0156 I0 J0.1658
G3 X-2.9192 Y2.1176 I-0.153 J-0.0638
G1 X-19.2526
G3 X-19.2654 Y2.1049 I0 J-0.0128
G1 Y0.7701
G3 X-19.2526 Y0.7574 I0.0128 J0
G1 X-1.7701
G3 X-1.7574 Y0.7701 I0 J0.0128
G1 Y2.1049
G3 X-1.7701 Y2.1176 I-0.0128 J0
G1 X-2.9192
G2 X-3.0722 Y2.2197 I0 J0.1658
G3 X-3.2253 Y2.3217 I-0.153 J-0.0638
G1 X-19.4567
G3 X-19.4694 Y2.3089 I0 J-0.0128
G1 Y0.5661
G3 X-19.4567 Y0.5533 I0.0128 J0
G1 X-1.5661
G3 X-1.5533 Y0.5661 I0 J0.0128
G1 Y2.3089
G3 X-1.5661 Y2.3217 I-0.0128 J0
G1 X-3.2253
G2 X-3.3783 Y2.4237 I0 J0.1658
G3 X-3.5314 Y2.5257 I-0.153 J-0.0638
G1 X-19.6607
G3 X-19.6735 Y2.513 I0 J-0.0128
G1 Y0.362
G3 X-19.6607 Y0.3493 I0.0128 J0
G1 X-1.362
G3 X-1.3493 Y0.362 I0 J0.0128
G1 Y2.513
G3 X-1.362 Y2.5257 I-0.0128 J0
G1 X-3.5314
G2 X-3.6845 Y2.6279 I0 J0.166
G3 X-3.8377 Y2.73 I-0.1532 J-0.0638
G1 X-19.8778
G1 Y0.145
G1 X-1.145
G1 Y2.73
G1 X-3.8377
G3 X-3.8502 Y2.7175 I0 J-0.0125
G3 X-3.8461 Y2.7082 I0.0125 J0
G1 X-2.5597 Y1.551
G2 X-2.5587 Y1.5334 I-0.0084 J-0.0093
G2 X-2.5604 Y1.5318 I-0.0093 J0.0084
G1 X-2.5671 Y1.5263 Z-0.1903 F6.
G1 X-2.5733 Y1.5204 Z-0.1906
G1 X-2.5791 Y1.514 Z-0.1909
G1 X-2.5844 Y1.5072 Z-0.1912
G1 X-2.5892 Y1.5 Z-0.1915
G1 X-2.5935 Y1.4925 Z-0.1918
G1 X-2.5972 Y1.4847 Z-0.1921
G1 X-2.6004 Y1.4767 Z-0.1924
G1 X-2.6029 Y1.4684 Z-0.1927
G1 X-2.6049 Y1.46 Z-0.193
G1 X-2.6062 Y1.4515 Z-0.1933
G1 X-2.6069 Y1.4429 Z-0.1936
G1 X-2.607 Y1.4342 Z-0.1939
G1 X-2.6064 Y1.4256 Z-0.1942
G1 X-2.6053 Y1.4171 Z-0.1945
G1 X-2.6035 Y1.4086 Z-0.1948
G1 X-2.6011 Y1.4003 Z-0.1951
G1 X-2.5981 Y1.3922 Z-0.1954
G1 X-2.5945 Y1.3844 Z-0.1957
G1 X-2.5903 Y1.3768 Z-0.196
G1 X-2.5856 Y1.3695 Z-0.1963
G1 X-2.5805 Y1.3626 Z-0.1966
G1 X-2.5748 Y1.3561 Z-0.1969
G1 X-2.5686 Y1.3501 Z-0.1972
G1 X-2.5621 Y1.3445 Z-0.1975
G1 X-2.5551 Y1.3393 Z-0.1978
G1 X-2.5478 Y1.3347 Z-0.1981
G1 X-2.5402 Y1.3307 Z-0.1984
G1 X-2.5323 Y1.3272 Z-0.1987
G1 X-2.5241 Y1.3243 Z-0.199
G1 X-2.5158 Y1.322 Z-0.1993
G1 X-2.5074 Y1.3203 Z-0.1997
G1 X-2.4988 Y1.3192 Z-0.2
G1 X-2.4902 Y1.3188 Z-0.2003
G1 X-2.4815 Y1.3189 Z-0.2006
G1 X-2.4729 Y1.3197 Z-0.2009
G1 X-2.4644 Y1.3212 Z-0.2012
G1 X-2.456 Y1.3232 Z-0.2015
G1 X-2.4478 Y1.3259 Z-0.2018
G1 X-2.4398 Y1.3291 Z-0.2021
G1 X-2.4321 Y1.3329 Z-0.2024
G1 X-2.4246 Y1.3373 Z-0.2027
G1 X-2.4175 Y1.3422 Z-0.203
G1 X-2.4107 Y1.3475 Z-0.2033
G1 X-2.4044 Y1.3534 Z-0.2036
G1 X-2.3985 Y1.3597 Z-0.2039
G1 X-2.3931 Y1.3665 Z-0.2042
G1 X-2.3882 Y1.3736 Z-0.2045
G1 X-2.3838 Y1.381 Z-0.2048
G1 X-2.38 Y1.3887 Z-0.2051
G1 X-2.3767 Y1.3967 Z-0.2054
G1 X-2.3741 Y1.405 Z-0.2057
G1 X-2.372 Y1.4133 Z-0.206
G1 X-2.3706 Y1.4218 Z-0.2063
G1 X-2.3697 Y1.4304 Z-0.2066
G1 X-2.3695 Y1.4391 Z-0.2069
G1 X-2.37 Y1.4477 Z-0.2072
G1 X-2.371 Y1.4563 Z-0.2075
G1 X-2.3727 Y1.4647 Z-0.2078
G1 X-2.375 Y1.4731 Z-0.2081
G1 X-2.3779 Y1.4812 Z-0.2084
G1 X-2.3813 Y1.4891 Z-0.2087
G1 X-2.3854 Y1.4967 Z-0.209
G1 X-2.3899 Y1.5041 Z-0.2093
G1 X-2.395 Y1.511 Z-0.2096
G1 X-2.4006 Y1.5176 Z-0.2099
G1 X-2.4067 Y1.5238 Z-0.2102
G1 X-2.4132 Y1.5295 Z-0.2105
G1 X-2.42 Y1.5347 Z-0.2108
G1 X-2.4273 Y1.5394 Z-0.2111
G1 X-2.4349 Y1.5436 Z-0.2114
G1 X-2.4427 Y1.5472 Z-0.2117
G1 X-2.4508 Y1.5502 Z-0.212
G1 X-2.4591 Y1.5526 Z-0.2123
G1 X-2.4675 Y1.5544 Z-0.2126
G1 X-2.4761 Y1.5556 Z-0.2129
G1 X-2.4847 Y1.5562 Z-0.2132
G1 X-2.4933 Y1.5561 Z-0.2135
G1 X-2.5019 Y1.5555 Z-0.2138
G1 X-2.5105 Y1.5542 Z-0.2141
G1 X-2.5189 Y1.5522 Z-0.2144
G1 X-2.5271 Y1.5497 Z-0.2147
G1 X-2.5352 Y1.5466 Z-0.215
G1 X-2.543 Y1.5429 Z-0.2153
G1 X-2.5505 Y1.5386 Z-0.2156
G1 X-2.5577 Y1.5339 Z-0.2159
G1 X-2.5645 Y1.5286 Z-0.2162
G1 X-2.5709 Y1.5228 Z-0.2165
G1 X-2.5769 Y1.5165 Z-0.2168
G1 X-2.5824 Y1.5099 Z-0.2171
G1 X-2.5874 Y1.5029 Z-0.2174
G1 X-2.5919 Y1.4955 Z-0.2177
G1 X-2.5958 Y1.4878 Z-0.218
G1 X-2.5992 Y1.4799 Z-0.2183
G1 X-2.602 Y1.4717 Z-0.2187
G1 X-2.6042 Y1.4633 Z-0.219
G1 X-2.6058 Y1.4548 Z-0.2193
G1 X-2.6067 Y1.4463 Z-0.2196
G1 X-2.607 Y1.4376 Z-0.2199
G1 X-2.6067 Y1.429 Z-0.2202
G1 X-2.6058 Y1.4204 Z-0.2205
G1 X-2.6042 Y1.4119 Z-0.2208
G1 X-2.6021 Y1.4036 Z-0.2211
G1 X-2.5993 Y1.3954 Z-0.2214
G1 X-2.5959 Y1.3874 Z-0.2217
G1 X-2.592 Y1.3797 Z-0.222
G1 X-2.5876 Y1.3723 Z-0.2223
G1 X-2.5826 Y1.3653 Z-0.2226
G1 X-2.5771 Y1.3586 Z-0.2229
G1 X-2.5711 Y1.3524 Z-0.2232
G1 X-2.5647 Y1.3466 Z-0.2235
G1 X-2.5579 Y1.3413 Z-0.2238
G1 X-2.5507 Y1.3365 Z-0.2241
G1 X-2.5432 Y1.3322 Z-0.2244
G1 X-2.5354 Y1.3285 Z-0.2247
G1 X-2.5274 Y1.3254 Z-0.225
G1 X-2.5191 Y1.3228 Z-0.2253
G1 X-2.5107 Y1.3209 Z-0.2256
G1 X-2.5022 Y1.3196 Z-0.2259
G1 X-2.4936 Y1.3189 Z-0.2262
G1 X-2.4849 Y1.3188 Z-0.2265
G1 X-2.4763 Y1.3194 Z-0.2268
G1 X-2.4678 Y1.3205 Z-0.2271
G1 X-2.4593 Y1.3223 Z-0.2274
G1 X-2.451 Y1.3247 Z-0.2277
G1 X-2.4429 Y1.3277 Z-0.228
G1 X-2.4351 Y1.3313 Z-0.2283
G1 X-2.4275 Y1.3355 Z-0.2286
G1 X-2.4203 Y1.3402 Z-0.2289
G1 X-2.4134 Y1.3454 Z-0.2292
G1 X-2.4069 Y1.3511 Z-0.2295
G1 X-2.4008 Y1.3572 Z-0.2298
G1 X-2.3952 Y1.3638 Z-0.2301
G1 X-2.3901 Y1.3707 Z-0.2304
G1 X-2.3855 Y1.378 Z-0.2307
G1 X-2.3814 Y1.3857 Z-0.231
G1 X-2.378 Y1.3936 Z-0.2313
G1 X-2.3751 Y1.4017 Z-0.2316
G1 X-2.3727 Y1.41 Z-0.2319
G1 X-2.3711 Y1.4185 Z-0.2322
G1 X-2.37 Y1.427 Z-0.2325
G1 X-2.3695 Y1.4357 Z-0.2328
G1 X-2.3697 Y1.4443 Z-0.2331
G1 X-2.3705 Y1.4529 Z-0.2334
G1 X-2.372 Y1.4614 Z-0.2337
G1 X-2.374 Y1.4698 Z-0.234
G1 X-2.3767 Y1.478 Z-0.2343
G1 X-2.3799 Y1.486 Z-0.2346
G1 X-2.3837 Y1.4938 Z-0.2349
G1 X-2.3881 Y1.5012 Z-0.2352
G1 X-2.393 Y1.5083 Z-0.2355
G1 X-2.3984 Y1.5151 Z-0.2358
G1 X-2.4042 Y1.5214 Z-0.2361
G1 X-2.4106 Y1.5273 Z-0.2364
G1 X-2.4173 Y1.5327 Z-0.2367
G1 X-2.4244 Y1.5376 Z-0.237
G1 X-2.4318 Y1.542 Z-0.2373
G1 X-2.4396 Y1.5458 Z-0.2377
G1 X-2.4476 Y1.5491 Z-0.238
G1 X-2.4558 Y1.5517 Z-0.2383
G1 X-2.4642 Y1.5538 Z-0.2386
G1 X-2.4727 Y1.5552 Z-0.2389
G1 X-2.4813 Y1.556 Z-0.2392
G1 X-2.4899 Y1.5562 Z-0.2395
G1 X-2.4985 Y1.5558 Z-0.2398
G1 X-2.5071 Y1.5547 Z-0.2401
G1 X-2.5156 Y1.5531 Z-0.2404
G1 X-2.5239 Y1.5508 Z-0.2407
G1 X-2.532 Y1.5479 Z-0.241
G1 X-2.5399 Y1.5444 Z-0.2413
G1 X-2.5476 Y1.5404 Z-0.2416
G1 X-2.5549 Y1.5358 Z-0.2419
G1 X-2.5619 Y1.5307 Z-0.2422
G1 X-2.5684 Y1.5251 Z-0.2425
G1 X-2.5746 Y1.5191 Z-0.2428
G1 X-2.5803 Y1.5126 Z-0.2431
G1 X-2.5855 Y1.5057 Z-0.2434
G1 X-2.5902 Y1.4984 Z-0.2437
G1 X-2.5944 Y1.4909 Z-0.244
G1 X-2.598 Y1.483 Z-0.2443
G1 X-2.601 Y1.4749 Z-0.2446
G1 X-2.6034 Y1.4666 Z-0.2449
G1 X-2.6052 Y1.4582 Z-0.2452
G1 X-2.6064 Y1.4496 Z-0.2455
G1 X-2.607 Y1.441 Z-0.2458
G1 X-2.6069 Y1.4324 Z-0.2461
G1 X-2.6062 Y1.4238 Z-0.2464
G1 X-2.6049 Y1.4153 Z-0.2467
G1 X-2.603 Y1.4068 Z-0.247
G1 X-2.6005 Y1.3986 Z-0.2473
G1 X-2.5973 Y1.3905 Z-0.2476
G1 X-2.5936 Y1.3827 Z-0.2479
G1 X-2.5894 Y1.3752 Z-0.2482
G1 X-2.5846 Y1.368 Z-0.2485
G1 X-2.5793 Y1.3612 Z-0.2488
G1 X-2.5735 Y1.3548 Z-0.2491
G1 X-2.5673 Y1.3488 Z-0.2494
G1 X-2.5606 Y1.3433 Z-0.2497
G1 X-2.5536 Y1.3383 Z-0.25
G1 X-2.5462 Y1.3338 Z-0.2503
G1 X-2.5385 Y1.3299 Z-0.2506
G1 X-2.5306 Y1.3265 Z-0.2509
G1 X-2.5224 Y1.3238 Z-0.2512
G1 X-2.514 Y1.3216 Z-0.2515
G1 X-2.5055 Y1.32 Z-0.2518
G1 X-2.497 Y1.3191 Z-0.2521
G1 X-2.4883 Y1.3188 Z-0.2524
G1 X-2.4797 Y1.3191 Z-0.2527
G1 X-2.4711 Y1.32 Z-0.253
G1 X-2.4626 Y1.3216 Z-0.2533
G1 X-2.4543 Y1.3237 Z-0.2536
G1 X-2.4461 Y1.3265 Z-0.2539
G1 X-2.4381 Y1.3299 Z-0.2542
G1 X-2.4305 Y1.3338 Z-0.2545
G1 X-2.4231 Y1.3383 Z-0.2548
G1 X-2.416 Y1.3433 Z-0.2551
G1 X-2.4094 Y1.3488 Z-0.2554
G1 X-2.4031 Y1.3547 Z-0.2557
G1 X-2.3973 Y1.3611 Z-0.256
G1 X-2.392 Y1.3679 Z-0.2563
G1 X-2.3872 Y1.3751 Z-0.2567
G1 X-2.383 Y1.3826 Z-0.257
G1 X-2.3793 Y1.3904 Z-0.2573
G1 X-2.3761 Y1.3985 Z-0.2576
G1 X-2.3736 Y1.4067 Z-0.2579
G1 X-2.3717 Y1.4151 Z-0.2582
G1 X-2.3703 Y1.4237 Z-0.2585
G1 X-2.3696 Y1.4323 Z-0.2588
G1 Y1.4409 Z-0.2591
G1 X-2.3701 Y1.4495 Z-0.2594
G1 X-2.3713 Y1.4581 Z-0.2597
G1 X-2.3731 Y1.4665 Z-0.26
G1 X-2.3755 Y1.4748 Z-0.2603
G1 X-2.3785 Y1.4829 Z-0.2606
G1 X-2.3821 Y1.4908 Z-0.2609
G1 X-2.3863 Y1.4983 Z-0.2612
G1 X-2.391 Y1.5056 Z-0.2615
G1 X-2.3962 Y1.5125 Z-0.2618
G1 X-2.4019 Y1.519 Z-0.2621
G1 X-2.408 Y1.525 Z-0.2624
G1 X-2.4146 Y1.5306 Z-0.2627
G1 X-2.4215 Y1.5357 Z-0.263
G1 X-2.4289 Y1.5403 Z-0.2633
G1 X-2.4365 Y1.5444 Z-0.2636
G1 X-2.4444 Y1.5478 Z-0.2639
G1 X-2.4525 Y1.5507 Z-0.2642
G1 X-2.4608 Y1.553 Z-0.2645
G1 X-2.4693 Y1.5547 Z-0.2648
G1 X-2.4779 Y1.5558 Z-0.2651
G1 X-2.4865 Y1.5562 Z-0.2654
G1 X-2.4951 Y1.5561 Z-0.2657
G1 X-2.5037 Y1.5552 Z-0.266
G1 X-2.5123 Y1.5538 Z-0.2663
G1 X-2.5206 Y1.5518 Z-0.2666
G1 X-2.5289 Y1.5491 Z-0.2669
G1 X-2.5369 Y1.5459 Z-0.2672
G1 X-2.5446 Y1.542 Z-0.2675
G1 X-2.552 Y1.5377 Z-0.2678
G1 X-2.5592 Y1.5328 Z-0.2681
G1 X-2.5659 Y1.5274 Z-0.2684
G1 X-2.5722 Y1.5215 Z-0.2687
G1 X-2.5781 Y1.5152 Z-0.269
G1 X-2.5835 Y1.5084 Z-0.2693
G1 X-2.5884 Y1.5013 Z-0.2696
G1 X-2.5928 Y1.4939 Z-0.2699
G1 X-2.5966 Y1.4861 Z-0.2702
G1 X-2.5999 Y1.4781 Z-0.2705
G1 X-2.6025 Y1.4699 Z-0.2708
G1 X-2.6046 Y1.4615 Z-0.2711
G1 X-2.606 Y1.453 Z-0.2714
G1 X-2.6068 Y1.4444 Z-0.2717
G1 X-2.607 Y1.4358 Z-0.272
G1 X-2.6066 Y1.4272 Z-0.2723
G1 X-2.6055 Y1.4186 Z-0.2726
G1 X-2.6038 Y1.4101 Z-0.2729
G1 X-2.6015 Y1.4018 Z-0.2732
G1 X-2.5986 Y1.3937 Z-0.2735
G1 X-2.5952 Y1.3858 Z-0.2738
G1 X-2.5911 Y1.3781 Z-0.2741
G1 X-2.5865 Y1.3708 Z-0.2744
G1 X-2.5814 Y1.3639 Z-0.2747
G1 X-2.5758 Y1.3573 Z-0.275
G1 X-2.5698 Y1.3511 Z-0.2753
G1 X-2.5633 Y1.3454 Z-0.2757
G1 X-2.5564 Y1.3402 Z-0.276
G1 X-2.5492 Y1.3355 Z-0.2763
G1 X-2.5416 Y1.3314 Z-0.2766
G1 X-2.5337 Y1.3278 Z-0.2769
G1 X-2.5256 Y1.3248 Z-0.2772
G1 X-2.5174 Y1.3224 Z-0.2775
G1 X-2.5089 Y1.3206 Z-0.2778
G1 X-2.5004 Y1.3194 Z-0.2781
G1 X-2.4917 Y1.3188 Z-0.2784
G1 X-2.4831 Y1.3189 Z-0.2787
G1 X-2.4745 Y1.3196 Z-0.279
G1 X-2.466 Y1.3209 Z-0.2793
G1 X-2.4575 Y1.3228 Z-0.2796
G1 X-2.4493 Y1.3253 Z-0.2799
G1 X-2.4412 Y1.3285 Z-0.2802
G1 X-2.4334 Y1.3322 Z-0.2805
G1 X-2.4259 Y1.3364 Z-0.2808
G1 X-2.4188 Y1.3412 Z-0.2811
G1 X-2.4119 Y1.3465 Z-0.2814
G1 X-2.4055 Y1.3523 Z-0.2817
G1 X-2.3996 Y1.3586 Z-0.282
G1 X-2.3941 Y1.3652 Z-0.2823
G1 X-2.3891 Y1.3722 Z-0.2826
G1 X-2.3846 Y1.3796 Z-0.2829
G1 X-2.3807 Y1.3873 Z-0.2832
G1 X-2.3773 Y1.3953 Z-0.2835
G1 X-2.3745 Y1.4034 Z-0.2838
G1 X-2.3723 Y1.4118 Z-0.2841
G1 X-2.3708 Y1.4203 Z-0.2844
G1 X-2.3698 Y1.4289 Z-0.2847
G1 X-2.3695 Y1.4375 Z-0.285
G1 Y1.4927 F30.
G3 X-2.3823 Y1.5055 I-0.0128 J0
G1 X-18.6405
G3 X-18.6532 Y1.4927 I0 J-0.0128
G1 Y1.3823
G3 X-18.6405 Y1.3695 I0.0128 J0
G1 X-2.3823
G3 X-2.3695 Y1.3823 I0 J0.0128
G1 Y1.4375
G2 X-2.2819 Y1.5606 I0.1303 J0
G3 X-2.2347 Y1.658 I-0.0251 J0.0724
G3 X-2.307 Y1.7095 I-0.0724 J-0.0251
G1 X-18.8445
G3 X-18.8573 Y1.6968 I0 J-0.0128
G1 Y1.1782
G3 X-18.8445 Y1.1655 I0.0128 J0
G1 X-2.1782
G3 X-2.1655 Y1.1782 I0 J0.0128
G1 Y1.6968
G3 X-2.1782 Y1.7095 I-0.0128 J0
G1 X-2.307
G2 X-2.4601 Y1.8116 I0 J0.1658
G3 X-2.6131 Y1.9136 I-0.153 J-0.0638
G1 X-19.0486
G3 X-19.0613 Y1.9008 I0 J-0.0128
G1 Y0.9742
G3 X-19.0486 Y0.9614 I0.0128 J0
G1 X-1.9742
G3 X-1.9614 Y0.9742 I0 J0.0128
G1 Y1.9008
G3 X-1.9742 Y1.9136 I-0.0128 J0
G1 X-2.6131
G2 X-2.7662 Y2.0156 I0 J0.1658
G3 X-2.9192 Y2.1176 I-0.153 J-0.0638
G1 X-19.2526
G3 X-19.2654 Y2.1049 I0 J-0.0128
G1 Y0.7701
G3 X-19.2526 Y0.7574 I0.0128 J0
G1 X-1.7701
G3 X-1.7574 Y0.7701 I0 J0.0128
G1 Y2.1049
G3 X-1.7701 Y2.1176 I-0.0128 J0
G1 X-2.9192
G2 X-3.0722 Y2.2197 I0 J0.1658
G3 X-3.2253 Y2.3217 I-0.153 J-0.0638
G1 X-19.4567
G3 X-19.4694 Y2.3089 I0 J-0.0128
G1 Y0.5661
G3 X-19.4567 Y0.5533 I0.0128 J0
G1 X-1.5661
G3 X-1.5533 Y0.5661 I0 J0.0128
G1 Y2.3089
G3 X-1.5661 Y2.3217 I-0.0128 J0
G1 X-3.2253
G2 X-3.3783 Y2.4237 I0 J0.1658
G3 X-3.5314 Y2.5257 I-0.153 J-0.0638
G1 X-19.6607
G3 X-19.6735 Y2.513 I0 J-0.0128
G1 Y0.362
G3 X-19.6607 Y0.3493 I0.0128 J0
G1 X-1.362
G3 X-1.3493 Y0.362 I0 J0.0128
G1 Y2.513
G3 X-1.362 Y2.5257 I-0.0128 J0
G1 X-3.5314
G2 X-3.6845 Y2.6279 I0 J0.166
G3 X-3.8377 Y2.73 I-0.1532 J-0.0638
G1 X-19.8778
G1 Y0.145
G1 X-1.145
G1 Y2.73
G1 X-3.8377
G3 X-3.8502 Y2.7175 I0 J-0.0125
G3 X-3.8461 Y2.7082 I0.0125 J0
G1 X-2.5597 Y1.551
G2 X-2.5587 Y1.5334 I-0.0084 J-0.0093
G2 X-2.5604 Y1.5318 I-0.0093 J0.0084
G1 X-2.5671 Y1.5263 Z-0.2853 F6.
G1 X-2.5733 Y1.5204 Z-0.2856
G1 X-2.5791 Y1.514 Z-0.2859
G1 X-2.5844 Y1.5072 Z-0.2862
G1 X-2.5892 Y1.5 Z-0.2865
G1 X-2.5935 Y1.4925 Z-0.2868
G1 X-2.5972 Y1.4847 Z-0.2871
G1 X-2.6004 Y1.4767 Z-0.2874
G1 X-2.6029 Y1.4684 Z-0.2877
G1 X-2.6049 Y1.46 Z-0.288
G1 X-2.6062 Y1.4515 Z-0.2883
G1 X-2.6069 Y1.4429 Z-0.2886
G1 X-2.607 Y1.4342 Z-0.2889
G1 X-2.6064 Y1.4256 Z-0.2892
G1 X-2.6053 Y1.4171 Z-0.2895
G1 X-2.6035 Y1.4086 Z-0.2898
G1 X-2.6011 Y1.4003 Z-0.2901
G1 X-2.5981 Y1.3922 Z-0.2904
G1 X-2.5945 Y1.3844 Z-0.2907
G1 X-2.5903 Y1.3768 Z-0.291
G1 X-2.5856 Y1.3695 Z-0.2913
G1 X-2.5805 Y1.3626 Z-0.2916
G1 X-2.5748 Y1.3561 Z-0.2919
G1 X-2.5686 Y1.3501 Z-0.2922
G1 X-2.5621 Y1.3445 Z-0.2925
G1 X-2.5551 Y1.3393 Z-0.2928
G1 X-2.5478 Y1.3347 Z-0.2931
G1 X-2.5402 Y1.3307 Z-0.2934
G1 X-2.5323 Y1.3272 Z-0.2937
G1 X-2.5241 Y1.3243 Z-0.294
G1 X-2.5158 Y1.322 Z-0.2943
G1 X-2.5074 Y1.3203 Z-0.2947
G1 X-2.4988 Y1.3192 Z-0.295
G1 X-2.4902 Y1.3188 Z-0.2953
G1 X-2.4815 Y1.3189 Z-0.2956
G1 X-2.4729 Y1.3197 Z-0.2959
G1 X-2.4644 Y1.3212 Z-0.2962
G1 X-2.456 Y1.3232 Z-0.2965
G1 X-2.4478 Y1.3259 Z-0.2968
G1 X-2.4398 Y1.3291 Z-0.2971
G1 X-2.4321 Y1.3329 Z-0.2974
G1 X-2.4246 Y1.3373 Z-0.2977
G1 X-2.4175 Y1.3422 Z-0.298
G1 X-2.4107 Y1.3475 Z-0.2983
G1 X-2.4044 Y1.3534 Z-0.2986
G1 X-2.3985 Y1.3597 Z-0.2989
G1 X-2.3931 Y1.3665 Z-0.2992
G1 X-2.3882 Y1.3736 Z-0.2995
G1 X-2.3838 Y1.381 Z-0.2998
G1 X-2.38 Y1.3887 Z-0.3001
G1 X-2.3767 Y1.3967 Z-0.3004
G1 X-2.3741 Y1.405 Z-0.3007
G1 X-2.372 Y1.4133 Z-0.301
G1 X-2.3706 Y1.4218 Z-0.3013
G1 X-2.3697 Y1.4304 Z-0.3016
G1 X-2.3695 Y1.4391 Z-0.3019
G1 X-2.37 Y1.4477 Z-0.3022
G1 X-2.371 Y1.4563 Z-0.3025
G1 X-2.3727 Y1.4647 Z-0.3028
G1 X-2.375 Y1.4731 Z-0.3031
G1 X-2.3779 Y1.4812 Z-0.3034
G1 X-2.3813 Y1.4891 Z-0.3037
G1 X-2.3854 Y1.4967 Z-0.304
G1 X-2.3899 Y1.5041 Z-0.3043
G1 X-2.395 Y1.511 Z-0.3046
G1 X-2.4006 Y1.5176 Z-0.3049
G1 X-2.4067 Y1.5238 Z-0.3052
G1 X-2.4132 Y1.5295 Z-0.3055
G1 X-2.42 Y1.5347 Z-0.3058
G1 X-2.4273 Y1.5394 Z-0.3061
G1 X-2.4349 Y1.5436 Z-0.3064
G1 X-2.4427 Y1.5472 Z-0.3067
G1 X-2.4508 Y1.5502 Z-0.307
G1 X-2.4591 Y1.5526 Z-0.3073
G1 X-2.4675 Y1.5544 Z-0.3076
G1 X-2.4761 Y1.5556 Z-0.3079
G1 X-2.4847 Y1.5562 Z-0.3082
G1 X-2.4933 Y1.5561 Z-0.3085
G1 X-2.5019 Y1.5555 Z-0.3088
G1 X-2.5105 Y1.5542 Z-0.3091
G1 X-2.5189 Y1.5522 Z-0.3094
G1 X-2.5271 Y1.5497 Z-0.3097
G1 X-2.5352 Y1.5466 Z-0.31
G1 X-2.543 Y1.5429 Z-0.3103
G1 X-2.5505 Y1.5386 Z-0.3106
G1 X-2.5577 Y1.5339 Z-0.3109
G1 X-2.5645 Y1.5286 Z-0.3112
G1 X-2.5709 Y1.5228 Z-0.3115
G1 X-2.5769 Y1.5165 Z-0.3118
G1 X-2.5824 Y1.5099 Z-0.3121
G1 X-2.5874 Y1.5029 Z-0.3124
G1 X-2.5919 Y1.4955 Z-0.3127
G1 X-2.5958 Y1.4878 Z-0.313
G1 X-2.5992 Y1.4799 Z-0.3133
G1 X-2.602 Y1.4717 Z-0.3137
G1 X-2.6042 Y1.4633 Z-0.314
G1 X-2.6058 Y1.4548 Z-0.3143
G1 X-2.6067 Y1.4463 Z-0.3146
G1 X-2.607 Y1.4376 Z-0.3149
G1 X-2.6067 Y1.429 Z-0.3152
G1 X-2.6058 Y1.4204 Z-0.3155
G1 X-2.6042 Y1.4119 Z-0.3158
G1 X-2.6021 Y1.4036 Z-0.3161
G1 X-2.5993 Y1.3954 Z-0.3164
G1 X-2.5959 Y1.3874 Z-0.3167
G1 X-2.592 Y1.3797 Z-0.317
G1 X-2.5876 Y1.3723 Z-0.3173
G1 X-2.5826 Y1.3653 Z-0.3176
G1 X-2.5771 Y1.3586 Z-0.3179
G1 X-2.5711 Y1.3524 Z-0.3182
G1 X-2.5647 Y1.3466 Z-0.3185
G1 X-2.5579 Y1.3413 Z-0.3188
G1 X-2.5507 Y1.3365 Z-0.3191
G1 X-2.5432 Y1.3322 Z-0.3194
G1 X-2.5354 Y1.3285 Z-0.3197
G1 X-2.5274 Y1.3254 Z-0.32
G1 X-2.5191 Y1.3228 Z-0.3203
G1 X-2.5107 Y1.3209 Z-0.3206
G1 X-2.5022 Y1.3196 Z-0.3209
G1 X-2.4936 Y1.3189 Z-0.3212
G1 X-2.4849 Y1.3188 Z-0.3215
G1 X-2.4763 Y1.3194 Z-0.3218
G1 X-2.4678 Y1.3205 Z-0.3221
G1 X-2.4593 Y1.3223 Z-0.3224
G1 X-2.451 Y1.3247 Z-0.3227
G1 X-2.4429 Y1.3277 Z-0.323
G1 X-2.4351 Y1.3313 Z-0.3233
G1 X-2.4275 Y1.3355 Z-0.3236
G1 X-2.4203 Y1.3402 Z-0.3239
G1 X-2.4134 Y1.3454 Z-0.3242
G1 X-2.4069 Y1.3511 Z-0.3245
G1 X-2.4008 Y1.3572 Z-0.3248
G1 X-2.3952 Y1.3638 Z-0.3251
G1 X-2.3901 Y1.3707 Z-0.3254
G1 X-2.3855 Y1.378 Z-0.3257
G1 X-2.3814 Y1.3857 Z-0.326
G1 X-2.378 Y1.3936 Z-0.3263
G1 X-2.3751 Y1.4017 Z-0.3266
G1 X-2.3727 Y1.41 Z-0.3269
G1 X-2.3711 Y1.4185 Z-0.3272
G1 X-2.37 Y1.427 Z-0.3275
G1 X-2.3695 Y1.4357 Z-0.3278
G1 X-2.3697 Y1.4443 Z-0.3281
G1 X-2.3705 Y1.4529 Z-0.3284
G1 X-2.372 Y1.4614 Z-0.3287
G1 X-2.374 Y1.4698 Z-0.329
G1 X-2.3767 Y1.478 Z-0.3293
G1 X-2.3799 Y1.486 Z-0.3296
G1 X-2.3837 Y1.4938 Z-0.3299
G1 X-2.3881 Y1.5012 Z-0.3302
G1 X-2.393 Y1.5083 Z-0.3305
G1 X-2.3984 Y1.5151 Z-0.3308
G1 X-2.4042 Y1.5214 Z-0.3311
G1 X-2.4106 Y1.5273 Z-0.3314
G1 X-2.4173 Y1.5327 Z-0.3317
G1 X-2.4244 Y1.5376 Z-0.332
G1 X-2.4318 Y1.542 Z-0.3323
G1 X-2.4396 Y1.5458 Z-0.3327
G1 X-2.4476 Y1.5491 Z-0.333
G1 X-2.4558 Y1.5517 Z-0.3333
G1 X-2.4642 Y1.5538 Z-0.3336
G1 X-2.4727 Y1.5552 Z-0.3339
G1 X-2.4813 Y1.556 Z-0.3342
G1 X-2.4899 Y1.5562 Z-0.3345
G1 X-2.4985 Y1.5558 Z-0.3348
G1 X-2.5071 Y1.5547 Z-0.3351
G1 X-2.5156 Y1.5531 Z-0.3354
G1 X-2.5239 Y1.5508 Z-0.3357
G1 X-2.532 Y1.5479 Z-0.336
G1 X-2.5399 Y1.5444 Z-0.3363
G1 X-2.5476 Y1.5404 Z-0.3366
G1 X-2.5549 Y1.5358 Z-0.3369
G1 X-2.5619 Y1.5307 Z-0.3372
G1 X-2.5684 Y1.5251 Z-0.3375
G1 X-2.5746 Y1.5191 Z-0.3378
G1 X-2.5803 Y1.5126 Z-0.3381
G1 X-2.5855 Y1.5057 Z-0.3384
G1 X-2.5902 Y1.4984 Z-0.3387
G1 X-2.5944 Y1.4909 Z-0.339
G1 X-2.598 Y1.483 Z-0.3393
G1 X-2.601 Y1.4749 Z-0.3396
G1 X-2.6034 Y1.4666 Z-0.3399
G1 X-2.6052 Y1.4582 Z-0.3402
G1 X-2.6064 Y1.4496 Z-0.3405
G1 X-2.607 Y1.441 Z-0.3408
G1 X-2.6069 Y1.4324 Z-0.3411
G1 X-2.6062 Y1.4238 Z-0.3414
G1 X-2.6049 Y1.4153 Z-0.3417
G1 X-2.603 Y1.4068 Z-0.342
G1 X-2.6005 Y1.3986 Z-0.3423
G1 X-2.5973 Y1.3905 Z-0.3426
G1 X-2.5936 Y1.3827 Z-0.3429
G1 X-2.5894 Y1.3752 Z-0.3432
G1 X-2.5846 Y1.368 Z-0.3435
G1 X-2.5793 Y1.3612 Z-0.3438
G1 X-2.5735 Y1.3548 Z-0.3441
G1 X-2.5673 Y1.3488 Z-0.3444
G1 X-2.5606 Y1.3433 Z-0.3447
G1 X-2.5536 Y1.3383 Z-0.345
G1 X-2.5462 Y1.3338 Z-0.3453
G1 X-2.5385 Y1.3299 Z-0.3456
G1 X-2.5306 Y1.3265 Z-0.3459
G1 X-2.5224 Y1.3238 Z-0.3462
G1 X-2.514 Y1.3216 Z-0.3465
G1 X-2.5055 Y1.32 Z-0.3468
G1 X-2.497 Y1.3191 Z-0.3471
G1 X-2.4883 Y1.3188 Z-0.3474
G1 X-2.4797 Y1.3191 Z-0.3477
G1 X-2.4711 Y1.32 Z-0.348
G1 X-2.4626 Y1.3216 Z-0.3483
G1 X-2.4543 Y1.3237 Z-0.3486
G1 X-2.4461 Y1.3265 Z-0.3489
G1 X-2.4381 Y1.3299 Z-0.3492
G1 X-2.4305 Y1.3338 Z-0.3495
G1 X-2.4231 Y1.3383 Z-0.3498
G1 X-2.416 Y1.3433 Z-0.3501
G1 X-2.4094 Y1.3488 Z-0.3504
G1 X-2.4031 Y1.3547 Z-0.3507
G1 X-2.3973 Y1.3611 Z-0.351
G1 X-2.392 Y1.3679 Z-0.3513
G1 X-2.3872 Y1.3751 Z-0.3517
G1 X-2.383 Y1.3826 Z-0.352
G1 X-2.3793 Y1.3904 Z-0.3523
G1 X-2.3761 Y1.3985 Z-0.3526
G1 X-2.3736 Y1.4067 Z-0.3529
G1 X-2.3717 Y1.4151 Z-0.3532
G1 X-2.3703 Y1.4237 Z-0.3535
G1 X-2.3696 Y1.4323 Z-0.3538
G1 Y1.4409 Z-0.3541
G1 X-2.3701 Y1.4495 Z-0.3544
G1 X-2.3713 Y1.4581 Z-0.3547
G1 X-2.3731 Y1.4665 Z-0.355
G1 X-2.3755 Y1.4748 Z-0.3553
G1 X-2.3785 Y1.4829 Z-0.3556
G1 X-2.3821 Y1.4908 Z-0.3559
G1 X-2.3863 Y1.4983 Z-0.3562
G1 X-2.391 Y1.5056 Z-0.3565
G1 X-2.3962 Y1.5125 Z-0.3568
G1 X-2.4019 Y1.519 Z-0.3571
G1 X-2.408 Y1.525 Z-0.3574
G1 X-2.4146 Y1.5306 Z-0.3577
G1 X-2.4215 Y1.5357 Z-0.358
G1 X-2.4289 Y1.5403 Z-0.3583
G1 X-2.4365 Y1.5444 Z-0.3586
G1 X-2.4444 Y1.5478 Z-0.3589
G1 X-2.4525 Y1.5507 Z-0.3592
G1 X-2.4608 Y1.553 Z-0.3595
G1 X-2.4693 Y1.5547 Z-0.3598
G1 X-2.4779 Y1.5558 Z-0.3601
G1 X-2.4865 Y1.5562 Z-0.3604
G1 X-2.4951 Y1.5561 Z-0.3607
G1 X-2.5037 Y1.5552 Z-0.361
G1 X-2.5123 Y1.5538 Z-0.3613
G1 X-2.5206 Y1.5518 Z-0.3616
G1 X-2.5289 Y1.5491 Z-0.3619
G1 X-2.5369 Y1.5459 Z-0.3622
G1 X-2.5446 Y1.542 Z-0.3625
G1 X-2.552 Y1.5377 Z-0.3628
G1 X-2.5592 Y1.5328 Z-0.3631
G1 X-2.5659 Y1.5274 Z-0.3634
G1 X-2.5722 Y1.5215 Z-0.3637
G1 X-2.5781 Y1.5152 Z-0.364
G1 X-2.5835 Y1.5084 Z-0.3643
G1 X-2.5884 Y1.5013 Z-0.3646
G1 X-2.5928 Y1.4939 Z-0.3649
G1 X-2.5966 Y1.4861 Z-0.3652
G1 X-2.5999 Y1.4781 Z-0.3655
G1 X-2.6025 Y1.4699 Z-0.3658
G1 X-2.6046 Y1.4615 Z-0.3661
G1 X-2.606 Y1.453 Z-0.3664
G1 X-2.6068 Y1.4444 Z-0.3667
G1 X-2.607 Y1.4358 Z-0.367
G1 X-2.6066 Y1.4272 Z-0.3673
G1 X-2.6055 Y1.4186 Z-0.3676
G1 X-2.6038 Y1.4101 Z-0.3679
G1 X-2.6015 Y1.4018 Z-0.3682
G1 X-2.5986 Y1.3937 Z-0.3685
G1 X-2.5952 Y1.3858 Z-0.3688
G1 X-2.5911 Y1.3781 Z-0.3691
G1 X-2.5865 Y1.3708 Z-0.3694
G1 X-2.5814 Y1.3639 Z-0.3697
G1 X-2.5758 Y1.3573 Z-0.37
G1 X-2.5698 Y1.3511 Z-0.3703
G1 X-2.5633 Y1.3454 Z-0.3707
G1 X-2.5564 Y1.3402 Z-0.371
G1 X-2.5492 Y1.3355 Z-0.3713
G1 X-2.5416 Y1.3314 Z-0.3716
G1 X-2.5337 Y1.3278 Z-0.3719
G1 X-2.5256 Y1.3248 Z-0.3722
G1 X-2.5174 Y1.3224 Z-0.3725
G1 X-2.5089 Y1.3206 Z-0.3728
G1 X-2.5004 Y1.3194 Z-0.3731
G1 X-2.4917 Y1.3188 Z-0.3734
G1 X-2.4831 Y1.3189 Z-0.3737
G1 X-2.4745 Y1.3196 Z-0.374
G1 X-2.466 Y1.3209 Z-0.3743
G1 X-2.4575 Y1.3228 Z-0.3746
G1 X-2.4493 Y1.3253 Z-0.3749
G1 X-2.4412 Y1.3285 Z-0.3752
G1 X-2.4334 Y1.3322 Z-0.3755
G1 X-2.4259 Y1.3364 Z-0.3758
G1 X-2.4188 Y1.3412 Z-0.3761
G1 X-2.4119 Y1.3465 Z-0.3764
G1 X-2.4055 Y1.3523 Z-0.3767
G1 X-2.3996 Y1.3586 Z-0.377
G1 X-2.3941 Y1.3652 Z-0.3773
G1 X-2.3891 Y1.3722 Z-0.3776
G1 X-2.3846 Y1.3796 Z-0.3779
G1 X-2.3807 Y1.3873 Z-0.3782
G1 X-2.3773 Y1.3953 Z-0.3785
G1 X-2.3745 Y1.4034 Z-0.3788
G1 X-2.3723 Y1.4118 Z-0.3791
G1 X-2.3708 Y1.4203 Z-0.3794
G1 X-2.3698 Y1.4289 Z-0.3797
G1 X-2.3695 Y1.4375 Z-0.38
G1 Y1.4927 F30.
G3 X-2.3823 Y1.5055 I-0.0128 J0
G1 X-18.6405
G3 X-18.6532 Y1.4927 I0 J-0.0128
G1 Y1.3823
G3 X-18.6405 Y1.3695 I0.0128 J0
G1 X-2.3823
G3 X-2.3695 Y1.3823 I0 J0.0128
G1 Y1.4375
G2 X-2.2819 Y1.5606 I0.1303 J0
G3 X-2.2347 Y1.658 I-0.0251 J0.0724
G3 X-2.307 Y1.7095 I-0.0724 J-0.0251
G1 X-18.8445
G3 X-18.8573 Y1.6968 I0 J-0.0128
G1 Y1.1782
G3 X-18.8445 Y1.1655 I0.0128 J0
G1 X-2.1782
G3 X-2.1655 Y1.1782 I0 J0.0128
G1 Y1.6968
G3 X-2.1782 Y1.7095 I-0.0128 J0
G1 X-2.307
G2 X-2.4601 Y1.8116 I0 J0.1658
G3 X-2.6131 Y1.9136 I-0.153 J-0.0638
G1 X-19.0486
G3 X-19.0613 Y1.9008 I0 J-0.0128
G1 Y0.9742
G3 X-19.0486 Y0.9614 I0.0128 J0
G1 X-1.9742
G3 X-1.9614 Y0.9742 I0 J0.0128
G1 Y1.9008
G3 X-1.9742 Y1.9136 I-0.0128 J0
G1 X-2.6131
G2 X-2.7662 Y2.0156 I0 J0.1658
G3 X-2.9192 Y2.1176 I-0.153 J-0.0638
G1 X-19.2526
G3 X-19.2654 Y2.1049 I0 J-0.0128
G1 Y0.7701
G3 X-19.2526 Y0.7574 I0.0128 J0
G1 X-1.7701
G3 X-1.7574 Y0.7701 I0 J0.0128
G1 Y2.1049
G3 X-1.7701 Y2.1176 I-0.0128 J0
G1 X-2.9192
G2 X-3.0722 Y2.2197 I0 J0.1658
G3 X-3.2253 Y2.3217 I-0.153 J-0.0638
G1 X-19.4567
G3 X-19.4694 Y2.3089 I0 J-0.0128
G1 Y0.5661
G3 X-19.4567 Y0.5533 I0.0128 J0
G1 X-1.5661
G3 X-1.5533 Y0.5661 I0 J0.0128
G1 Y2.3089
G3 X-1.5661 Y2.3217 I-0.0128 J0
G1 X-3.2253
G2 X-3.3783 Y2.4237 I0 J0.1658
G3 X-3.5314 Y2.5257 I-0.153 J-0.0638
G1 X-19.6607
G3 X-19.6735 Y2.513 I0 J-0.0128
G1 Y0.362
G3 X-19.6607 Y0.3493 I0.0128 J0
G1 X-1.362
G3 X-1.3493 Y0.362 I0 J0.0128
G1 Y2.513
G3 X-1.362 Y2.5257 I-0.0128 J0
G1 X-3.5314
G2 X-3.6845 Y2.6279 I0 J0.166
G3 X-3.8377 Y2.73 I-0.1532 J-0.0638
G1 X-19.8778
G1 Y0.145
G1 X-1.145
G1 Y2.73
G1 X-3.8377
G1 X-3.8416 Y2.7297 Z-0.3794 F6.
G1 X-3.8453 Y2.7288 Z-0.3788
G1 X-3.8486 Y2.7275 Z-0.377
G1 X-3.8516 Y2.7258 Z-0.3752
G1 X-3.8538 Y2.7241 Z-0.3725
G1 X-3.8558 Y2.7223 Z-0.3697
G1 X-3.8581 Y2.7195 Z-0.3627
G1 X-3.8588 Y2.7185 Z-0.355
G0 Z0.6

(2D CONTOUR2)
G0 X-18.4978 Y6.05
G0 Z0.6
G0 Z0.2
G1 Z0.1644 F30.
G1 Z-0.1
G1 Y6.0503 Z-0.1039 F6.
G1 Y6.0512 Z-0.1077
G1 Y6.0527 Z-0.1113
G1 Y6.0548 Z-0.1147
G1 Y6.0573 Z-0.1177
G1 Y6.0603 Z-0.1202
G1 Y6.0636 Z-0.1223
G1 Y6.0673 Z-0.1238
G1 Y6.0711 Z-0.1247
G1 Y6.075 Z-0.125
G1 Y6.1
G3 X-18.5228 Y6.125 I-0.025 J0
G1 X-20.1478 F30.
G1 Y2.875
G1 X-0.8978
G1 Y6.125
G1 X-18.5228
G3 X-18.5478 Y6.1 I0 J-0.025 F6.
G1 Y6.075
G1 Y6.0711 Z-0.1247
G1 Y6.0673 Z-0.1238
G1 Y6.0636 Z-0.1223
G1 Y6.0603 Z-0.1202
G1 Y6.0573 Z-0.1177
G1 Y6.0548 Z-0.1147
G1 Y6.0527 Z-0.1113
G1 Y6.0512 Z-0.1077
G1 Y6.0503 Z-0.1039
G1 Y6.05 Z-0.1
G0 Z0.2
G0 X-18.4978
G1 Z0.0394 F30.
G1 Z-0.225
G1 Y6.0503 Z-0.2289 F6.
G1 Y6.0512 Z-0.2327
G1 Y6.0527 Z-0.2363
G1 Y6.0548 Z-0.2397
G1 Y6.0573 Z-0.2427
G1 Y6.0603 Z-0.2452
G1 Y6.0636 Z-0.2473
G1 Y6.0673 Z-0.2488
G1 Y6.0711 Z-0.2497
G1 Y6.075 Z-0.25
G1 Y6.1
G3 X-18.5228 Y6.125 I-0.025 J0
G1 X-20.1478 F30.
G1 Y2.875
G1 X-0.8978
G1 Y6.125
G1 X-18.5228
G3 X-18.5478 Y6.1 I0 J-0.025 F6.
G1 Y6.075
G1 Y6.0711 Z-0.2497
G1 Y6.0673 Z-0.2488
G1 Y6.0636 Z-0.2473
G1 Y6.0603 Z-0.2452
G1 Y6.0573 Z-0.2427
G1 Y6.0548 Z-0.2397
G1 Y6.0527 Z-0.2363
G1 Y6.0512 Z-0.2327
G1 Y6.0503 Z-0.2289
G1 Y6.05 Z-0.225
G0 Z0.2
G0 X-18.4978
G1 Z-0.0856 F30.
G1 Z-0.35
G1 Y6.0503 Z-0.3539 F6.
G1 Y6.0512 Z-0.3577
G1 Y6.0527 Z-0.3613
G1 Y6.0548 Z-0.3647
G1 Y6.0573 Z-0.3677
G1 Y6.0603 Z-0.3702
G1 Y6.0636 Z-0.3723
G1 Y6.0673 Z-0.3738
G1 Y6.0711 Z-0.3747
G1 Y6.075 Z-0.375
G1 Y6.1
G3 X-18.5228 Y6.125 I-0.025 J0
G1 X-20.1478 F30.
G1 Y2.875
G1 X-0.8978
G1 Y6.125
G1 X-18.5228
G3 X-18.5478 Y6.1 I0 J-0.025 F6.
G1 Y6.075
G1 Y6.0711 Z-0.3747
G1 Y6.0673 Z-0.3738
G1 Y6.0636 Z-0.3723
G1 Y6.0603 Z-0.3702
G1 Y6.0573 Z-0.3677
G1 Y6.0548 Z-0.3647
G1 Y6.0527 Z-0.3613
G1 Y6.0512 Z-0.3577
G1 Y6.0503 Z-0.3539
G1 Y6.05 Z-0.35
G0 Z0.2
G0 X-18.4978
G1 Z-0.2106 F30.
G1 Z-0.475
G1 Y6.0503 Z-0.4789 F6.
G1 Y6.0512 Z-0.4827
G1 Y6.0527 Z-0.4863
G1 Y6.0548 Z-0.4897
G1 Y6.0573 Z-0.4927
G1 Y6.0603 Z-0.4952
G1 Y6.0636 Z-0.4973
G1 Y6.0673 Z-0.4988
G1 Y6.0711 Z-0.4997
G1 Y6.075 Z-0.5
G1 Y6.1
G3 X-18.5228 Y6.125 I-0.025 J0
G1 X-20.1478 F30.
G1 Y2.875
G1 X-0.8978
G1 Y6.125
G1 X-18.5228
G3 X-18.5478 Y6.1 I0 J-0.025 F6.
G1 Y6.075
G1 Y6.0711 Z-0.4997
G1 Y6.0673 Z-0.4988
G1 Y6.0636 Z-0.4973
G1 Y6.0603 Z-0.4952
G1 Y6.0573 Z-0.4927
G1 Y6.0548 Z-0.4897
G1 Y6.0527 Z-0.4863
G1 Y6.0512 Z-0.4827
G1 Y6.0503 Z-0.4789
G1 Y6.05 Z-0.475
G0 Z0.2
G0 X-18.4978
G1 Z-0.3356 F30.
G1 Z-0.6
G1 Y6.0503 Z-0.6039 F6.
G1 Y6.0512 Z-0.6077
G1 Y6.0527 Z-0.6113
G1 Y6.0548 Z-0.6147
G1 Y6.0573 Z-0.6177
G1 Y6.0603 Z-0.6202
G1 Y6.0636 Z-0.6223
G1 Y6.0673 Z-0.6238
G1 Y6.0711 Z-0.6247
G1 Y6.075 Z-0.625
G1 Y6.1
G3 X-18.5228 Y6.125 I-0.025 J0
G1 X-20.1478 F30.
G1 Y2.875
G1 X-0.8978
G1 Y6.125
G1 X-18.5228
G3 X-18.5478 Y6.1 I0 J-0.025 F6.
G1 Y6.075
G1 Y6.0711 Z-0.6247
G1 Y6.0673 Z-0.6238
G1 Y6.0636 Z-0.6223
G1 Y6.0603 Z-0.6202
G1 Y6.0573 Z-0.6177
G1 Y6.0548 Z-0.6147
G1 Y6.0527 Z-0.6113
G1 Y6.0512 Z-0.6077
G1 Y6.0503 Z-0.6039
G1 Y6.05 Z-0.6
G0 Z0.2
G0 X-18.4978
G1 Z-0.4606 F30.
G1 Z-0.725
G1 Y6.0503 Z-0.7289 F6.
G1 Y6.0512 Z-0.7327
G1 Y6.0527 Z-0.7363
G1 Y6.0548 Z-0.7397
G1 Y6.0573 Z-0.7427
G1 Y6.0603 Z-0.7452
G1 Y6.0636 Z-0.7473
G1 Y6.0673 Z-0.7488
G1 Y6.0711 Z-0.7497
G1 Y6.075 Z-0.75
G1 Y6.1
G3 X-18.5228 Y6.125 I-0.025 J0
G1 X-20.1478 F30.
G1 Y4.715
G1 Z-0.65
G1 Y4.215
G1 Z-0.75
G1 Y2.875
G1 X-14.4207
G1 Z-0.65
G1 X-13.9207
G1 Z-0.75
G1 X-7.848
G1 Z-0.65
G1 X-7.348
G1 Z-0.75
G1 X-0.8978
G1 Y4.215
G1 Z-0.65
G1 Y4.715
G1 Z-0.75
G1 Y6.125
G1 X-5.6173
G1 Z-0.65
G1 X-6.1173
G1 Z-0.75
G1 X-14.6388
G1 Z-0.65
G1 X-15.1388
G1 Z-0.75
G1 X-18.5228
G3 X-18.5478 Y6.1 I0 J-0.025 F6.
G1 Y6.075
G1 Y6.0711 Z-0.7497
G1 Y6.0673 Z-0.7488
G1 Y6.0636 Z-0.7473
G1 Y6.0603 Z-0.7452
G1 Y6.0573 Z-0.7427
G1 Y6.0548 Z-0.7397
G1 Y6.0527 Z-0.7363
G1 Y6.0512 Z-0.7327
G1 Y6.0503 Z-0.7289
G1 Y6.05 Z-0.725
G0 Z0.2
G0 X-18.4978
G1 Z-0.5856 F30.
G1 Z-0.775
G1 Y6.0503 Z-0.7789 F6.
G1 Y6.0512 Z-0.7827
G1 Y6.0527 Z-0.7863
G1 Y6.0548 Z-0.7897
G1 Y6.0573 Z-0.7927
G1 Y6.0603 Z-0.7952
G1 Y6.0636 Z-0.7973
G1 Y6.0673 Z-0.7988
G1 Y6.0711 Z-0.7997
G1 Y6.075 Z-0.8
G1 Y6.1
G3 X-18.5228 Y6.125 I-0.025 J0
G1 X-20.1478 F30.
G1 Y4.715
G1 Z-0.65
G1 Y4.215
G1 Z-0.8
G1 Y2.875
G1 X-14.4207
G1 Z-0.65
G1 X-13.9207
G1 Z-0.8
G1 X-7.848
G1 Z-0.65
G1 X-7.348
G1 Z-0.8
G1 X-0.8978
G1 Y4.215
G1 Z-0.65
G1 Y4.715
G1 Z-0.8
G1 Y6.125
G1 X-5.6173
G1 Z-0.65
G1 X-6.1173
G1 Z-0.8
G1 X-14.6388
G1 Z-0.65
G1 X-15.1388
G1 Z-0.8
G1 X-18.5228
G3 X-18.5478 Y6.1 I0 J-0.025 F6.
G1 Y6.075
G1 Y6.0711 Z-0.7997
G1 Y6.0673 Z-0.7988
G1 Y6.0636 Z-0.7973
G1 Y6.0603 Z-0.7952
G1 Y6.0573 Z-0.7927
G1 Y6.0548 Z-0.7897
G1 Y6.0527 Z-0.7863
G1 Y6.0512 Z-0.7827
G1 Y6.0503 Z-0.7789
G1 Y6.05 Z-0.775
G0 Z0.6

M5
M30
