(JIG V6)
(T1  D=0.25 CR=0 - ZMIN=-0.8 - FLAT END MILL)
G0 G40 G90 G17
G20

(2D POCKET1)
T1 M6
M3 S1220
G0 X17.5872 Y1.5291
G0 Z0.6
G0 Z0.2
G1 Z0.125 F6.
G1 X17.5863 Y1.5299 Z0.1174
G1 X17.5837 Y1.532 Z0.1106
G1 X17.5794 Y1.5351 Z0.1051
G1 X17.5737 Y1.5388 Z0.1014
G1 X17.5672 Y1.5425 Z0.1
G1 X17.5594 Y1.5463 Z0.0997
G1 X17.5514 Y1.5494 Z0.0994
G1 X17.5431 Y1.552 Z0.0991
G1 X17.5347 Y1.554 Z0.0988
G1 X17.5262 Y1.5554 Z0.0985
G1 X17.5176 Y1.5561 Z0.0982
G1 X17.5089 Y1.5562 Z0.0979
G1 X17.5003 Y1.5557 Z0.0976
G1 X17.4917 Y1.5546 Z0.0973
G1 X17.4833 Y1.5528 Z0.097
G1 X17.475 Y1.5504 Z0.0967
G1 X17.4669 Y1.5474 Z0.0964
G1 X17.459 Y1.5439 Z0.0961
G1 X17.4514 Y1.5398 Z0.0958
G1 X17.4441 Y1.5351 Z0.0955
G1 X17.4372 Y1.5299 Z0.0952
G1 X17.4307 Y1.5243 Z0.0949
G1 X17.4246 Y1.5182 Z0.0946
G1 X17.4189 Y1.5116 Z0.0943
G1 X17.4138 Y1.5047 Z0.094
G1 X17.4092 Y1.4974 Z0.0937
G1 X17.4051 Y1.4897 Z0.0934
G1 X17.4016 Y1.4818 Z0.0931
G1 X17.3986 Y1.4737 Z0.0928
G1 X17.3963 Y1.4654 Z0.0925
G1 X17.3946 Y1.4569 Z0.0922
G1 X17.3935 Y1.4484 Z0.0919
G1 X17.393 Y1.4397 Z0.0915
G1 X17.3931 Y1.4311 Z0.0912
G1 X17.3939 Y1.4225 Z0.0909
G1 X17.3953 Y1.414 Z0.0906
G1 X17.3974 Y1.4056 Z0.0903
G1 X17.4 Y1.3973 Z0.09
G1 X17.4032 Y1.3893 Z0.0897
G1 X17.407 Y1.3815 Z0.0894
G1 X17.4113 Y1.3741 Z0.0891
G1 X17.4162 Y1.3669 Z0.0888
G1 X17.4216 Y1.3602 Z0.0885
G1 X17.4275 Y1.3538 Z0.0882
G1 X17.4338 Y1.3479 Z0.0879
G1 X17.4405 Y1.3425 Z0.0876
G1 X17.4476 Y1.3376 Z0.0873
G1 X17.455 Y1.3332 Z0.087
G1 X17.4628 Y1.3293 Z0.0867
G1 X17.4708 Y1.326 Z0.0864
G1 X17.479 Y1.3234 Z0.0861
G1 X17.4874 Y1.3213 Z0.0858
G1 X17.4959 Y1.3198 Z0.0855
G1 X17.5045 Y1.319 Z0.0852
G1 X17.5131 Y1.3188 Z0.0849
G1 X17.5218 Y1.3192 Z0.0846
G1 X17.5303 Y1.3202 Z0.0843
G1 X17.5388 Y1.3219 Z0.084
G1 X17.5471 Y1.3242 Z0.0837
G1 X17.5553 Y1.327 Z0.0834
G1 X17.5632 Y1.3305 Z0.0831
G1 X17.5709 Y1.3345 Z0.0828
G1 X17.5782 Y1.3391 Z0.0825
G1 X17.5852 Y1.3442 Z0.0822
G1 X17.5918 Y1.3498 Z0.0819
G1 X17.5979 Y1.3558 Z0.0816
G1 X17.6036 Y1.3623 Z0.0813
G1 X17.6089 Y1.3692 Z0.081
G1 X17.6136 Y1.3764 Z0.0807
G1 X17.6177 Y1.384 Z0.0804
G1 X17.6214 Y1.3919 Z0.0801
G1 X17.6244 Y1.4 Z0.0798
G1 X17.6268 Y1.4082 Z0.0795
G1 X17.6286 Y1.4167 Z0.0792
G1 X17.6298 Y1.4253 Z0.0789
G1 X17.6304 Y1.4339 Z0.0786
G1 Y1.4425 Z0.0783
G1 X17.6297 Y1.4511 Z0.078
G1 X17.6284 Y1.4597 Z0.0777
G1 X17.6265 Y1.4681 Z0.0774
G1 X17.6239 Y1.4764 Z0.0771
G1 X17.6208 Y1.4844 Z0.0768
G1 X17.6171 Y1.4922 Z0.0765
G1 X17.6129 Y1.4997 Z0.0762
G1 X17.6081 Y1.5069 Z0.0759
G1 X17.6028 Y1.5138 Z0.0756
G1 X17.597 Y1.5202 Z0.0752
G1 X17.5907 Y1.5262 Z0.0749
G1 X17.5841 Y1.5317 Z0.0746
G1 X17.577 Y1.5367 Z0.0743
G1 X17.5696 Y1.5412 Z0.074
G1 X17.562 Y1.5451 Z0.0737
G1 X17.554 Y1.5485 Z0.0734
G1 X17.5458 Y1.5513 Z0.0731
G1 X17.5375 Y1.5534 Z0.0728
G1 X17.529 Y1.555 Z0.0725
G1 X17.5204 Y1.5559 Z0.0722
G1 X17.5117 Y1.5562 Z0.0719
G1 X17.5031 Y1.5559 Z0.0716
G1 X17.4945 Y1.555 Z0.0713
G1 X17.486 Y1.5534 Z0.071
G1 X17.4776 Y1.5513 Z0.0707
G1 X17.4695 Y1.5485 Z0.0704
G1 X17.4615 Y1.5451 Z0.0701
G1 X17.4538 Y1.5412 Z0.0698
G1 X17.4464 Y1.5367 Z0.0695
G1 X17.4394 Y1.5317 Z0.0692
G1 X17.4327 Y1.5262 Z0.0689
G1 X17.4265 Y1.5202 Z0.0686
G1 X17.4207 Y1.5138 Z0.0683
G1 X17.4154 Y1.5069 Z0.068
G1 X17.4106 Y1.4997 Z0.0677
G1 X17.4063 Y1.4922 Z0.0674
G1 X17.4026 Y1.4844 Z0.0671
G1 X17.3995 Y1.4764 Z0.0668
G1 X17.397 Y1.4681 Z0.0665
G1 X17.3951 Y1.4597 Z0.0662
G1 X17.3938 Y1.4511 Z0.0659
G1 X17.3931 Y1.4425 Z0.0656
G1 X17.393 Y1.4339 Z0.0653
G1 X17.3936 Y1.4253 Z0.065
G1 X17.3948 Y1.4167 Z0.0647
G1 X17.3966 Y1.4082 Z0.0644
G1 X17.3991 Y1.4 Z0.0641
G1 X17.4021 Y1.3919 Z0.0638
G1 X17.4057 Y1.384 Z0.0635
G1 X17.4099 Y1.3764 Z0.0632
G1 X17.4146 Y1.3692 Z0.0629
G1 X17.4198 Y1.3623 Z0.0626
G1 X17.4255 Y1.3558 Z0.0623
G1 X17.4317 Y1.3498 Z0.062
G1 X17.4383 Y1.3442 Z0.0617
G1 X17.4453 Y1.3391 Z0.0614
G1 X17.4526 Y1.3345 Z0.0611
G1 X17.4602 Y1.3305 Z0.0608
G1 X17.4682 Y1.327 Z0.0605
G1 X17.4763 Y1.3242 Z0.0602
G1 X17.4846 Y1.3219 Z0.0599
G1 X17.4931 Y1.3202 Z0.0596
G1 X17.5017 Y1.3192 Z0.0593
G1 X17.5103 Y1.3188 Z0.059
G1 X17.519 Y1.319 Z0.0586
G1 X17.5276 Y1.3198 Z0.0583
G1 X17.5361 Y1.3213 Z0.058
G1 X17.5445 Y1.3234 Z0.0577
G1 X17.5527 Y1.326 Z0.0574
G1 X17.5607 Y1.3293 Z0.0571
G1 X17.5684 Y1.3332 Z0.0568
G1 X17.5759 Y1.3376 Z0.0565
G1 X17.583 Y1.3425 Z0.0562
G1 X17.5897 Y1.3479 Z0.0559
G1 X17.596 Y1.3538 Z0.0556
G1 X17.6019 Y1.3602 Z0.0553
G1 X17.6072 Y1.3669 Z0.055
G1 X17.6121 Y1.3741 Z0.0547
G1 X17.6165 Y1.3815 Z0.0544
G1 X17.6203 Y1.3893 Z0.0541
G1 X17.6235 Y1.3973 Z0.0538
G1 X17.6261 Y1.4056 Z0.0535
G1 X17.6281 Y1.414 Z0.0532
G1 X17.6295 Y1.4225 Z0.0529
G1 X17.6303 Y1.4311 Z0.0526
G1 X17.6305 Y1.4397 Z0.0523
G1 X17.63 Y1.4484 Z0.052
G1 X17.6289 Y1.4569 Z0.0517
G1 X17.6272 Y1.4654 Z0.0514
G1 X17.6248 Y1.4737 Z0.0511
G1 X17.6219 Y1.4818 Z0.0508
G1 X17.6184 Y1.4897 Z0.0505
G1 X17.6143 Y1.4974 Z0.0502
G1 X17.6097 Y1.5047 Z0.0499
G1 X17.6045 Y1.5116 Z0.0496
G1 X17.5989 Y1.5182 Z0.0493
G1 X17.5928 Y1.5243 Z0.049
G1 X17.5863 Y1.5299 Z0.0487
G1 X17.5793 Y1.5351 Z0.0484
G1 X17.5721 Y1.5398 Z0.0481
G1 X17.5645 Y1.5439 Z0.0478
G1 X17.5566 Y1.5474 Z0.0475
G1 X17.5485 Y1.5504 Z0.0472
G1 X17.5402 Y1.5528 Z0.0469
G1 X17.5317 Y1.5546 Z0.0466
G1 X17.5231 Y1.5557 Z0.0463
G1 X17.5145 Y1.5562 Z0.046
G1 X17.5059 Y1.5561 Z0.0457
G1 X17.4973 Y1.5554 Z0.0454
G1 X17.4887 Y1.554 Z0.0451
G1 X17.4803 Y1.552 Z0.0448
G1 X17.4721 Y1.5494 Z0.0445
G1 X17.464 Y1.5463 Z0.0442
G1 X17.4563 Y1.5425 Z0.0439
G1 X17.4488 Y1.5382 Z0.0436
G1 X17.4416 Y1.5333 Z0.0433
G1 X17.4348 Y1.528 Z0.043
G1 X17.4285 Y1.5222 Z0.0427
G1 X17.4225 Y1.5159 Z0.0423
G1 X17.4171 Y1.5092 Z0.042
G1 X17.4121 Y1.5021 Z0.0417
G1 X17.4077 Y1.4947 Z0.0414
G1 X17.4038 Y1.487 Z0.0411
G1 X17.4005 Y1.479 Z0.0408
G1 X17.3977 Y1.4708 Z0.0405
G1 X17.3956 Y1.4624 Z0.0402
G1 X17.3941 Y1.4539 Z0.0399
G1 X17.3932 Y1.4453 Z0.0396
G1 X17.393 Y1.4367 Z0.0393
G1 X17.3934 Y1.428 Z0.039
G1 X17.3944 Y1.4194 Z0.0387
G1 X17.396 Y1.411 Z0.0384
G1 X17.3982 Y1.4026 Z0.0381
G1 X17.4011 Y1.3944 Z0.0378
G1 X17.4045 Y1.3865 Z0.0375
G1 X17.4085 Y1.3789 Z0.0372
G1 X17.413 Y1.3715 Z0.0369
G1 X17.4181 Y1.3645 Z0.0366
G1 X17.4236 Y1.3579 Z0.0363
G1 X17.4297 Y1.3517 Z0.036
G1 X17.4361 Y1.3459 Z0.0357
G1 X17.443 Y1.3407 Z0.0354
G1 X17.4502 Y1.3359 Z0.0351
G1 X17.4577 Y1.3317 Z0.0348
G1 X17.4656 Y1.3281 Z0.0345
G1 X17.4737 Y1.325 Z0.0342
G1 X17.4819 Y1.3225 Z0.0339
G1 X17.4904 Y1.3207 Z0.0336
G1 X17.4989 Y1.3194 Z0.0333
G1 X17.5075 Y1.3188 Z0.033
G1 X17.5162 Z0.0327
G1 X17.5248 Y1.3195 Z0.0324
G1 X17.5334 Y1.3207 Z0.0321
G1 X17.5418 Y1.3226 Z0.0318
G1 X17.5501 Y1.3251 Z0.0315
G1 X17.5581 Y1.3282 Z0.0312
G1 X17.566 Y1.3319 Z0.0309
G1 X17.5735 Y1.3361 Z0.0306
G1 X17.5807 Y1.3408 Z0.0303
G1 X17.5876 Y1.3461 Z0.03
G1 X17.594 Y1.3519 Z0.0297
G1 X17.6 Y1.3581 Z0.0294
G1 X17.6056 Y1.3647 Z0.0291
G1 X17.6106 Y1.3717 Z0.0288
G1 X17.6151 Y1.3791 Z0.0285
G1 X17.6191 Y1.3868 Z0.0282
G1 X17.6225 Y1.3947 Z0.0279
G1 X17.6253 Y1.4029 Z0.0276
G1 X17.6275 Y1.4112 Z0.0273
G1 X17.6291 Y1.4197 Z0.027
G1 X17.6301 Y1.4283 Z0.0267
G1 X17.6305 Y1.4369 Z0.0264
G1 X17.6302 Y1.4456 Z0.026
G1 X17.6293 Y1.4542 Z0.0257
G1 X17.6278 Y1.4627 Z0.0254
G1 X17.6256 Y1.4711 Z0.0251
G1 X17.6229 Y1.4792 Z0.0248
G1 X17.6196 Y1.4872 Z0.0245
G1 X17.6157 Y1.4949 Z0.0242
G1 X17.6112 Y1.5023 Z0.0239
G1 X17.6062 Y1.5094 Z0.0236
G1 X17.6008 Y1.5161 Z0.0233
G1 X17.5948 Y1.5224 Z0.023
G1 X17.5884 Y1.5282 Z0.0227
G1 X17.5816 Y1.5335 Z0.0224
G1 X17.5744 Y1.5383 Z0.0221
G1 X17.5669 Y1.5426 Z0.0218
G1 X17.5592 Y1.5464 Z0.0215
G1 X17.5511 Y1.5495 Z0.0212
G1 X17.5429 Y1.5521 Z0.0209
G1 X17.5344 Y1.5541 Z0.0206
G1 X17.5259 Y1.5554 Z0.0203
G1 X17.5173 Y1.5561 Z0.02
G1 X17.5087 Y1.5562 Z0.0197
G1 X17.5 Y1.5557 Z0.0194
G1 X17.4915 Y1.5545 Z0.0191
G1 X17.483 Y1.5527 Z0.0188
G1 X17.4747 Y1.5503 Z0.0185
G1 X17.4666 Y1.5473 Z0.0182
G1 X17.4587 Y1.5438 Z0.0179
G1 X17.4511 Y1.5396 Z0.0176
G1 X17.4439 Y1.535 Z0.0173
G1 X17.437 Y1.5298 Z0.017
G1 X17.4305 Y1.5241 Z0.0167
G1 X17.4244 Y1.5179 Z0.0164
G1 X17.4188 Y1.5114 Z0.0161
G1 X17.4136 Y1.5044 Z0.0158
G1 X17.409 Y1.4971 Z0.0155
G1 X17.405 Y1.4895 Z0.0152
G1 X17.4015 Y1.4816 Z0.0149
G1 X17.3985 Y1.4735 Z0.0146
G1 X17.3962 Y1.4651 Z0.0143
G1 X17.3945 Y1.4567 Z0.014
G1 X17.3934 Y1.4481 Z0.0137
G1 X17.393 Y1.4395 Z0.0134
G1 X17.3932 Y1.4308 Z0.0131
G1 X17.394 Y1.4222 Z0.0128
G1 X17.3954 Y1.4137 Z0.0125
G1 X17.3974 Y1.4053 Z0.0122
G1 X17.4001 Y1.3971 Z0.0119
G1 X17.4033 Y1.389 Z0.0116
G1 X17.4071 Y1.3813 Z0.0113
G1 X17.4115 Y1.3738 Z0.011
G1 X17.4164 Y1.3667 Z0.0107
G1 X17.4218 Y1.36 Z0.0104
G1 X17.4277 Y1.3536 Z0.0101
G1 X17.434 Y1.3477 Z0.0098
G1 X17.4407 Y1.3423 Z0.0094
G1 X17.4478 Y1.3374 Z0.0091
G1 X17.4553 Y1.333 Z0.0088
G1 X17.463 Y1.3292 Z0.0085
G1 X17.471 Y1.3259 Z0.0082
G1 X17.4792 Y1.3233 Z0.0079
G1 X17.4876 Y1.3212 Z0.0076
G1 X17.4962 Y1.3198 Z0.0073
G1 X17.5048 Y1.319 Z0.007
G1 X17.5134 Y1.3188 Z0.0067
G1 X17.522 Y1.3192 Z0.0064
G1 X17.5306 Y1.3203 Z0.0061
G1 X17.5391 Y1.3219 Z0.0058
G1 X17.5474 Y1.3242 Z0.0055
G1 X17.5556 Y1.3271 Z0.0052
G1 X17.5635 Y1.3306 Z0.0049
G1 X17.5711 Y1.3347 Z0.0046
G1 X17.5784 Y1.3393 Z0.0043
G1 X17.5854 Y1.3444 Z0.004
G1 X17.592 Y1.35 Z0.0037
G1 X17.5981 Y1.356 Z0.0034
G1 X17.6038 Y1.3625 Z0.0031
G1 X17.609 Y1.3694 Z0.0028
G1 X17.6137 Y1.3767 Z0.0025
G1 X17.6179 Y1.3843 Z0.0022
G1 X17.6215 Y1.3921 Z0.0019
G1 X17.6245 Y1.4002 Z0.0016
G1 X17.6269 Y1.4085 Z0.0013
G1 X17.6287 Y1.417 Z0.001
G1 X17.6299 Y1.4255 Z0.0007
G1 X17.6304 Y1.4342 Z0.0004
G1 Y1.4428 Z0.0001
G1 X17.6297 Y1.4514 Z-0.0002
G1 X17.6283 Y1.4599 Z-0.0005
G1 X17.6264 Y1.4684 Z-0.0008
G1 X17.6238 Y1.4766 Z-0.0011
G1 X17.6207 Y1.4847 Z-0.0014
G1 X17.617 Y1.4925 Z-0.0017
G1 X17.6127 Y1.5 Z-0.002
G1 X17.6079 Y1.5072 Z-0.0023
G1 X17.6026 Y1.514 Z-0.0026
G1 X17.5968 Y1.5204 Z-0.0029
G1 X17.5905 Y1.5263 Z-0.0032
G1 X17.5839 Y1.5318 Z-0.0035
G1 X17.5768 Y1.5368 Z-0.0038
G1 X17.5694 Y1.5413 Z-0.0041
G1 X17.5617 Y1.5452 Z-0.0044
G1 X17.5537 Y1.5486 Z-0.0047
G1 X17.5455 Y1.5513 Z-0.005
G1 X17.5372 Y1.5535 Z-0.0053
G1 X17.5287 Y1.555 Z-0.0056
G1 X17.5201 Y1.556 Z-0.0059
G1 X17.5114 Y1.5562 Z-0.0062
G1 X17.5028 Y1.5559 Z-0.0065
G1 X17.4942 Y1.555 Z-0.0069
G1 X17.4857 Y1.5534 Z-0.0072
G1 X17.4774 Y1.5512 Z-0.0075
G1 X17.4692 Y1.5484 Z-0.0078
G1 X17.4612 Y1.545 Z-0.0081
G1 X17.4536 Y1.541 Z-0.0084
G1 X17.4462 Y1.5365 Z-0.0087
G1 X17.4392 Y1.5315 Z-0.009
G1 X17.4325 Y1.526 Z-0.0093
G1 X17.4263 Y1.52 Z-0.0096
G1 X17.4205 Y1.5135 Z-0.0099
G1 X17.4152 Y1.5067 Z-0.0102
G1 X17.4105 Y1.4995 Z-0.0105
G1 X17.4062 Y1.492 Z-0.0108
G1 X17.4025 Y1.4842 Z-0.0111
G1 X17.3994 Y1.4761 Z-0.0114
G1 X17.3969 Y1.4678 Z-0.0117
G1 X17.395 Y1.4594 Z-0.012
G1 X17.3937 Y1.4509 Z-0.0123
G1 X17.3931 Y1.4422 Z-0.0126
G1 X17.393 Y1.4336 Z-0.0129
G1 X17.3936 Y1.425 Z-0.0132
G1 X17.3949 Y1.4164 Z-0.0135
G1 X17.3967 Y1.408 Z-0.0138
G1 X17.3992 Y1.3997 Z-0.0141
G1 X17.4022 Y1.3916 Z-0.0144
G1 X17.4058 Y1.3838 Z-0.0147
G1 X17.41 Y1.3762 Z-0.015
G1 X17.4147 Y1.369 Z-0.0153
G1 X17.42 Y1.3621 Z-0.0156
G1 X17.4257 Y1.3556 Z-0.0159
G1 X17.4319 Y1.3496 Z-0.0162
G1 X17.4385 Y1.344 Z-0.0165
G1 X17.4455 Y1.3389 Z-0.0168
G1 X17.4528 Y1.3344 Z-0.0171
G1 X17.4605 Y1.3304 Z-0.0174
G1 X17.4684 Y1.3269 Z-0.0177
G1 X17.4766 Y1.3241 Z-0.018
G1 X17.4849 Y1.3218 Z-0.0183
G1 X17.4934 Y1.3202 Z-0.0186
G1 X17.502 Y1.3192 Z-0.0189
G1 X17.5106 Y1.3188 Z-0.0192
G1 X17.5192 Y1.319 Z-0.0195
G1 X17.5278 Y1.3198 Z-0.0198
G1 X17.5364 Y1.3213 Z-0.0201
G1 X17.5447 Y1.3234 Z-0.0204
G1 X17.553 Y1.3261 Z-0.0207
G1 X17.5609 Y1.3294 Z-0.021
G1 X17.5687 Y1.3333 Z-0.0213
G1 X17.5761 Y1.3377 Z-0.0216
G1 X17.5832 Y1.3427 Z-0.0219
G1 X17.5899 Y1.3481 Z-0.0222
G1 X17.5962 Y1.354 Z-0.0225
G1 X17.602 Y1.3604 Z-0.0228
G1 X17.6074 Y1.3672 Z-0.0231
G1 X17.6123 Y1.3743 Z-0.0235
G1 X17.6166 Y1.3818 Z-0.0238
G1 X17.6204 Y1.3896 Z-0.0241
G1 X17.6236 Y1.3976 Z-0.0244
G1 X17.6262 Y1.4058 Z-0.0247
G1 X17.6282 Y1.4142 Z-0.025
G1 X17.6296 Y1.4228 Z-0.0253
G1 X17.6303 Y1.4314 Z-0.0256
G1 X17.6304 Y1.44 Z-0.0259
G1 X17.63 Y1.4486 Z-0.0262
G1 X17.6288 Y1.4572 Z-0.0265
G1 X17.6271 Y1.4657 Z-0.0268
G1 X17.6247 Y1.474 Z-0.0271
G1 X17.6218 Y1.4821 Z-0.0274
G1 X17.6182 Y1.49 Z-0.0277
G1 X17.6141 Y1.4976 Z-0.028
G1 X17.6095 Y1.5049 Z-0.0283
G1 X17.6043 Y1.5118 Z-0.0286
G1 X17.5987 Y1.5184 Z-0.0289
G1 X17.5926 Y1.5245 Z-0.0292
G1 X17.586 Y1.5301 Z-0.0295
G1 X17.5791 Y1.5353 Z-0.0298
G1 X17.5718 Y1.5399 Z-0.0301
G1 X17.5642 Y1.544 Z-0.0304
G1 X17.5563 Y1.5476 Z-0.0307
G1 X17.5482 Y1.5505 Z-0.031
G1 X17.5399 Y1.5529 Z-0.0313
G1 X17.5314 Y1.5546 Z-0.0316
G1 X17.5229 Y1.5557 Z-0.0319
G1 X17.5142 Y1.5562 Z-0.0322
G1 X17.5056 Y1.5561 Z-0.0325
G1 X17.497 Y1.5553 Z-0.0328
G1 X17.4885 Y1.5539 Z-0.0331
G1 X17.48 Y1.5519 Z-0.0334
G1 X17.4718 Y1.5493 Z-0.0337
G1 X17.4638 Y1.5461 Z-0.034
G1 X17.456 Y1.5424 Z-0.0343
G1 X17.4485 Y1.538 Z-0.0346
G1 X17.4414 Y1.5332 Z-0.0349
G1 X17.4346 Y1.5278 Z-0.0352
G1 X17.4283 Y1.522 Z-0.0355
G1 X17.4223 Y1.5157 Z-0.0358
G1 X17.4169 Y1.509 Z-0.0361
G1 X17.4119 Y1.5019 Z-0.0364
G1 X17.4075 Y1.4944 Z-0.0367
G1 X17.4037 Y1.4867 Z-0.037
G1 X17.4004 Y1.4787 Z-0.0373
G1 X17.3977 Y1.4705 Z-0.0376
G1 X17.3956 Y1.4621 Z-0.0379
G1 X17.3941 Y1.4536 Z-0.0382
G1 X17.3932 Y1.445 Z-0.0385
G1 X17.393 Y1.4364 Z-0.0388
G1 X17.3934 Y1.4278 Z-0.0391
G1 X17.3944 Y1.4192 Z-0.0394
G1 X17.396 Y1.4107 Z-0.0398
G1 X17.3983 Y1.4023 Z-0.0401
G1 X17.4012 Y1.3942 Z-0.0404
G1 X17.4046 Y1.3863 Z-0.0407
G1 X17.4086 Y1.3786 Z-0.041
G1 X17.4132 Y1.3713 Z-0.0413
G1 X17.4182 Y1.3643 Z-0.0416
G1 X17.4238 Y1.3577 Z-0.0419
G1 X17.4299 Y1.3515 Z-0.0422
G1 X17.4363 Y1.3458 Z-0.0425
G1 X17.4432 Y1.3405 Z-0.0428
G1 X17.4504 Y1.3358 Z-0.0431
G1 X17.458 Y1.3316 Z-0.0434
G1 X17.4658 Y1.328 Z-0.0437
G1 X17.4739 Y1.3249 Z-0.044
G1 X17.4822 Y1.3225 Z-0.0443
G1 X17.4906 Y1.3206 Z-0.0446
G1 X17.4992 Y1.3194 Z-0.0449
G1 X17.5078 Y1.3188 Z-0.0452
G1 X17.5165 Z-0.0455
G1 X17.5251 Y1.3195 Z-0.0458
G1 X17.5336 Y1.3208 Z-0.0461
G1 X17.5421 Y1.3227 Z-0.0464
G1 X17.5503 Y1.3252 Z-0.0467
G1 X17.5584 Y1.3283 Z-0.047
G1 X17.5662 Y1.332 Z-0.0473
G1 X17.5737 Y1.3362 Z-0.0476
G1 X17.5809 Y1.341 Z-0.0479
G1 X17.5878 Y1.3463 Z-0.0482
G1 X17.5942 Y1.3521 Z-0.0485
G1 X17.6002 Y1.3583 Z-0.0488
G1 X17.6057 Y1.3649 Z-0.0491
G1 X17.6108 Y1.372 Z-0.0494
G1 X17.6153 Y1.3793 Z-0.0497
G1 X17.6192 Y1.387 Z-0.05
G1 X17.6226 Y1.395 Z-0.0503
G1 X17.6254 Y1.4031 Z-0.0506
G1 X17.6276 Y1.4115 Z-0.0509
G1 X17.6292 Y1.42 Z-0.0512
G1 X17.6301 Y1.4286 Z-0.0515
G1 X17.6305 Y1.4372 Z-0.0518
G1 X17.6302 Y1.4459 Z-0.0521
G1 X17.6293 Y1.4545 Z-0.0524
G1 X17.6277 Y1.463 Z-0.0527
G1 X17.6256 Y1.4713 Z-0.053
G1 X17.6228 Y1.4795 Z-0.0533
G1 X17.6194 Y1.4875 Z-0.0536
G1 X17.6155 Y1.4952 Z-0.0539
G1 X17.6111 Y1.5026 Z-0.0542
G1 X17.6061 Y1.5096 Z-0.0545
G1 X17.6006 Y1.5163 Z-0.0548
G1 X17.5946 Y1.5225 Z-0.0551
G1 X17.5882 Y1.5283 Z-0.0554
G1 X17.5814 Y1.5337 Z-0.0557
G1 X17.5742 Y1.5385 Z-0.056
G1 X17.5667 Y1.5428 Z-0.0564
G1 X17.5589 Y1.5465 Z-0.0567
G1 X17.5509 Y1.5496 Z-0.057
G1 X17.5426 Y1.5522 Z-0.0573
G1 X17.5342 Y1.5541 Z-0.0576
G1 X17.5256 Y1.5554 Z-0.0579
G1 X17.517 Y1.5561 Z-0.0582
G1 X17.5084 Y1.5562 Z-0.0585
G1 X17.4998 Y1.5556 Z-0.0588
G1 X17.4912 Y1.5545 Z-0.0591
G1 X17.4827 Y1.5527 Z-0.0594
G1 X17.4744 Y1.5502 Z-0.0597
G1 X17.4663 Y1.5472 Z-0.06
G1 X17.4585 Y1.5436 Z-0.0603
G1 X17.4509 Y1.5395 Z-0.0606
G1 X17.4437 Y1.5348 Z-0.0609
G1 X17.4368 Y1.5296 Z-0.0612
G1 X17.4303 Y1.5239 Z-0.0615
G1 X17.4242 Y1.5177 Z-0.0618
G1 X17.4186 Y1.5112 Z-0.0621
G1 X17.4135 Y1.5042 Z-0.0624
G1 X17.4089 Y1.4969 Z-0.0627
G1 X17.4048 Y1.4892 Z-0.063
G1 X17.4014 Y1.4813 Z-0.0633
G1 X17.3985 Y1.4732 Z-0.0636
G1 X17.3962 Y1.4649 Z-0.0639
G1 X17.3945 Y1.4564 Z-0.0642
G1 X17.3934 Y1.4478 Z-0.0645
G1 X17.393 Y1.4392 Z-0.0648
G1 X17.3932 Y1.4305 Z-0.0651
G1 X17.394 Y1.4219 Z-0.0654
G1 X17.3954 Y1.4134 Z-0.0657
G1 X17.3975 Y1.405 Z-0.066
G1 X17.4002 Y1.3968 Z-0.0663
G1 X17.4034 Y1.3888 Z-0.0666
G1 X17.4073 Y1.381 Z-0.0669
G1 X17.4116 Y1.3736 Z-0.0672
G1 X17.4165 Y1.3665 Z-0.0675
G1 X17.422 Y1.3598 Z-0.0678
G1 X17.4279 Y1.3534 Z-0.0681
G1 X17.4342 Y1.3476 Z-0.0684
G1 X17.4409 Y1.3422 Z-0.0687
G1 X17.4481 Y1.3373 Z-0.069
G1 X17.4555 Y1.3329 Z-0.0693
G1 X17.4633 Y1.3291 Z-0.0696
G1 X17.4713 Y1.3258 Z-0.0699
G1 X17.4795 Y1.3232 Z-0.0702
G1 X17.4879 Y1.3212 Z-0.0705
G1 X17.4964 Y1.3197 Z-0.0708
G1 X17.505 Y1.3189 Z-0.0711
G1 X17.5137 Y1.3188 Z-0.0714
G1 X17.5223 Y1.3192 Z-0.0717
G1 X17.5309 Y1.3203 Z-0.072
G1 X17.5394 Y1.322 Z-0.0723
G1 X17.5477 Y1.3243 Z-0.0727
G1 X17.5558 Y1.3272 Z-0.073
G1 X17.5637 Y1.3307 Z-0.0733
G1 X17.5713 Y1.3348 Z-0.0736
G1 X17.5787 Y1.3394 Z-0.0739
G1 X17.5856 Y1.3445 Z-0.0742
G1 X17.5922 Y1.3502 Z-0.0745
G1 X17.5983 Y1.3562 Z-0.0748
G1 X17.604 Y1.3627 Z-0.0751
G1 X17.6092 Y1.3697 Z-0.0754
G1 X17.6139 Y1.3769 Z-0.0757
G1 X17.618 Y1.3845 Z-0.076
G1 X17.6216 Y1.3924 Z-0.0763
G1 X17.6246 Y1.4005 Z-0.0766
G1 X17.627 Y1.4088 Z-0.0769
G1 X17.6287 Y1.4172 Z-0.0772
G1 X17.6299 Y1.4258 Z-0.0775
G1 X17.6304 Y1.4344 Z-0.0778
G1 X17.6303 Y1.4431 Z-0.0781
G1 X17.6296 Y1.4517 Z-0.0784
G1 X17.6283 Y1.4602 Z-0.0787
G1 X17.6263 Y1.4686 Z-0.079
G1 X17.6238 Y1.4769 Z-0.0793
G1 X17.6206 Y1.4849 Z-0.0796
G1 X17.6169 Y1.4927 Z-0.0799
G1 X17.6126 Y1.5002 Z-0.0802
G1 X17.6077 Y1.5074 Z-0.0805
G1 X17.6024 Y1.5142 Z-0.0808
G1 X17.5966 Y1.5206 Z-0.0811
G1 X17.5903 Y1.5265 Z-0.0814
G1 X17.5836 Y1.532 Z-0.0817
G1 X17.5766 Y1.537 Z-0.082
G1 X17.5692 Y1.5414 Z-0.0823
G1 X17.5614 Y1.5453 Z-0.0826
G1 X17.5535 Y1.5487 Z-0.0829
G1 X17.5453 Y1.5514 Z-0.0832
G1 X17.5369 Y1.5535 Z-0.0835
G1 X17.5284 Y1.5551 Z-0.0838
G1 X17.5198 Y1.556 Z-0.0841
G1 X17.5112 Y1.5562 Z-0.0844
G1 X17.5025 Y1.5559 Z-0.0847
G1 X17.4939 Y1.5549 Z-0.085
G1 X17.4855 Y1.5533 Z-0.0853
G1 X17.4771 Y1.5511 Z-0.0856
G1 X17.4689 Y1.5483 Z-0.0859
G1 X17.461 Y1.5449 Z-0.0862
G1 X17.4533 Y1.5409 Z-0.0865
G1 X17.446 Y1.5364 Z-0.0868
G1 X17.4389 Y1.5313 Z-0.0871
G1 X17.4323 Y1.5258 Z-0.0874
G1 X17.4261 Y1.5198 Z-0.0877
G1 X17.4203 Y1.5133 Z-0.088
G1 X17.4151 Y1.5065 Z-0.0883
G1 X17.4103 Y1.4993 Z-0.0886
G1 X17.4061 Y1.4917 Z-0.089
G1 X17.4024 Y1.4839 Z-0.0893
G1 X17.3993 Y1.4758 Z-0.0896
G1 X17.3968 Y1.4676 Z-0.0899
G1 X17.395 Y1.4591 Z-0.0902
G1 X17.3937 Y1.4506 Z-0.0905
G1 X17.3931 Y1.442 Z-0.0908
G1 Y1.4333 Z-0.0911
G1 X17.3937 Y1.4247 Z-0.0914
G1 X17.3949 Y1.4161 Z-0.0917
G1 X17.3968 Y1.4077 Z-0.092
G1 X17.3992 Y1.3994 Z-0.0923
G1 X17.4023 Y1.3913 Z-0.0926
G1 X17.406 Y1.3835 Z-0.0929
G1 X17.4102 Y1.376 Z-0.0932
G1 X17.4149 Y1.3687 Z-0.0935
G1 X17.4202 Y1.3619 Z-0.0938
G1 X17.4259 Y1.3554 Z-0.0941
G1 X17.4321 Y1.3494 Z-0.0944
G1 X17.4387 Y1.3438 Z-0.0947
G1 X17.4457 Y1.3388 Z-0.095
G1 X17.4531 Y1.3342 Z-0.0953
G1 X17.4607 Y1.3303 Z-0.0956
G1 X17.4687 Y1.3268 Z-0.0959
G1 X17.4768 Y1.324 Z-0.0962
G1 X17.4852 Y1.3218 Z-0.0965
G1 X17.4937 Y1.3201 Z-0.0968
G1 X17.5023 Y1.3191 Z-0.0971
G1 X17.5109 Y1.3188 Z-0.0974
G1 X17.5195 Y1.319 Z-0.0977
G1 X17.5281 Y1.3199 Z-0.098
G1 X17.5366 Y1.3214 Z-0.0983
G1 X17.545 Y1.3235 Z-0.0986
G1 X17.5532 Y1.3262 Z-0.0989
G1 X17.5612 Y1.3295 Z-0.0992
G1 X17.5689 Y1.3334 Z-0.0995
G1 X17.5763 Y1.3379 Z-0.0998
G1 X17.5834 Y1.3428 Z-0.1001
G1 X17.5901 Y1.3483 Z-0.1004
G1 X17.5964 Y1.3542 Z-0.1007
G1 X17.6022 Y1.3606 Z-0.101
G1 X17.6076 Y1.3674 Z-0.1013
G1 X17.6124 Y1.3745 Z-0.1016
G1 X17.6167 Y1.382 Z-0.1019
G1 X17.6205 Y1.3898 Z-0.1022
G1 X17.6237 Y1.3978 Z-0.1025
G1 X17.6262 Y1.4061 Z-0.1028
G1 X17.6282 Y1.4145 Z-0.1031
G1 X17.6296 Y1.423 Z-0.1034
G1 X17.6303 Y1.4316 Z-0.1037
G1 X17.6304 Y1.4403 Z-0.104
G1 X17.6299 Y1.4489 Z-0.1043
G1 X17.6288 Y1.4575 Z-0.1046
G1 X17.627 Y1.4659 Z-0.1049
G1 X17.6246 Y1.4742 Z-0.1052
G1 X17.6217 Y1.4824 Z-0.1056
G1 X17.6181 Y1.4902 Z-0.1059
G1 X17.614 Y1.4978 Z-0.1062
G1 X17.6093 Y1.5051 Z-0.1065
G1 X17.6042 Y1.512 Z-0.1068
G1 X17.5985 Y1.5186 Z-0.1071
G1 X17.5924 Y1.5247 Z-0.1074
G1 X17.5858 Y1.5303 Z-0.1077
G1 X17.5789 Y1.5354 Z-0.108
G1 X17.5716 Y1.5401 Z-0.1083
G1 X17.564 Y1.5441 Z-0.1086
G1 X17.5561 Y1.5477 Z-0.1089
G1 X17.5479 Y1.5506 Z-0.1092
G1 X17.5396 Y1.5529 Z-0.1095
G1 X17.5312 Y1.5546 Z-0.1098
G1 X17.5226 Y1.5558 Z-0.1101
G1 X17.514 Y1.5562 Z-0.1104
G1 X17.5053 Y1.5561 Z-0.1107
G1 X17.4967 Y1.5553 Z-0.111
G1 X17.4882 Y1.5539 Z-0.1113
G1 X17.4798 Y1.5519 Z-0.1116
G1 X17.4715 Y1.5492 Z-0.1119
G1 X17.4635 Y1.546 Z-0.1122
G1 X17.4558 Y1.5422 Z-0.1125
G1 X17.4483 Y1.5379 Z-0.1128
G1 X17.4412 Y1.533 Z-0.1131
G1 X17.4344 Y1.5276 Z-0.1134
G1 X17.4281 Y1.5218 Z-0.1137
G1 X17.4221 Y1.5155 Z-0.114
G1 X17.4167 Y1.5087 Z-0.1143
G1 X17.4118 Y1.5016 Z-0.1146
G1 X17.4074 Y1.4942 Z-0.1149
G1 X17.4035 Y1.4865 Z-0.1152
G1 X17.4003 Y1.4785 Z-0.1155
G1 X17.3976 Y1.4702 Z-0.1158
G1 X17.3955 Y1.4619 Z-0.1161
G1 X17.394 Y1.4533 Z-0.1164
G1 X17.3932 Y1.4447 Z-0.1167
G1 X17.393 Y1.4361 Z-0.117
G1 X17.3934 Y1.4275 Z-0.1173
G1 X17.3944 Y1.4189 Z-0.1176
G1 X17.3961 Y1.4104 Z-0.1179
G1 X17.3984 Y1.4021 Z-0.1182
G1 X17.4013 Y1.3939 Z-0.1185
G1 X17.4047 Y1.386 Z-0.1188
G1 X17.4087 Y1.3784 Z-0.1191
G1 X17.4133 Y1.371 Z-0.1194
G1 X17.4184 Y1.3641 Z-0.1197
G1 X17.424 Y1.3575 Z-0.12
G1 X17.4301 Y1.3513 Z-0.1203
G1 X17.4365 Y1.3456 Z-0.1206
G1 X17.4434 Y1.3404 Z-0.1209
G1 X17.4507 Y1.3356 Z-0.1212
G1 X17.4582 Y1.3315 Z-0.1215
G1 X17.4661 Y1.3279 Z-0.1219
G1 X17.4742 Y1.3248 Z-0.1222
G1 X17.4825 Y1.3224 Z-0.1225
G1 X17.4909 Y1.3206 Z-0.1228
G1 X17.4995 Y1.3194 Z-0.1231
G1 X17.5081 Y1.3188 Z-0.1234
G1 X17.5167 Y1.3189 Z-0.1237
G1 X17.5254 Y1.3195 Z-0.124
G1 X17.5339 Y1.3208 Z-0.1243
G1 X17.5423 Y1.3228 Z-0.1246
G1 X17.5506 Y1.3253 Z-0.1249
G1 X17.5586 Y1.3284 Z-0.1252
G1 X17.5665 Y1.3321 Z-0.1255
G1 X17.574 Y1.3364 Z-0.1258
G1 X17.5812 Y1.3412 Z-0.1261
G1 X17.588 Y1.3465 Z-0.1264
G1 X17.5944 Y1.3523 Z-0.1267
G1 X17.6004 Y1.3585 Z-0.127
G1 X17.6059 Y1.3652 Z-0.1273
G1 X17.6109 Y1.3722 Z-0.1276
G1 X17.6154 Y1.3796 Z-0.1279
G1 X17.6193 Y1.3873 Z-0.1282
G1 X17.6227 Y1.3952 Z-0.1285
G1 X17.6255 Y1.4034 Z-0.1288
G1 X17.6277 Y1.4118 Z-0.1291
G1 X17.6292 Y1.4203 Z-0.1294
G1 X17.6302 Y1.4289 Z-0.1297
G1 X17.6305 Y1.4375 Z-0.13
G1 Y1.4927 F30.
G3 X17.6177 Y1.5055 I-0.0128 J0
G1 X1.3595
G3 X1.3468 Y1.4927 I0 J-0.0128
G1 Y1.3823
G3 X1.3595 Y1.3695 I0.0128 J0
G1 X17.6177
G3 X17.6305 Y1.3823 I0 J0.0128
G1 Y1.4375
G2 X17.7181 Y1.5606 I0.1303 J0
G3 X17.7653 Y1.658 I-0.0251 J0.0724
G3 X17.693 Y1.7095 I-0.0724 J-0.0251
G1 X1.1555
G3 X1.1427 Y1.6968 I0 J-0.0128
G1 Y1.1782
G3 X1.1555 Y1.1655 I0.0128 J0
G1 X17.8218
G3 X17.8345 Y1.1782 I0 J0.0128
G1 Y1.6968
G3 X17.8218 Y1.7095 I-0.0128 J0
G1 X17.693
G2 X17.5399 Y1.8116 I0 J0.1658
G3 X17.3869 Y1.9136 I-0.153 J-0.0638
G1 X0.9514
G3 X0.9386 Y1.9008 I0 J-0.0128
G1 Y0.9742
G3 X0.9514 Y0.9614 I0.0128 J0
G1 X18.0258
G3 X18.0386 Y0.9742 I0 J0.0128
G1 Y1.9008
G3 X18.0258 Y1.9136 I-0.0128 J0
G1 X17.3869
G2 X17.2338 Y2.0156 I0 J0.1658
G3 X17.0808 Y2.1176 I-0.153 J-0.0638
G1 X0.7474
G3 X0.7346 Y2.1049 I0 J-0.0128
G1 Y0.7701
G3 X0.7474 Y0.7574 I0.0128 J0
G1 X18.2299
G3 X18.2426 Y0.7701 I0 J0.0128
G1 Y2.1049
G3 X18.2299 Y2.1176 I-0.0128 J0
G1 X17.0808
G2 X16.9278 Y2.2197 I0 J0.1658
G3 X16.7747 Y2.3217 I-0.153 J-0.0638
G1 X0.5433
G3 X0.5305 Y2.3089 I0 J-0.0128
G1 Y0.5661
G3 X0.5433 Y0.5533 I0.0128 J0
G1 X18.4339
G3 X18.4467 Y0.5661 I0 J0.0128
G1 Y2.3089
G3 X18.4339 Y2.3217 I-0.0128 J0
G1 X16.7747
G2 X16.6217 Y2.4237 I0 J0.1658
G3 X16.4686 Y2.5257 I-0.153 J-0.0638
G1 X0.3393
G3 X0.3265 Y2.513 I0 J-0.0128
G1 Y0.362
G3 X0.3393 Y0.3493 I0.0128 J0
G1 X18.638
G3 X18.6507 Y0.362 I0 J0.0128
G1 Y2.513
G3 X18.638 Y2.5257 I-0.0128 J0
G1 X16.4686
G2 X16.3155 Y2.6279 I0 J0.166
G3 X16.1623 Y2.73 I-0.1532 J-0.0638
G1 X0.1222
G1 Y0.145
G1 X18.855
G1 Y2.73
G1 X16.1623
G1 X16.1584 Y2.7297 Z-0.1294 F6.
G1 X16.1547 Y2.7288 Z-0.1288
G1 X16.1514 Y2.7275 Z-0.127
G1 X16.1484 Y2.7258 Z-0.1252
G1 X16.1462 Y2.7241 Z-0.1225
G1 X16.1442 Y2.7223 Z-0.1197
G1 X16.1419 Y2.7195 Z-0.1127
G1 X16.1412 Y2.7185 Z-0.105
G0 Z0.6

(2D CONTOUR2)
G0 X1.5022 Y6.05
G0 Z0.6
G0 Z0.2
G1 Z0.1644 F30.
G1 Z-0.1
G1 Y6.0503 Z-0.1039 F6.
G1 Y6.0512 Z-0.1077
G1 Y6.0527 Z-0.1113
G1 Y6.0548 Z-0.1147
G1 Y6.0573 Z-0.1177
G1 Y6.0603 Z-0.1202
G1 Y6.0636 Z-0.1223
G1 Y6.0673 Z-0.1238
G1 Y6.0711 Z-0.1247
G1 Y6.075 Z-0.125
G1 Y6.1
G3 X1.4772 Y6.125 I-0.025 J0
G1 X-0.1478 F30.
G1 Y2.875
G1 X19.1022
G1 Y6.125
G1 X1.4772
G3 X1.4522 Y6.1 I0 J-0.025 F6.
G1 Y6.075
G1 Y6.0711 Z-0.1247
G1 Y6.0673 Z-0.1238
G1 Y6.0636 Z-0.1223
G1 Y6.0603 Z-0.1202
G1 Y6.0573 Z-0.1177
G1 Y6.0548 Z-0.1147
G1 Y6.0527 Z-0.1113
G1 Y6.0512 Z-0.1077
G1 Y6.0503 Z-0.1039
G1 Y6.05 Z-0.1
G0 Z0.2
G0 X1.5022
G1 Z0.0394 F30.
G1 Z-0.225
G1 Y6.0503 Z-0.2289 F6.
G1 Y6.0512 Z-0.2327
G1 Y6.0527 Z-0.2363
G1 Y6.0548 Z-0.2397
G1 Y6.0573 Z-0.2427
G1 Y6.0603 Z-0.2452
G1 Y6.0636 Z-0.2473
G1 Y6.0673 Z-0.2488
G1 Y6.0711 Z-0.2497
G1 Y6.075 Z-0.25
G1 Y6.1
G3 X1.4772 Y6.125 I-0.025 J0
G1 X-0.1478 F30.
G1 Y2.875
G1 X19.1022
G1 Y6.125
G1 X1.4772
G3 X1.4522 Y6.1 I0 J-0.025 F6.
G1 Y6.075
G1 Y6.0711 Z-0.2497
G1 Y6.0673 Z-0.2488
G1 Y6.0636 Z-0.2473
G1 Y6.0603 Z-0.2452
G1 Y6.0573 Z-0.2427
G1 Y6.0548 Z-0.2397
G1 Y6.0527 Z-0.2363
G1 Y6.0512 Z-0.2327
G1 Y6.0503 Z-0.2289
G1 Y6.05 Z-0.225
G0 Z0.2
G0 X1.5022
G1 Z-0.0856 F30.
G1 Z-0.35
G1 Y6.0503 Z-0.3539 F6.
G1 Y6.0512 Z-0.3577
G1 Y6.0527 Z-0.3613
G1 Y6.0548 Z-0.3647
G1 Y6.0573 Z-0.3677
G1 Y6.0603 Z-0.3702
G1 Y6.0636 Z-0.3723
G1 Y6.0673 Z-0.3738
G1 Y6.0711 Z-0.3747
G1 Y6.075 Z-0.375
G1 Y6.1
G3 X1.4772 Y6.125 I-0.025 J0
G1 X-0.1478 F30.
G1 Y2.875
G1 X19.1022
G1 Y6.125
G1 X1.4772
G3 X1.4522 Y6.1 I0 J-0.025 F6.
G1 Y6.075
G1 Y6.0711 Z-0.3747
G1 Y6.0673 Z-0.3738
G1 Y6.0636 Z-0.3723
G1 Y6.0603 Z-0.3702
G1 Y6.0573 Z-0.3677
G1 Y6.0548 Z-0.3647
G1 Y6.0527 Z-0.3613
G1 Y6.0512 Z-0.3577
G1 Y6.0503 Z-0.3539
G1 Y6.05 Z-0.35
G0 Z0.2
G0 X1.5022
G1 Z-0.2106 F30.
G1 Z-0.475
G1 Y6.0503 Z-0.4789 F6.
G1 Y6.0512 Z-0.4827
G1 Y6.0527 Z-0.4863
G1 Y6.0548 Z-0.4897
G1 Y6.0573 Z-0.4927
G1 Y6.0603 Z-0.4952
G1 Y6.0636 Z-0.4973
G1 Y6.0673 Z-0.4988
G1 Y6.0711 Z-0.4997
G1 Y6.075 Z-0.5
G1 Y6.1
G3 X1.4772 Y6.125 I-0.025 J0
G1 X-0.1478 F30.
G1 Y2.875
G1 X19.1022
G1 Y6.125
G1 X1.4772
G3 X1.4522 Y6.1 I0 J-0.025 F6.
G1 Y6.075
G1 Y6.0711 Z-0.4997
G1 Y6.0673 Z-0.4988
G1 Y6.0636 Z-0.4973
G1 Y6.0603 Z-0.4952
G1 Y6.0573 Z-0.4927
G1 Y6.0548 Z-0.4897
G1 Y6.0527 Z-0.4863
G1 Y6.0512 Z-0.4827
G1 Y6.0503 Z-0.4789
G1 Y6.05 Z-0.475
G0 Z0.2
G0 X1.5022
G1 Z-0.3356 F30.
G1 Z-0.6
G1 Y6.0503 Z-0.6039 F6.
G1 Y6.0512 Z-0.6077
G1 Y6.0527 Z-0.6113
G1 Y6.0548 Z-0.6147
G1 Y6.0573 Z-0.6177
G1 Y6.0603 Z-0.6202
G1 Y6.0636 Z-0.6223
G1 Y6.0673 Z-0.6238
G1 Y6.0711 Z-0.6247
G1 Y6.075 Z-0.625
G1 Y6.1
G3 X1.4772 Y6.125 I-0.025 J0
G1 X-0.1478 F30.
G1 Y2.875
G1 X19.1022
G1 Y6.125
G1 X1.4772
G3 X1.4522 Y6.1 I0 J-0.025 F6.
G1 Y6.075
G1 Y6.0711 Z-0.6247
G1 Y6.0673 Z-0.6238
G1 Y6.0636 Z-0.6223
G1 Y6.0603 Z-0.6202
G1 Y6.0573 Z-0.6177
G1 Y6.0548 Z-0.6147
G1 Y6.0527 Z-0.6113
G1 Y6.0512 Z-0.6077
G1 Y6.0503 Z-0.6039
G1 Y6.05 Z-0.6
G0 Z0.2
G0 X1.5022
G1 Z-0.4606 F30.
G1 Z-0.725
G1 Y6.0503 Z-0.7289 F6.
G1 Y6.0512 Z-0.7327
G1 Y6.0527 Z-0.7363
G1 Y6.0548 Z-0.7397
G1 Y6.0573 Z-0.7427
G1 Y6.0603 Z-0.7452
G1 Y6.0636 Z-0.7473
G1 Y6.0673 Z-0.7488
G1 Y6.0711 Z-0.7497
G1 Y6.075 Z-0.75
G1 Y6.1
G3 X1.4772 Y6.125 I-0.025 J0
G1 X-0.1478 F30.
G1 Y4.715
G1 Z-0.65
G1 Y4.215
G1 Z-0.75
G1 Y2.875
G1 X5.5793
G1 Z-0.65
G1 X6.0793
G1 Z-0.75
G1 X12.152
G1 Z-0.65
G1 X12.652
G1 Z-0.75
G1 X19.1022
G1 Y4.215
G1 Z-0.65
G1 Y4.715
G1 Z-0.75
G1 Y6.125
G1 X14.3827
G1 Z-0.65
G1 X13.8827
G1 Z-0.75
G1 X5.3612
G1 Z-0.65
G1 X4.8612
G1 Z-0.75
G1 X1.4772
G3 X1.4522 Y6.1 I0 J-0.025 F6.
G1 Y6.075
G1 Y6.0711 Z-0.7497
G1 Y6.0673 Z-0.7488
G1 Y6.0636 Z-0.7473
G1 Y6.0603 Z-0.7452
G1 Y6.0573 Z-0.7427
G1 Y6.0548 Z-0.7397
G1 Y6.0527 Z-0.7363
G1 Y6.0512 Z-0.7327
G1 Y6.0503 Z-0.7289
G1 Y6.05 Z-0.725
G0 Z0.2
G0 X1.5022
G1 Z-0.5856 F30.
G1 Z-0.775
G1 Y6.0503 Z-0.7789 F6.
G1 Y6.0512 Z-0.7827
G1 Y6.0527 Z-0.7863
G1 Y6.0548 Z-0.7897
G1 Y6.0573 Z-0.7927
G1 Y6.0603 Z-0.7952
G1 Y6.0636 Z-0.7973
G1 Y6.0673 Z-0.7988
G1 Y6.0711 Z-0.7997
G1 Y6.075 Z-0.8
G1 Y6.1
G3 X1.4772 Y6.125 I-0.025 J0
G1 X-0.1478 F30.
G1 Y4.715
G1 Z-0.65
G1 Y4.215
G1 Z-0.8
G1 Y2.875
G1 X5.5793
G1 Z-0.65
G1 X6.0793
G1 Z-0.8
G1 X12.152
G1 Z-0.65
G1 X12.652
G1 Z-0.8
G1 X19.1022
G1 Y4.215
G1 Z-0.65
G1 Y4.715
G1 Z-0.8
G1 Y6.125
G1 X14.3827
G1 Z-0.65
G1 X13.8827
G1 Z-0.8
G1 X5.3612
G1 Z-0.65
G1 X4.8612
G1 Z-0.8
G1 X1.4772
G3 X1.4522 Y6.1 I0 J-0.025 F6.
G1 Y6.075
G1 Y6.0711 Z-0.7997
G1 Y6.0673 Z-0.7988
G1 Y6.0636 Z-0.7973
G1 Y6.0603 Z-0.7952
G1 Y6.0573 Z-0.7927
G1 Y6.0548 Z-0.7897
G1 Y6.0527 Z-0.7863
G1 Y6.0512 Z-0.7827
G1 Y6.0503 Z-0.7789
G1 Y6.05 Z-0.775
G0 Z0.6

M5
M30
