(JIG V5)
(T1  D=0.25 CR=0 - ZMIN=-0.8 - FLAT END MILL)
G0 G40 G90 G17
G20

(2D POCKET1)
T1 M6
M3 S1220
G0 X18.5872 Y2.5291
G0 Z0.6
G0 Z0.2
G1 Z0.125 F6.
G1 X18.5863 Y2.5299 Z0.1174
G1 X18.5837 Y2.532 Z0.1106
G1 X18.5794 Y2.5351 Z0.1051
G1 X18.5737 Y2.5388 Z0.1014
G1 X18.5672 Y2.5425 Z0.1
G1 X18.5594 Y2.5463 Z0.0997
G1 X18.5514 Y2.5494 Z0.0994
G1 X18.5431 Y2.552 Z0.0991
G1 X18.5347 Y2.554 Z0.0988
G1 X18.5262 Y2.5554 Z0.0985
G1 X18.5176 Y2.5561 Z0.0982
G1 X18.5089 Y2.5562 Z0.0979
G1 X18.5003 Y2.5557 Z0.0976
G1 X18.4917 Y2.5546 Z0.0973
G1 X18.4833 Y2.5528 Z0.097
G1 X18.475 Y2.5504 Z0.0967
G1 X18.4669 Y2.5474 Z0.0964
G1 X18.459 Y2.5439 Z0.0961
G1 X18.4514 Y2.5398 Z0.0958
G1 X18.4441 Y2.5351 Z0.0955
G1 X18.4372 Y2.5299 Z0.0952
G1 X18.4307 Y2.5243 Z0.0949
G1 X18.4246 Y2.5182 Z0.0946
G1 X18.4189 Y2.5116 Z0.0943
G1 X18.4138 Y2.5047 Z0.094
G1 X18.4092 Y2.4974 Z0.0937
G1 X18.4051 Y2.4897 Z0.0934
G1 X18.4016 Y2.4818 Z0.0931
G1 X18.3986 Y2.4737 Z0.0928
G1 X18.3963 Y2.4654 Z0.0925
G1 X18.3946 Y2.4569 Z0.0922
G1 X18.3935 Y2.4484 Z0.0919
G1 X18.393 Y2.4397 Z0.0915
G1 X18.3931 Y2.4311 Z0.0912
G1 X18.3939 Y2.4225 Z0.0909
G1 X18.3953 Y2.414 Z0.0906
G1 X18.3974 Y2.4056 Z0.0903
G1 X18.4 Y2.3973 Z0.09
G1 X18.4032 Y2.3893 Z0.0897
G1 X18.407 Y2.3815 Z0.0894
G1 X18.4113 Y2.3741 Z0.0891
G1 X18.4162 Y2.3669 Z0.0888
G1 X18.4216 Y2.3602 Z0.0885
G1 X18.4275 Y2.3538 Z0.0882
G1 X18.4338 Y2.3479 Z0.0879
G1 X18.4405 Y2.3425 Z0.0876
G1 X18.4476 Y2.3376 Z0.0873
G1 X18.455 Y2.3332 Z0.087
G1 X18.4628 Y2.3293 Z0.0867
G1 X18.4708 Y2.326 Z0.0864
G1 X18.479 Y2.3234 Z0.0861
G1 X18.4874 Y2.3213 Z0.0858
G1 X18.4959 Y2.3198 Z0.0855
G1 X18.5045 Y2.319 Z0.0852
G1 X18.5131 Y2.3188 Z0.0849
G1 X18.5218 Y2.3192 Z0.0846
G1 X18.5303 Y2.3202 Z0.0843
G1 X18.5388 Y2.3219 Z0.084
G1 X18.5471 Y2.3242 Z0.0837
G1 X18.5553 Y2.327 Z0.0834
G1 X18.5632 Y2.3305 Z0.0831
G1 X18.5709 Y2.3345 Z0.0828
G1 X18.5782 Y2.3391 Z0.0825
G1 X18.5852 Y2.3442 Z0.0822
G1 X18.5918 Y2.3498 Z0.0819
G1 X18.5979 Y2.3558 Z0.0816
G1 X18.6036 Y2.3623 Z0.0813
G1 X18.6089 Y2.3692 Z0.081
G1 X18.6136 Y2.3764 Z0.0807
G1 X18.6177 Y2.384 Z0.0804
G1 X18.6214 Y2.3919 Z0.0801
G1 X18.6244 Y2.4 Z0.0798
G1 X18.6268 Y2.4082 Z0.0795
G1 X18.6286 Y2.4167 Z0.0792
G1 X18.6298 Y2.4253 Z0.0789
G1 X18.6304 Y2.4339 Z0.0786
G1 Y2.4425 Z0.0783
G1 X18.6297 Y2.4511 Z0.078
G1 X18.6284 Y2.4597 Z0.0777
G1 X18.6265 Y2.4681 Z0.0774
G1 X18.6239 Y2.4764 Z0.0771
G1 X18.6208 Y2.4844 Z0.0768
G1 X18.6171 Y2.4922 Z0.0765
G1 X18.6129 Y2.4997 Z0.0762
G1 X18.6081 Y2.5069 Z0.0759
G1 X18.6028 Y2.5138 Z0.0756
G1 X18.597 Y2.5202 Z0.0752
G1 X18.5907 Y2.5262 Z0.0749
G1 X18.5841 Y2.5317 Z0.0746
G1 X18.577 Y2.5367 Z0.0743
G1 X18.5696 Y2.5412 Z0.074
G1 X18.562 Y2.5451 Z0.0737
G1 X18.554 Y2.5485 Z0.0734
G1 X18.5458 Y2.5513 Z0.0731
G1 X18.5375 Y2.5534 Z0.0728
G1 X18.529 Y2.555 Z0.0725
G1 X18.5204 Y2.5559 Z0.0722
G1 X18.5117 Y2.5562 Z0.0719
G1 X18.5031 Y2.5559 Z0.0716
G1 X18.4945 Y2.555 Z0.0713
G1 X18.486 Y2.5534 Z0.071
G1 X18.4776 Y2.5513 Z0.0707
G1 X18.4695 Y2.5485 Z0.0704
G1 X18.4615 Y2.5451 Z0.0701
G1 X18.4538 Y2.5412 Z0.0698
G1 X18.4464 Y2.5367 Z0.0695
G1 X18.4394 Y2.5317 Z0.0692
G1 X18.4327 Y2.5262 Z0.0689
G1 X18.4265 Y2.5202 Z0.0686
G1 X18.4207 Y2.5138 Z0.0683
G1 X18.4154 Y2.5069 Z0.068
G1 X18.4106 Y2.4997 Z0.0677
G1 X18.4063 Y2.4922 Z0.0674
G1 X18.4026 Y2.4844 Z0.0671
G1 X18.3995 Y2.4764 Z0.0668
G1 X18.397 Y2.4681 Z0.0665
G1 X18.3951 Y2.4597 Z0.0662
G1 X18.3938 Y2.4511 Z0.0659
G1 X18.3931 Y2.4425 Z0.0656
G1 X18.393 Y2.4339 Z0.0653
G1 X18.3936 Y2.4253 Z0.065
G1 X18.3948 Y2.4167 Z0.0647
G1 X18.3966 Y2.4082 Z0.0644
G1 X18.3991 Y2.4 Z0.0641
G1 X18.4021 Y2.3919 Z0.0638
G1 X18.4057 Y2.384 Z0.0635
G1 X18.4099 Y2.3764 Z0.0632
G1 X18.4146 Y2.3692 Z0.0629
G1 X18.4198 Y2.3623 Z0.0626
G1 X18.4255 Y2.3558 Z0.0623
G1 X18.4317 Y2.3498 Z0.062
G1 X18.4383 Y2.3442 Z0.0617
G1 X18.4453 Y2.3391 Z0.0614
G1 X18.4526 Y2.3345 Z0.0611
G1 X18.4602 Y2.3305 Z0.0608
G1 X18.4682 Y2.327 Z0.0605
G1 X18.4763 Y2.3242 Z0.0602
G1 X18.4846 Y2.3219 Z0.0599
G1 X18.4931 Y2.3202 Z0.0596
G1 X18.5017 Y2.3192 Z0.0593
G1 X18.5103 Y2.3188 Z0.059
G1 X18.519 Y2.319 Z0.0586
G1 X18.5276 Y2.3198 Z0.0583
G1 X18.5361 Y2.3213 Z0.058
G1 X18.5445 Y2.3234 Z0.0577
G1 X18.5527 Y2.326 Z0.0574
G1 X18.5607 Y2.3293 Z0.0571
G1 X18.5684 Y2.3332 Z0.0568
G1 X18.5759 Y2.3376 Z0.0565
G1 X18.583 Y2.3425 Z0.0562
G1 X18.5897 Y2.3479 Z0.0559
G1 X18.596 Y2.3538 Z0.0556
G1 X18.6019 Y2.3602 Z0.0553
G1 X18.6072 Y2.3669 Z0.055
G1 X18.6121 Y2.3741 Z0.0547
G1 X18.6165 Y2.3815 Z0.0544
G1 X18.6203 Y2.3893 Z0.0541
G1 X18.6235 Y2.3973 Z0.0538
G1 X18.6261 Y2.4056 Z0.0535
G1 X18.6281 Y2.414 Z0.0532
G1 X18.6295 Y2.4225 Z0.0529
G1 X18.6303 Y2.4311 Z0.0526
G1 X18.6305 Y2.4397 Z0.0523
G1 X18.63 Y2.4484 Z0.052
G1 X18.6289 Y2.4569 Z0.0517
G1 X18.6272 Y2.4654 Z0.0514
G1 X18.6248 Y2.4737 Z0.0511
G1 X18.6219 Y2.4818 Z0.0508
G1 X18.6184 Y2.4897 Z0.0505
G1 X18.6143 Y2.4974 Z0.0502
G1 X18.6097 Y2.5047 Z0.0499
G1 X18.6045 Y2.5116 Z0.0496
G1 X18.5989 Y2.5182 Z0.0493
G1 X18.5928 Y2.5243 Z0.049
G1 X18.5863 Y2.5299 Z0.0487
G1 X18.5793 Y2.5351 Z0.0484
G1 X18.5721 Y2.5398 Z0.0481
G1 X18.5645 Y2.5439 Z0.0478
G1 X18.5566 Y2.5474 Z0.0475
G1 X18.5485 Y2.5504 Z0.0472
G1 X18.5402 Y2.5528 Z0.0469
G1 X18.5317 Y2.5546 Z0.0466
G1 X18.5231 Y2.5557 Z0.0463
G1 X18.5145 Y2.5562 Z0.046
G1 X18.5059 Y2.5561 Z0.0457
G1 X18.4973 Y2.5554 Z0.0454
G1 X18.4887 Y2.554 Z0.0451
G1 X18.4803 Y2.552 Z0.0448
G1 X18.4721 Y2.5494 Z0.0445
G1 X18.464 Y2.5463 Z0.0442
G1 X18.4563 Y2.5425 Z0.0439
G1 X18.4488 Y2.5382 Z0.0436
G1 X18.4416 Y2.5333 Z0.0433
G1 X18.4348 Y2.528 Z0.043
G1 X18.4284 Y2.5222 Z0.0427
G1 X18.4225 Y2.5159 Z0.0423
G1 X18.4171 Y2.5092 Z0.042
G1 X18.4121 Y2.5021 Z0.0417
G1 X18.4077 Y2.4947 Z0.0414
G1 X18.4038 Y2.487 Z0.0411
G1 X18.4005 Y2.479 Z0.0408
G1 X18.3977 Y2.4708 Z0.0405
G1 X18.3956 Y2.4624 Z0.0402
G1 X18.3941 Y2.4539 Z0.0399
G1 X18.3932 Y2.4453 Z0.0396
G1 X18.393 Y2.4367 Z0.0393
G1 X18.3934 Y2.428 Z0.039
G1 X18.3944 Y2.4194 Z0.0387
G1 X18.396 Y2.411 Z0.0384
G1 X18.3982 Y2.4026 Z0.0381
G1 X18.4011 Y2.3944 Z0.0378
G1 X18.4045 Y2.3865 Z0.0375
G1 X18.4085 Y2.3789 Z0.0372
G1 X18.413 Y2.3715 Z0.0369
G1 X18.4181 Y2.3645 Z0.0366
G1 X18.4236 Y2.3579 Z0.0363
G1 X18.4297 Y2.3517 Z0.036
G1 X18.4361 Y2.3459 Z0.0357
G1 X18.443 Y2.3407 Z0.0354
G1 X18.4502 Y2.3359 Z0.0351
G1 X18.4577 Y2.3317 Z0.0348
G1 X18.4656 Y2.3281 Z0.0345
G1 X18.4737 Y2.325 Z0.0342
G1 X18.4819 Y2.3225 Z0.0339
G1 X18.4904 Y2.3207 Z0.0336
G1 X18.4989 Y2.3194 Z0.0333
G1 X18.5075 Y2.3188 Z0.033
G1 X18.5162 Z0.0327
G1 X18.5248 Y2.3195 Z0.0324
G1 X18.5334 Y2.3207 Z0.0321
G1 X18.5418 Y2.3226 Z0.0318
G1 X18.5501 Y2.3251 Z0.0315
G1 X18.5581 Y2.3282 Z0.0312
G1 X18.566 Y2.3319 Z0.0309
G1 X18.5735 Y2.3361 Z0.0306
G1 X18.5807 Y2.3408 Z0.0303
G1 X18.5876 Y2.3461 Z0.03
G1 X18.594 Y2.3519 Z0.0297
G1 X18.6 Y2.3581 Z0.0294
G1 X18.6056 Y2.3647 Z0.0291
G1 X18.6106 Y2.3717 Z0.0288
G1 X18.6151 Y2.3791 Z0.0285
G1 X18.6191 Y2.3868 Z0.0282
G1 X18.6225 Y2.3947 Z0.0279
G1 X18.6253 Y2.4029 Z0.0276
G1 X18.6275 Y2.4112 Z0.0273
G1 X18.6291 Y2.4197 Z0.027
G1 X18.6301 Y2.4283 Z0.0267
G1 X18.6305 Y2.4369 Z0.0264
G1 X18.6302 Y2.4456 Z0.026
G1 X18.6293 Y2.4542 Z0.0257
G1 X18.6278 Y2.4627 Z0.0254
G1 X18.6256 Y2.4711 Z0.0251
G1 X18.6229 Y2.4792 Z0.0248
G1 X18.6196 Y2.4872 Z0.0245
G1 X18.6157 Y2.4949 Z0.0242
G1 X18.6112 Y2.5023 Z0.0239
G1 X18.6062 Y2.5094 Z0.0236
G1 X18.6008 Y2.5161 Z0.0233
G1 X18.5948 Y2.5224 Z0.023
G1 X18.5884 Y2.5282 Z0.0227
G1 X18.5816 Y2.5335 Z0.0224
G1 X18.5744 Y2.5383 Z0.0221
G1 X18.5669 Y2.5426 Z0.0218
G1 X18.5592 Y2.5464 Z0.0215
G1 X18.5511 Y2.5495 Z0.0212
G1 X18.5429 Y2.5521 Z0.0209
G1 X18.5344 Y2.5541 Z0.0206
G1 X18.5259 Y2.5554 Z0.0203
G1 X18.5173 Y2.5561 Z0.02
G1 X18.5087 Y2.5562 Z0.0197
G1 X18.5 Y2.5557 Z0.0194
G1 X18.4915 Y2.5545 Z0.0191
G1 X18.483 Y2.5527 Z0.0188
G1 X18.4747 Y2.5503 Z0.0185
G1 X18.4666 Y2.5473 Z0.0182
G1 X18.4587 Y2.5438 Z0.0179
G1 X18.4511 Y2.5396 Z0.0176
G1 X18.4439 Y2.535 Z0.0173
G1 X18.437 Y2.5298 Z0.017
G1 X18.4305 Y2.5241 Z0.0167
G1 X18.4244 Y2.5179 Z0.0164
G1 X18.4188 Y2.5114 Z0.0161
G1 X18.4136 Y2.5044 Z0.0158
G1 X18.409 Y2.4971 Z0.0155
G1 X18.405 Y2.4895 Z0.0152
G1 X18.4015 Y2.4816 Z0.0149
G1 X18.3985 Y2.4735 Z0.0146
G1 X18.3962 Y2.4651 Z0.0143
G1 X18.3945 Y2.4567 Z0.014
G1 X18.3934 Y2.4481 Z0.0137
G1 X18.393 Y2.4395 Z0.0134
G1 X18.3932 Y2.4308 Z0.0131
G1 X18.394 Y2.4222 Z0.0128
G1 X18.3954 Y2.4137 Z0.0125
G1 X18.3974 Y2.4053 Z0.0122
G1 X18.4001 Y2.3971 Z0.0119
G1 X18.4033 Y2.389 Z0.0116
G1 X18.4071 Y2.3813 Z0.0113
G1 X18.4115 Y2.3738 Z0.011
G1 X18.4164 Y2.3667 Z0.0107
G1 X18.4218 Y2.36 Z0.0104
G1 X18.4277 Y2.3536 Z0.0101
G1 X18.434 Y2.3477 Z0.0098
G1 X18.4407 Y2.3423 Z0.0094
G1 X18.4478 Y2.3374 Z0.0091
G1 X18.4553 Y2.333 Z0.0088
G1 X18.463 Y2.3292 Z0.0085
G1 X18.471 Y2.3259 Z0.0082
G1 X18.4792 Y2.3233 Z0.0079
G1 X18.4876 Y2.3212 Z0.0076
G1 X18.4962 Y2.3198 Z0.0073
G1 X18.5048 Y2.319 Z0.007
G1 X18.5134 Y2.3188 Z0.0067
G1 X18.522 Y2.3192 Z0.0064
G1 X18.5306 Y2.3203 Z0.0061
G1 X18.5391 Y2.3219 Z0.0058
G1 X18.5474 Y2.3242 Z0.0055
G1 X18.5556 Y2.3271 Z0.0052
G1 X18.5635 Y2.3306 Z0.0049
G1 X18.5711 Y2.3347 Z0.0046
G1 X18.5784 Y2.3393 Z0.0043
G1 X18.5854 Y2.3444 Z0.004
G1 X18.592 Y2.35 Z0.0037
G1 X18.5981 Y2.356 Z0.0034
G1 X18.6038 Y2.3625 Z0.0031
G1 X18.609 Y2.3694 Z0.0028
G1 X18.6137 Y2.3767 Z0.0025
G1 X18.6179 Y2.3843 Z0.0022
G1 X18.6215 Y2.3921 Z0.0019
G1 X18.6245 Y2.4002 Z0.0016
G1 X18.6269 Y2.4085 Z0.0013
G1 X18.6287 Y2.417 Z0.001
G1 X18.6299 Y2.4255 Z0.0007
G1 X18.6304 Y2.4342 Z0.0004
G1 Y2.4428 Z0.0001
G1 X18.6297 Y2.4514 Z-0.0002
G1 X18.6283 Y2.4599 Z-0.0005
G1 X18.6264 Y2.4684 Z-0.0008
G1 X18.6238 Y2.4766 Z-0.0011
G1 X18.6207 Y2.4847 Z-0.0014
G1 X18.617 Y2.4925 Z-0.0017
G1 X18.6127 Y2.5 Z-0.002
G1 X18.6079 Y2.5072 Z-0.0023
G1 X18.6026 Y2.514 Z-0.0026
G1 X18.5968 Y2.5204 Z-0.0029
G1 X18.5905 Y2.5263 Z-0.0032
G1 X18.5839 Y2.5318 Z-0.0035
G1 X18.5768 Y2.5368 Z-0.0038
G1 X18.5694 Y2.5413 Z-0.0041
G1 X18.5617 Y2.5452 Z-0.0044
G1 X18.5537 Y2.5486 Z-0.0047
G1 X18.5455 Y2.5513 Z-0.005
G1 X18.5372 Y2.5535 Z-0.0053
G1 X18.5287 Y2.555 Z-0.0056
G1 X18.5201 Y2.556 Z-0.0059
G1 X18.5114 Y2.5562 Z-0.0062
G1 X18.5028 Y2.5559 Z-0.0065
G1 X18.4942 Y2.555 Z-0.0069
G1 X18.4857 Y2.5534 Z-0.0072
G1 X18.4774 Y2.5512 Z-0.0075
G1 X18.4692 Y2.5484 Z-0.0078
G1 X18.4612 Y2.545 Z-0.0081
G1 X18.4536 Y2.541 Z-0.0084
G1 X18.4462 Y2.5365 Z-0.0087
G1 X18.4392 Y2.5315 Z-0.009
G1 X18.4325 Y2.526 Z-0.0093
G1 X18.4263 Y2.52 Z-0.0096
G1 X18.4205 Y2.5135 Z-0.0099
G1 X18.4152 Y2.5067 Z-0.0102
G1 X18.4105 Y2.4995 Z-0.0105
G1 X18.4062 Y2.492 Z-0.0108
G1 X18.4025 Y2.4842 Z-0.0111
G1 X18.3994 Y2.4761 Z-0.0114
G1 X18.3969 Y2.4678 Z-0.0117
G1 X18.395 Y2.4594 Z-0.012
G1 X18.3937 Y2.4509 Z-0.0123
G1 X18.3931 Y2.4422 Z-0.0126
G1 X18.393 Y2.4336 Z-0.0129
G1 X18.3936 Y2.425 Z-0.0132
G1 X18.3949 Y2.4164 Z-0.0135
G1 X18.3967 Y2.408 Z-0.0138
G1 X18.3992 Y2.3997 Z-0.0141
G1 X18.4022 Y2.3916 Z-0.0144
G1 X18.4058 Y2.3838 Z-0.0147
G1 X18.41 Y2.3762 Z-0.015
G1 X18.4147 Y2.369 Z-0.0153
G1 X18.42 Y2.3621 Z-0.0156
G1 X18.4257 Y2.3556 Z-0.0159
G1 X18.4319 Y2.3496 Z-0.0162
G1 X18.4385 Y2.344 Z-0.0165
G1 X18.4455 Y2.3389 Z-0.0168
G1 X18.4528 Y2.3344 Z-0.0171
G1 X18.4605 Y2.3304 Z-0.0174
G1 X18.4684 Y2.3269 Z-0.0177
G1 X18.4766 Y2.3241 Z-0.018
G1 X18.4849 Y2.3218 Z-0.0183
G1 X18.4934 Y2.3202 Z-0.0186
G1 X18.502 Y2.3192 Z-0.0189
G1 X18.5106 Y2.3188 Z-0.0192
G1 X18.5192 Y2.319 Z-0.0195
G1 X18.5278 Y2.3198 Z-0.0198
G1 X18.5364 Y2.3213 Z-0.0201
G1 X18.5447 Y2.3234 Z-0.0204
G1 X18.553 Y2.3261 Z-0.0207
G1 X18.5609 Y2.3294 Z-0.021
G1 X18.5687 Y2.3333 Z-0.0213
G1 X18.5761 Y2.3377 Z-0.0216
G1 X18.5832 Y2.3427 Z-0.0219
G1 X18.5899 Y2.3481 Z-0.0222
G1 X18.5962 Y2.354 Z-0.0225
G1 X18.602 Y2.3604 Z-0.0228
G1 X18.6074 Y2.3672 Z-0.0231
G1 X18.6123 Y2.3743 Z-0.0235
G1 X18.6166 Y2.3818 Z-0.0238
G1 X18.6204 Y2.3896 Z-0.0241
G1 X18.6236 Y2.3976 Z-0.0244
G1 X18.6262 Y2.4058 Z-0.0247
G1 X18.6282 Y2.4142 Z-0.025
G1 X18.6296 Y2.4228 Z-0.0253
G1 X18.6303 Y2.4314 Z-0.0256
G1 X18.6304 Y2.44 Z-0.0259
G1 X18.63 Y2.4486 Z-0.0262
G1 X18.6288 Y2.4572 Z-0.0265
G1 X18.6271 Y2.4657 Z-0.0268
G1 X18.6247 Y2.474 Z-0.0271
G1 X18.6218 Y2.4821 Z-0.0274
G1 X18.6182 Y2.49 Z-0.0277
G1 X18.6141 Y2.4976 Z-0.028
G1 X18.6095 Y2.5049 Z-0.0283
G1 X18.6043 Y2.5118 Z-0.0286
G1 X18.5987 Y2.5184 Z-0.0289
G1 X18.5926 Y2.5245 Z-0.0292
G1 X18.586 Y2.5301 Z-0.0295
G1 X18.5791 Y2.5353 Z-0.0298
G1 X18.5718 Y2.5399 Z-0.0301
G1 X18.5642 Y2.544 Z-0.0304
G1 X18.5563 Y2.5476 Z-0.0307
G1 X18.5482 Y2.5505 Z-0.031
G1 X18.5399 Y2.5529 Z-0.0313
G1 X18.5314 Y2.5546 Z-0.0316
G1 X18.5229 Y2.5557 Z-0.0319
G1 X18.5142 Y2.5562 Z-0.0322
G1 X18.5056 Y2.5561 Z-0.0325
G1 X18.497 Y2.5553 Z-0.0328
G1 X18.4885 Y2.5539 Z-0.0331
G1 X18.48 Y2.5519 Z-0.0334
G1 X18.4718 Y2.5493 Z-0.0337
G1 X18.4638 Y2.5461 Z-0.034
G1 X18.456 Y2.5424 Z-0.0343
G1 X18.4485 Y2.538 Z-0.0346
G1 X18.4414 Y2.5332 Z-0.0349
G1 X18.4346 Y2.5278 Z-0.0352
G1 X18.4283 Y2.522 Z-0.0355
G1 X18.4223 Y2.5157 Z-0.0358
G1 X18.4169 Y2.509 Z-0.0361
G1 X18.4119 Y2.5019 Z-0.0364
G1 X18.4075 Y2.4944 Z-0.0367
G1 X18.4037 Y2.4867 Z-0.037
G1 X18.4004 Y2.4787 Z-0.0373
G1 X18.3977 Y2.4705 Z-0.0376
G1 X18.3956 Y2.4621 Z-0.0379
G1 X18.3941 Y2.4536 Z-0.0382
G1 X18.3932 Y2.445 Z-0.0385
G1 X18.393 Y2.4364 Z-0.0388
G1 X18.3934 Y2.4278 Z-0.0391
G1 X18.3944 Y2.4192 Z-0.0394
G1 X18.396 Y2.4107 Z-0.0398
G1 X18.3983 Y2.4023 Z-0.0401
G1 X18.4012 Y2.3942 Z-0.0404
G1 X18.4046 Y2.3863 Z-0.0407
G1 X18.4086 Y2.3786 Z-0.041
G1 X18.4132 Y2.3713 Z-0.0413
G1 X18.4182 Y2.3643 Z-0.0416
G1 X18.4238 Y2.3577 Z-0.0419
G1 X18.4299 Y2.3515 Z-0.0422
G1 X18.4363 Y2.3458 Z-0.0425
G1 X18.4432 Y2.3405 Z-0.0428
G1 X18.4504 Y2.3358 Z-0.0431
G1 X18.458 Y2.3316 Z-0.0434
G1 X18.4658 Y2.328 Z-0.0437
G1 X18.4739 Y2.3249 Z-0.044
G1 X18.4822 Y2.3225 Z-0.0443
G1 X18.4906 Y2.3206 Z-0.0446
G1 X18.4992 Y2.3194 Z-0.0449
G1 X18.5078 Y2.3188 Z-0.0452
G1 X18.5165 Z-0.0455
G1 X18.5251 Y2.3195 Z-0.0458
G1 X18.5336 Y2.3208 Z-0.0461
G1 X18.5421 Y2.3227 Z-0.0464
G1 X18.5503 Y2.3252 Z-0.0467
G1 X18.5584 Y2.3283 Z-0.047
G1 X18.5662 Y2.332 Z-0.0473
G1 X18.5737 Y2.3362 Z-0.0476
G1 X18.5809 Y2.341 Z-0.0479
G1 X18.5878 Y2.3463 Z-0.0482
G1 X18.5942 Y2.3521 Z-0.0485
G1 X18.6002 Y2.3583 Z-0.0488
G1 X18.6057 Y2.3649 Z-0.0491
G1 X18.6108 Y2.372 Z-0.0494
G1 X18.6153 Y2.3793 Z-0.0497
G1 X18.6192 Y2.387 Z-0.05
G1 X18.6226 Y2.395 Z-0.0503
G1 X18.6254 Y2.4031 Z-0.0506
G1 X18.6276 Y2.4115 Z-0.0509
G1 X18.6292 Y2.42 Z-0.0512
G1 X18.6301 Y2.4286 Z-0.0515
G1 X18.6305 Y2.4372 Z-0.0518
G1 X18.6302 Y2.4459 Z-0.0521
G1 X18.6293 Y2.4545 Z-0.0524
G1 X18.6277 Y2.463 Z-0.0527
G1 X18.6256 Y2.4713 Z-0.053
G1 X18.6228 Y2.4795 Z-0.0533
G1 X18.6194 Y2.4875 Z-0.0536
G1 X18.6155 Y2.4952 Z-0.0539
G1 X18.6111 Y2.5026 Z-0.0542
G1 X18.6061 Y2.5096 Z-0.0545
G1 X18.6006 Y2.5163 Z-0.0548
G1 X18.5946 Y2.5225 Z-0.0551
G1 X18.5882 Y2.5283 Z-0.0554
G1 X18.5814 Y2.5337 Z-0.0557
G1 X18.5742 Y2.5385 Z-0.056
G1 X18.5667 Y2.5428 Z-0.0564
G1 X18.5589 Y2.5465 Z-0.0567
G1 X18.5509 Y2.5496 Z-0.057
G1 X18.5426 Y2.5522 Z-0.0573
G1 X18.5342 Y2.5541 Z-0.0576
G1 X18.5256 Y2.5554 Z-0.0579
G1 X18.517 Y2.5561 Z-0.0582
G1 X18.5084 Y2.5562 Z-0.0585
G1 X18.4998 Y2.5556 Z-0.0588
G1 X18.4912 Y2.5545 Z-0.0591
G1 X18.4827 Y2.5527 Z-0.0594
G1 X18.4744 Y2.5502 Z-0.0597
G1 X18.4663 Y2.5472 Z-0.06
G1 X18.4585 Y2.5436 Z-0.0603
G1 X18.4509 Y2.5395 Z-0.0606
G1 X18.4437 Y2.5348 Z-0.0609
G1 X18.4368 Y2.5296 Z-0.0612
G1 X18.4303 Y2.5239 Z-0.0615
G1 X18.4242 Y2.5177 Z-0.0618
G1 X18.4186 Y2.5112 Z-0.0621
G1 X18.4135 Y2.5042 Z-0.0624
G1 X18.4089 Y2.4969 Z-0.0627
G1 X18.4048 Y2.4892 Z-0.063
G1 X18.4014 Y2.4813 Z-0.0633
G1 X18.3985 Y2.4732 Z-0.0636
G1 X18.3962 Y2.4649 Z-0.0639
G1 X18.3945 Y2.4564 Z-0.0642
G1 X18.3934 Y2.4478 Z-0.0645
G1 X18.393 Y2.4392 Z-0.0648
G1 X18.3932 Y2.4305 Z-0.0651
G1 X18.394 Y2.4219 Z-0.0654
G1 X18.3954 Y2.4134 Z-0.0657
G1 X18.3975 Y2.405 Z-0.066
G1 X18.4002 Y2.3968 Z-0.0663
G1 X18.4034 Y2.3888 Z-0.0666
G1 X18.4073 Y2.381 Z-0.0669
G1 X18.4116 Y2.3736 Z-0.0672
G1 X18.4165 Y2.3665 Z-0.0675
G1 X18.422 Y2.3598 Z-0.0678
G1 X18.4279 Y2.3534 Z-0.0681
G1 X18.4342 Y2.3476 Z-0.0684
G1 X18.4409 Y2.3422 Z-0.0687
G1 X18.4481 Y2.3373 Z-0.069
G1 X18.4555 Y2.3329 Z-0.0693
G1 X18.4633 Y2.3291 Z-0.0696
G1 X18.4713 Y2.3258 Z-0.0699
G1 X18.4795 Y2.3232 Z-0.0702
G1 X18.4879 Y2.3212 Z-0.0705
G1 X18.4964 Y2.3197 Z-0.0708
G1 X18.505 Y2.3189 Z-0.0711
G1 X18.5137 Y2.3188 Z-0.0714
G1 X18.5223 Y2.3192 Z-0.0717
G1 X18.5309 Y2.3203 Z-0.072
G1 X18.5394 Y2.322 Z-0.0723
G1 X18.5477 Y2.3243 Z-0.0727
G1 X18.5558 Y2.3272 Z-0.073
G1 X18.5637 Y2.3307 Z-0.0733
G1 X18.5713 Y2.3348 Z-0.0736
G1 X18.5787 Y2.3394 Z-0.0739
G1 X18.5856 Y2.3445 Z-0.0742
G1 X18.5922 Y2.3502 Z-0.0745
G1 X18.5983 Y2.3562 Z-0.0748
G1 X18.604 Y2.3627 Z-0.0751
G1 X18.6092 Y2.3697 Z-0.0754
G1 X18.6139 Y2.3769 Z-0.0757
G1 X18.618 Y2.3845 Z-0.076
G1 X18.6216 Y2.3924 Z-0.0763
G1 X18.6246 Y2.4005 Z-0.0766
G1 X18.627 Y2.4088 Z-0.0769
G1 X18.6287 Y2.4172 Z-0.0772
G1 X18.6299 Y2.4258 Z-0.0775
G1 X18.6304 Y2.4344 Z-0.0778
G1 X18.6303 Y2.4431 Z-0.0781
G1 X18.6296 Y2.4517 Z-0.0784
G1 X18.6283 Y2.4602 Z-0.0787
G1 X18.6263 Y2.4686 Z-0.079
G1 X18.6238 Y2.4769 Z-0.0793
G1 X18.6206 Y2.4849 Z-0.0796
G1 X18.6169 Y2.4927 Z-0.0799
G1 X18.6126 Y2.5002 Z-0.0802
G1 X18.6077 Y2.5074 Z-0.0805
G1 X18.6024 Y2.5142 Z-0.0808
G1 X18.5966 Y2.5206 Z-0.0811
G1 X18.5903 Y2.5265 Z-0.0814
G1 X18.5836 Y2.532 Z-0.0817
G1 X18.5766 Y2.537 Z-0.082
G1 X18.5692 Y2.5414 Z-0.0823
G1 X18.5614 Y2.5453 Z-0.0826
G1 X18.5535 Y2.5487 Z-0.0829
G1 X18.5453 Y2.5514 Z-0.0832
G1 X18.5369 Y2.5535 Z-0.0835
G1 X18.5284 Y2.5551 Z-0.0838
G1 X18.5198 Y2.556 Z-0.0841
G1 X18.5112 Y2.5562 Z-0.0844
G1 X18.5025 Y2.5559 Z-0.0847
G1 X18.4939 Y2.5549 Z-0.085
G1 X18.4855 Y2.5533 Z-0.0853
G1 X18.4771 Y2.5511 Z-0.0856
G1 X18.4689 Y2.5483 Z-0.0859
G1 X18.461 Y2.5449 Z-0.0862
G1 X18.4533 Y2.5409 Z-0.0865
G1 X18.446 Y2.5364 Z-0.0868
G1 X18.4389 Y2.5313 Z-0.0871
G1 X18.4323 Y2.5258 Z-0.0874
G1 X18.4261 Y2.5198 Z-0.0877
G1 X18.4203 Y2.5133 Z-0.088
G1 X18.4151 Y2.5065 Z-0.0883
G1 X18.4103 Y2.4993 Z-0.0886
G1 X18.4061 Y2.4917 Z-0.089
G1 X18.4024 Y2.4839 Z-0.0893
G1 X18.3993 Y2.4758 Z-0.0896
G1 X18.3968 Y2.4676 Z-0.0899
G1 X18.395 Y2.4591 Z-0.0902
G1 X18.3937 Y2.4506 Z-0.0905
G1 X18.3931 Y2.442 Z-0.0908
G1 Y2.4333 Z-0.0911
G1 X18.3937 Y2.4247 Z-0.0914
G1 X18.3949 Y2.4161 Z-0.0917
G1 X18.3968 Y2.4077 Z-0.092
G1 X18.3992 Y2.3994 Z-0.0923
G1 X18.4023 Y2.3913 Z-0.0926
G1 X18.406 Y2.3835 Z-0.0929
G1 X18.4102 Y2.376 Z-0.0932
G1 X18.4149 Y2.3687 Z-0.0935
G1 X18.4202 Y2.3619 Z-0.0938
G1 X18.4259 Y2.3554 Z-0.0941
G1 X18.4321 Y2.3494 Z-0.0944
G1 X18.4387 Y2.3438 Z-0.0947
G1 X18.4457 Y2.3388 Z-0.095
G1 X18.4531 Y2.3342 Z-0.0953
G1 X18.4607 Y2.3303 Z-0.0956
G1 X18.4687 Y2.3268 Z-0.0959
G1 X18.4768 Y2.324 Z-0.0962
G1 X18.4852 Y2.3218 Z-0.0965
G1 X18.4937 Y2.3201 Z-0.0968
G1 X18.5023 Y2.3191 Z-0.0971
G1 X18.5109 Y2.3188 Z-0.0974
G1 X18.5195 Y2.319 Z-0.0977
G1 X18.5281 Y2.3199 Z-0.098
G1 X18.5366 Y2.3214 Z-0.0983
G1 X18.545 Y2.3235 Z-0.0986
G1 X18.5532 Y2.3262 Z-0.0989
G1 X18.5612 Y2.3295 Z-0.0992
G1 X18.5689 Y2.3334 Z-0.0995
G1 X18.5763 Y2.3379 Z-0.0998
G1 X18.5834 Y2.3428 Z-0.1001
G1 X18.5901 Y2.3483 Z-0.1004
G1 X18.5964 Y2.3542 Z-0.1007
G1 X18.6022 Y2.3606 Z-0.101
G1 X18.6076 Y2.3674 Z-0.1013
G1 X18.6124 Y2.3745 Z-0.1016
G1 X18.6167 Y2.382 Z-0.1019
G1 X18.6205 Y2.3898 Z-0.1022
G1 X18.6237 Y2.3978 Z-0.1025
G1 X18.6262 Y2.4061 Z-0.1028
G1 X18.6282 Y2.4145 Z-0.1031
G1 X18.6296 Y2.423 Z-0.1034
G1 X18.6303 Y2.4316 Z-0.1037
G1 X18.6304 Y2.4403 Z-0.104
G1 X18.6299 Y2.4489 Z-0.1043
G1 X18.6288 Y2.4575 Z-0.1046
G1 X18.627 Y2.4659 Z-0.1049
G1 X18.6246 Y2.4742 Z-0.1052
G1 X18.6217 Y2.4824 Z-0.1056
G1 X18.6181 Y2.4902 Z-0.1059
G1 X18.614 Y2.4978 Z-0.1062
G1 X18.6093 Y2.5051 Z-0.1065
G1 X18.6042 Y2.512 Z-0.1068
G1 X18.5985 Y2.5186 Z-0.1071
G1 X18.5924 Y2.5247 Z-0.1074
G1 X18.5858 Y2.5303 Z-0.1077
G1 X18.5789 Y2.5354 Z-0.108
G1 X18.5716 Y2.5401 Z-0.1083
G1 X18.564 Y2.5441 Z-0.1086
G1 X18.5561 Y2.5477 Z-0.1089
G1 X18.5479 Y2.5506 Z-0.1092
G1 X18.5396 Y2.5529 Z-0.1095
G1 X18.5312 Y2.5546 Z-0.1098
G1 X18.5226 Y2.5558 Z-0.1101
G1 X18.514 Y2.5562 Z-0.1104
G1 X18.5053 Y2.5561 Z-0.1107
G1 X18.4967 Y2.5553 Z-0.111
G1 X18.4882 Y2.5539 Z-0.1113
G1 X18.4798 Y2.5519 Z-0.1116
G1 X18.4715 Y2.5492 Z-0.1119
G1 X18.4635 Y2.546 Z-0.1122
G1 X18.4558 Y2.5422 Z-0.1125
G1 X18.4483 Y2.5379 Z-0.1128
G1 X18.4412 Y2.533 Z-0.1131
G1 X18.4344 Y2.5276 Z-0.1134
G1 X18.4281 Y2.5218 Z-0.1137
G1 X18.4221 Y2.5155 Z-0.114
G1 X18.4167 Y2.5087 Z-0.1143
G1 X18.4118 Y2.5016 Z-0.1146
G1 X18.4074 Y2.4942 Z-0.1149
G1 X18.4035 Y2.4865 Z-0.1152
G1 X18.4003 Y2.4785 Z-0.1155
G1 X18.3976 Y2.4702 Z-0.1158
G1 X18.3955 Y2.4619 Z-0.1161
G1 X18.394 Y2.4533 Z-0.1164
G1 X18.3932 Y2.4447 Z-0.1167
G1 X18.393 Y2.4361 Z-0.117
G1 X18.3934 Y2.4275 Z-0.1173
G1 X18.3944 Y2.4189 Z-0.1176
G1 X18.3961 Y2.4104 Z-0.1179
G1 X18.3984 Y2.4021 Z-0.1182
G1 X18.4013 Y2.3939 Z-0.1185
G1 X18.4047 Y2.386 Z-0.1188
G1 X18.4087 Y2.3784 Z-0.1191
G1 X18.4133 Y2.371 Z-0.1194
G1 X18.4184 Y2.3641 Z-0.1197
G1 X18.424 Y2.3575 Z-0.12
G1 X18.4301 Y2.3513 Z-0.1203
G1 X18.4365 Y2.3456 Z-0.1206
G1 X18.4434 Y2.3404 Z-0.1209
G1 X18.4507 Y2.3356 Z-0.1212
G1 X18.4582 Y2.3315 Z-0.1215
G1 X18.4661 Y2.3279 Z-0.1219
G1 X18.4742 Y2.3248 Z-0.1222
G1 X18.4825 Y2.3224 Z-0.1225
G1 X18.4909 Y2.3206 Z-0.1228
G1 X18.4995 Y2.3194 Z-0.1231
G1 X18.5081 Y2.3188 Z-0.1234
G1 X18.5167 Y2.3189 Z-0.1237
G1 X18.5254 Y2.3195 Z-0.124
G1 X18.5339 Y2.3208 Z-0.1243
G1 X18.5423 Y2.3228 Z-0.1246
G1 X18.5506 Y2.3253 Z-0.1249
G1 X18.5586 Y2.3284 Z-0.1252
G1 X18.5665 Y2.3321 Z-0.1255
G1 X18.574 Y2.3364 Z-0.1258
G1 X18.5812 Y2.3412 Z-0.1261
G1 X18.588 Y2.3465 Z-0.1264
G1 X18.5944 Y2.3523 Z-0.1267
G1 X18.6004 Y2.3585 Z-0.127
G1 X18.6059 Y2.3652 Z-0.1273
G1 X18.6109 Y2.3722 Z-0.1276
G1 X18.6154 Y2.3796 Z-0.1279
G1 X18.6193 Y2.3873 Z-0.1282
G1 X18.6227 Y2.3952 Z-0.1285
G1 X18.6255 Y2.4034 Z-0.1288
G1 X18.6277 Y2.4118 Z-0.1291
G1 X18.6292 Y2.4203 Z-0.1294
G1 X18.6302 Y2.4289 Z-0.1297
G1 X18.6305 Y2.4375 Z-0.13
G1 Y2.4927 F30.
G3 X18.6177 Y2.5055 I-0.0128 J0
G1 X2.3595
G3 X2.3468 Y2.4927 I0 J-0.0128
G1 Y2.3823
G3 X2.3595 Y2.3695 I0.0128 J0
G1 X18.6177
G3 X18.6305 Y2.3823 I0 J0.0128
G1 Y2.4375
G2 X18.7181 Y2.5606 I0.1303 J0
G3 X18.7653 Y2.658 I-0.0251 J0.0724
G3 X18.693 Y2.7095 I-0.0724 J-0.0251
G1 X2.1555
G3 X2.1427 Y2.6968 I0 J-0.0128
G1 Y2.1782
G3 X2.1555 Y2.1655 I0.0128 J0
G1 X18.8218
G3 X18.8345 Y2.1782 I0 J0.0128
G1 Y2.6968
G3 X18.8218 Y2.7095 I-0.0128 J0
G1 X18.693
G2 X18.5399 Y2.8116 I0 J0.1658
G3 X18.3869 Y2.9136 I-0.153 J-0.0638
G1 X1.9514
G3 X1.9386 Y2.9008 I0 J-0.0128
G1 Y1.9742
G3 X1.9514 Y1.9614 I0.0128 J0
G1 X19.0258
G3 X19.0386 Y1.9742 I0 J0.0128
G1 Y2.9008
G3 X19.0258 Y2.9136 I-0.0128 J0
G1 X18.3869
G2 X18.2338 Y3.0156 I0 J0.1658
G3 X18.0808 Y3.1176 I-0.153 J-0.0638
G1 X1.7474
G3 X1.7346 Y3.1049 I0 J-0.0128
G1 Y1.7701
G3 X1.7474 Y1.7574 I0.0128 J0
G1 X19.2299
G3 X19.2426 Y1.7701 I0 J0.0128
G1 Y3.1049
G3 X19.2299 Y3.1176 I-0.0128 J0
G1 X18.0808
G2 X17.9278 Y3.2197 I0 J0.1658
G3 X17.7747 Y3.3217 I-0.153 J-0.0638
G1 X1.5433
G3 X1.5305 Y3.3089 I0 J-0.0128
G1 Y1.5661
G3 X1.5433 Y1.5533 I0.0128 J0
G1 X19.4339
G3 X19.4467 Y1.5661 I0 J0.0128
G1 Y3.3089
G3 X19.4339 Y3.3217 I-0.0128 J0
G1 X17.7747
G2 X17.6217 Y3.4237 I0 J0.1658
G3 X17.4686 Y3.5257 I-0.153 J-0.0638
G1 X1.3393
G3 X1.3265 Y3.513 I0 J-0.0128
G1 Y1.362
G3 X1.3393 Y1.3493 I0.0128 J0
G1 X19.638
G3 X19.6507 Y1.362 I0 J0.0128
G1 Y3.513
G3 X19.638 Y3.5257 I-0.0128 J0
G1 X17.4686
G2 X17.3155 Y3.6279 I0 J0.166
G3 X17.1623 Y3.73 I-0.1532 J-0.0638
G1 X1.1222
G1 Y1.145
G1 X19.855
G1 Y3.73
G1 X17.1623
G1 X17.1584 Y3.7297 Z-0.1294 F6.
G1 X17.1547 Y3.7288 Z-0.1288
G1 X17.1514 Y3.7275 Z-0.127
G1 X17.1484 Y3.7258 Z-0.1252
G1 X17.1462 Y3.7241 Z-0.1225
G1 X17.1442 Y3.7223 Z-0.1197
G1 X17.1419 Y3.7195 Z-0.1127
G1 X17.1412 Y3.7185 Z-0.105
G0 Z0.6

(2D CONTOUR2)
G0 X2.4522 Y3.95
G0 Z0.6
G0 Z0.2
G1 Z0.1644 F30.
G1 Z-0.1
G1 Y3.9497 Z-0.1039 F6.
G1 Y3.9488 Z-0.1077
G1 Y3.9473 Z-0.1113
G1 Y3.9452 Z-0.1147
G1 Y3.9427 Z-0.1177
G1 Y3.9397 Z-0.1202
G1 Y3.9363 Z-0.1223
G1 Y3.9327 Z-0.1238
G1 Y3.9289 Z-0.1247
G1 Y3.925 Z-0.125
G1 Y3.9
G3 X2.4772 Y3.875 I0.025 J0
G1 X20.1022 F30.
G1 Y7.125
G1 X0.8522
G1 Y3.875
G1 X2.4772
G3 X2.5022 Y3.9 I0 J0.025 F6.
G1 Y3.925
G1 Y3.9289 Z-0.1247
G1 Y3.9327 Z-0.1238
G1 Y3.9363 Z-0.1223
G1 Y3.9397 Z-0.1202
G1 Y3.9427 Z-0.1177
G1 Y3.9452 Z-0.1147
G1 Y3.9473 Z-0.1113
G1 Y3.9488 Z-0.1077
G1 Y3.9497 Z-0.1039
G1 Y3.95 Z-0.1
G0 Z0.2
G0 X2.4522
G1 Z0.0394 F30.
G1 Z-0.225
G1 Y3.9497 Z-0.2289 F6.
G1 Y3.9488 Z-0.2327
G1 Y3.9473 Z-0.2363
G1 Y3.9452 Z-0.2397
G1 Y3.9427 Z-0.2427
G1 Y3.9397 Z-0.2452
G1 Y3.9363 Z-0.2473
G1 Y3.9327 Z-0.2488
G1 Y3.9289 Z-0.2497
G1 Y3.925 Z-0.25
G1 Y3.9
G3 X2.4772 Y3.875 I0.025 J0
G1 X20.1022 F30.
G1 Y7.125
G1 X0.8522
G1 Y3.875
G1 X2.4772
G3 X2.5022 Y3.9 I0 J0.025 F6.
G1 Y3.925
G1 Y3.9289 Z-0.2497
G1 Y3.9327 Z-0.2488
G1 Y3.9363 Z-0.2473
G1 Y3.9397 Z-0.2452
G1 Y3.9427 Z-0.2427
G1 Y3.9452 Z-0.2397
G1 Y3.9473 Z-0.2363
G1 Y3.9488 Z-0.2327
G1 Y3.9497 Z-0.2289
G1 Y3.95 Z-0.225
G0 Z0.2
G0 X2.4522
G1 Z-0.0856 F30.
G1 Z-0.35
G1 Y3.9497 Z-0.3539 F6.
G1 Y3.9488 Z-0.3577
G1 Y3.9473 Z-0.3613
G1 Y3.9452 Z-0.3647
G1 Y3.9427 Z-0.3677
G1 Y3.9397 Z-0.3702
G1 Y3.9363 Z-0.3723
G1 Y3.9327 Z-0.3738
G1 Y3.9289 Z-0.3747
G1 Y3.925 Z-0.375
G1 Y3.9
G3 X2.4772 Y3.875 I0.025 J0
G1 X20.1022 F30.
G1 Y7.125
G1 X0.8522
G1 Y3.875
G1 X2.4772
G3 X2.5022 Y3.9 I0 J0.025 F6.
G1 Y3.925
G1 Y3.9289 Z-0.3747
G1 Y3.9327 Z-0.3738
G1 Y3.9363 Z-0.3723
G1 Y3.9397 Z-0.3702
G1 Y3.9427 Z-0.3677
G1 Y3.9452 Z-0.3647
G1 Y3.9473 Z-0.3613
G1 Y3.9488 Z-0.3577
G1 Y3.9497 Z-0.3539
G1 Y3.95 Z-0.35
G0 Z0.2
G0 X2.4522
G1 Z-0.2106 F30.
G1 Z-0.475
G1 Y3.9497 Z-0.4789 F6.
G1 Y3.9488 Z-0.4827
G1 Y3.9473 Z-0.4863
G1 Y3.9452 Z-0.4897
G1 Y3.9427 Z-0.4927
G1 Y3.9397 Z-0.4952
G1 Y3.9363 Z-0.4973
G1 Y3.9327 Z-0.4988
G1 Y3.9289 Z-0.4997
G1 Y3.925 Z-0.5
G1 Y3.9
G3 X2.4772 Y3.875 I0.025 J0
G1 X20.1022 F30.
G1 Y7.125
G1 X0.8522
G1 Y3.875
G1 X2.4772
G3 X2.5022 Y3.9 I0 J0.025 F6.
G1 Y3.925
G1 Y3.9289 Z-0.4997
G1 Y3.9327 Z-0.4988
G1 Y3.9363 Z-0.4973
G1 Y3.9397 Z-0.4952
G1 Y3.9427 Z-0.4927
G1 Y3.9452 Z-0.4897
G1 Y3.9473 Z-0.4863
G1 Y3.9488 Z-0.4827
G1 Y3.9497 Z-0.4789
G1 Y3.95 Z-0.475
G0 Z0.2
G0 X2.4522
G1 Z-0.3356 F30.
G1 Z-0.6
G1 Y3.9497 Z-0.6039 F6.
G1 Y3.9488 Z-0.6077
G1 Y3.9473 Z-0.6113
G1 Y3.9452 Z-0.6147
G1 Y3.9427 Z-0.6177
G1 Y3.9397 Z-0.6202
G1 Y3.9363 Z-0.6223
G1 Y3.9327 Z-0.6238
G1 Y3.9289 Z-0.6247
G1 Y3.925 Z-0.625
G1 Y3.9
G3 X2.4772 Y3.875 I0.025 J0
G1 X20.1022 F30.
G1 Y7.125
G1 X0.8522
G1 Y3.875
G1 X2.4772
G3 X2.5022 Y3.9 I0 J0.025 F6.
G1 Y3.925
G1 Y3.9289 Z-0.6247
G1 Y3.9327 Z-0.6238
G1 Y3.9363 Z-0.6223
G1 Y3.9397 Z-0.6202
G1 Y3.9427 Z-0.6177
G1 Y3.9452 Z-0.6147
G1 Y3.9473 Z-0.6113
G1 Y3.9488 Z-0.6077
G1 Y3.9497 Z-0.6039
G1 Y3.95 Z-0.6
G0 Z0.2
G0 X2.4522
G1 Z-0.4606 F30.
G1 Z-0.725
G1 Y3.9497 Z-0.7289 F6.
G1 Y3.9488 Z-0.7327
G1 Y3.9473 Z-0.7363
G1 Y3.9452 Z-0.7397
G1 Y3.9427 Z-0.7427
G1 Y3.9397 Z-0.7452
G1 Y3.9363 Z-0.7473
G1 Y3.9327 Z-0.7488
G1 Y3.9289 Z-0.7497
G1 Y3.925 Z-0.75
G1 Y3.9
G3 X2.4772 Y3.875 I0.025 J0
G1 X6.5793 F30.
G1 Z-0.65
G1 X7.0793
G1 Z-0.75
G1 X13.152
G1 Z-0.65
G1 X13.652
G1 Z-0.75
G1 X20.1022
G1 Y5.215
G1 Z-0.65
G1 Y5.715
G1 Z-0.75
G1 Y7.125
G1 X15.3827
G1 Z-0.65
G1 X14.8827
G1 Z-0.75
G1 X6.3612
G1 Z-0.65
G1 X5.8612
G1 Z-0.75
G1 X0.8522
G1 Y5.715
G1 Z-0.65
G1 Y5.215
G1 Z-0.75
G1 Y3.875
G1 X2.4772
G3 X2.5022 Y3.9 I0 J0.025 F6.
G1 Y3.925
G1 Y3.9289 Z-0.7497
G1 Y3.9327 Z-0.7488
G1 Y3.9363 Z-0.7473
G1 Y3.9397 Z-0.7452
G1 Y3.9427 Z-0.7427
G1 Y3.9452 Z-0.7397
G1 Y3.9473 Z-0.7363
G1 Y3.9488 Z-0.7327
G1 Y3.9497 Z-0.7289
G1 Y3.95 Z-0.725
G0 Z0.2
G0 X2.4522
G1 Z-0.5856 F30.
G1 Z-0.775
G1 Y3.9497 Z-0.7789 F6.
G1 Y3.9488 Z-0.7827
G1 Y3.9473 Z-0.7863
G1 Y3.9452 Z-0.7897
G1 Y3.9427 Z-0.7927
G1 Y3.9397 Z-0.7952
G1 Y3.9363 Z-0.7973
G1 Y3.9327 Z-0.7988
G1 Y3.9289 Z-0.7997
G1 Y3.925 Z-0.8
G1 Y3.9
G3 X2.4772 Y3.875 I0.025 J0
G1 X6.5793 F30.
G1 Z-0.65
G1 X7.0793
G1 Z-0.8
G1 X13.152
G1 Z-0.65
G1 X13.652
G1 Z-0.8
G1 X20.1022
G1 Y5.215
G1 Z-0.65
G1 Y5.715
G1 Z-0.8
G1 Y7.125
G1 X15.3827
G1 Z-0.65
G1 X14.8827
G1 Z-0.8
G1 X6.3612
G1 Z-0.65
G1 X5.8612
G1 Z-0.8
G1 X0.8522
G1 Y5.715
G1 Z-0.65
G1 Y5.215
G1 Z-0.8
G1 Y3.875
G1 X2.4772
G3 X2.5022 Y3.9 I0 J0.025 F6.
G1 Y3.925
G1 Y3.9289 Z-0.7997
G1 Y3.9327 Z-0.7988
G1 Y3.9363 Z-0.7973
G1 Y3.9397 Z-0.7952
G1 Y3.9427 Z-0.7927
G1 Y3.9452 Z-0.7897
G1 Y3.9473 Z-0.7863
G1 Y3.9488 Z-0.7827
G1 Y3.9497 Z-0.7789
G1 Y3.95 Z-0.775
G0 Z0.6

M5
M30
