(JIG V4)
(T1  D=0.25 CR=0 - ZMIN=-0.8 - FLAT END MILL)
G0 G40 G90 G17
G20

(FACE3)
T1 M6
M3 S1220
G0 X19.1625 Y0.1067
G0 Z0.6
G0 Z0.2
G1 Z-0.125 F6.
G1 X19.1622 Z-0.1289
G1 X19.1613 Z-0.1327
G1 X19.1598 Z-0.1363
G1 X19.1577 Z-0.1397
G1 X19.1552 Z-0.1427
G1 X19.1522 Z-0.1452
G1 X19.1488 Z-0.1473
G1 X19.1452 Z-0.1488
G1 X19.1414 Z-0.1497
G1 X19.1375 Z-0.15
G1 X19
G1 X0 F30.
G2 X-0.1146 Y0.2213 I0 J0.1146
G2 X0 Y0.336 I0.1146 J0
G1 X19
G3 X19.1146 Y0.4506 I0 J0.1146
G3 X19 Y0.5653 I-0.1146 J0
G1 X0
G2 X-0.1146 Y0.6799 I0 J0.1146
G2 X0 Y0.7945 I0.1146 J0
G1 X19
G3 X19.1146 Y0.9092 I0 J0.1146
G3 X19 Y1.0238 I-0.1146 J0
G1 X0
G2 X-0.1146 Y1.1385 I0 J0.1146
G2 X0 Y1.2531 I0.1146 J0
G1 X19
G3 X19.1146 Y1.3678 I0 J0.1146
G3 X19 Y1.4824 I-0.1146 J0
G1 X0
G2 X-0.1146 Y1.5971 I0 J0.1146
G2 X0 Y1.7117 I0.1146 J0
G1 X19
G3 X19.1146 Y1.8264 I0 J0.1146
G3 X19 Y1.941 I-0.1146 J0
G1 X0
G2 X-0.1146 Y2.0556 I0 J0.1146
G2 X0 Y2.1703 I0.1146 J0
G1 X19
G3 X19.1146 Y2.2849 I0 J0.1146
G3 X19 Y2.3996 I-0.1146 J0
G1 X0
G2 X-0.1146 Y2.5142 I0 J0.1146
G2 X0 Y2.6289 I0.1146 J0
G1 X19
G1 X19.0039 Z-0.1497 F6.
G1 X19.0077 Z-0.1488
G1 X19.0113 Z-0.1473
G1 X19.0147 Z-0.1452
G1 X19.0177 Z-0.1427
G1 X19.0202 Z-0.1397
G1 X19.0223 Z-0.1363
G1 X19.0238 Z-0.1327
G1 X19.0247 Z-0.1289
G1 X19.025 Z-0.125
G0 Z0.6

(2D CONTOUR2)
G0 X1.775 Y6.05
G0 Z0.6
G0 Z0.2
G1 Z0.1644 F30.
G1 Z-0.1
G1 Y6.0503 Z-0.1039 F6.
G1 Y6.0512 Z-0.1077
G1 Y6.0527 Z-0.1113
G1 Y6.0548 Z-0.1147
G1 Y6.0573 Z-0.1177
G1 Y6.0603 Z-0.1202
G1 Y6.0636 Z-0.1223
G1 Y6.0673 Z-0.1238
G1 Y6.0711 Z-0.1247
G1 Y6.075 Z-0.125
G1 Y6.1
G3 X1.75 Y6.125 I-0.025 J0
G1 X0.125 F30.
G1 Y2.875
G1 X18.875
G1 Y6.125
G1 X1.75
G3 X1.725 Y6.1 I0 J-0.025 F6.
G1 Y6.075
G1 Y6.0711 Z-0.1247
G1 Y6.0673 Z-0.1238
G1 Y6.0636 Z-0.1223
G1 Y6.0603 Z-0.1202
G1 Y6.0573 Z-0.1177
G1 Y6.0548 Z-0.1147
G1 Y6.0527 Z-0.1113
G1 Y6.0512 Z-0.1077
G1 Y6.0503 Z-0.1039
G1 Y6.05 Z-0.1
G0 Z0.2
G0 X1.775
G1 Z0.0394 F30.
G1 Z-0.225
G1 Y6.0503 Z-0.2289 F6.
G1 Y6.0512 Z-0.2327
G1 Y6.0527 Z-0.2363
G1 Y6.0548 Z-0.2397
G1 Y6.0573 Z-0.2427
G1 Y6.0603 Z-0.2452
G1 Y6.0636 Z-0.2473
G1 Y6.0673 Z-0.2488
G1 Y6.0711 Z-0.2497
G1 Y6.075 Z-0.25
G1 Y6.1
G3 X1.75 Y6.125 I-0.025 J0
G1 X0.125 F30.
G1 Y2.875
G1 X18.875
G1 Y6.125
G1 X1.75
G3 X1.725 Y6.1 I0 J-0.025 F6.
G1 Y6.075
G1 Y6.0711 Z-0.2497
G1 Y6.0673 Z-0.2488
G1 Y6.0636 Z-0.2473
G1 Y6.0603 Z-0.2452
G1 Y6.0573 Z-0.2427
G1 Y6.0548 Z-0.2397
G1 Y6.0527 Z-0.2363
G1 Y6.0512 Z-0.2327
G1 Y6.0503 Z-0.2289
G1 Y6.05 Z-0.225
G0 Z0.2
G0 X1.775
G1 Z-0.0856 F30.
G1 Z-0.35
G1 Y6.0503 Z-0.3539 F6.
G1 Y6.0512 Z-0.3577
G1 Y6.0527 Z-0.3613
G1 Y6.0548 Z-0.3647
G1 Y6.0573 Z-0.3677
G1 Y6.0603 Z-0.3702
G1 Y6.0636 Z-0.3723
G1 Y6.0673 Z-0.3738
G1 Y6.0711 Z-0.3747
G1 Y6.075 Z-0.375
G1 Y6.1
G3 X1.75 Y6.125 I-0.025 J0
G1 X0.125 F30.
G1 Y2.875
G1 X18.875
G1 Y6.125
G1 X1.75
G3 X1.725 Y6.1 I0 J-0.025 F6.
G1 Y6.075
G1 Y6.0711 Z-0.3747
G1 Y6.0673 Z-0.3738
G1 Y6.0636 Z-0.3723
G1 Y6.0603 Z-0.3702
G1 Y6.0573 Z-0.3677
G1 Y6.0548 Z-0.3647
G1 Y6.0527 Z-0.3613
G1 Y6.0512 Z-0.3577
G1 Y6.0503 Z-0.3539
G1 Y6.05 Z-0.35
G0 Z0.2
G0 X1.775
G1 Z-0.2106 F30.
G1 Z-0.475
G1 Y6.0503 Z-0.4789 F6.
G1 Y6.0512 Z-0.4827
G1 Y6.0527 Z-0.4863
G1 Y6.0548 Z-0.4897
G1 Y6.0573 Z-0.4927
G1 Y6.0603 Z-0.4952
G1 Y6.0636 Z-0.4973
G1 Y6.0673 Z-0.4988
G1 Y6.0711 Z-0.4997
G1 Y6.075 Z-0.5
G1 Y6.1
G3 X1.75 Y6.125 I-0.025 J0
G1 X0.125 F30.
G1 Y2.875
G1 X18.875
G1 Y6.125
G1 X1.75
G3 X1.725 Y6.1 I0 J-0.025 F6.
G1 Y6.075
G1 Y6.0711 Z-0.4997
G1 Y6.0673 Z-0.4988
G1 Y6.0636 Z-0.4973
G1 Y6.0603 Z-0.4952
G1 Y6.0573 Z-0.4927
G1 Y6.0548 Z-0.4897
G1 Y6.0527 Z-0.4863
G1 Y6.0512 Z-0.4827
G1 Y6.0503 Z-0.4789
G1 Y6.05 Z-0.475
G0 Z0.2
G0 X1.775
G1 Z-0.3356 F30.
G1 Z-0.6
G1 Y6.0503 Z-0.6039 F6.
G1 Y6.0512 Z-0.6077
G1 Y6.0527 Z-0.6113
G1 Y6.0548 Z-0.6147
G1 Y6.0573 Z-0.6177
G1 Y6.0603 Z-0.6202
G1 Y6.0636 Z-0.6223
G1 Y6.0673 Z-0.6238
G1 Y6.0711 Z-0.6247
G1 Y6.075 Z-0.625
G1 Y6.1
G3 X1.75 Y6.125 I-0.025 J0
G1 X0.125 F30.
G1 Y2.875
G1 X18.875
G1 Y6.125
G1 X1.75
G3 X1.725 Y6.1 I0 J-0.025 F6.
G1 Y6.075
G1 Y6.0711 Z-0.6247
G1 Y6.0673 Z-0.6238
G1 Y6.0636 Z-0.6223
G1 Y6.0603 Z-0.6202
G1 Y6.0573 Z-0.6177
G1 Y6.0548 Z-0.6147
G1 Y6.0527 Z-0.6113
G1 Y6.0512 Z-0.6077
G1 Y6.0503 Z-0.6039
G1 Y6.05 Z-0.6
G0 Z0.2
G0 X1.775
G1 Z-0.4606 F30.
G1 Z-0.725
G1 Y6.0503 Z-0.7289 F6.
G1 Y6.0512 Z-0.7327
G1 Y6.0527 Z-0.7363
G1 Y6.0548 Z-0.7397
G1 Y6.0573 Z-0.7427
G1 Y6.0603 Z-0.7452
G1 Y6.0636 Z-0.7473
G1 Y6.0673 Z-0.7488
G1 Y6.0711 Z-0.7497
G1 Y6.075 Z-0.75
G1 Y6.1
G3 X1.75 Y6.125 I-0.025 J0
G1 X0.125 F30.
G1 Y4.8349
G1 Z-0.7375
G1 Y4.3349
G1 Z-0.75
G1 Y2.875
G1 X5.5461
G1 Z-0.7375
G1 X6.0461
G1 Z-0.75
G1 X11.6676
G1 Z-0.7375
G1 X12.1676
G1 Z-0.75
G1 X18.875
G1 Y4.3101
G1 Z-0.7375
G1 Y4.8101
G1 Z-0.75
G1 Y6.125
G1 X12.4155
G1 Z-0.7375
G1 X11.9155
G1 Z-0.75
G1 X6.0709
G1 Z-0.7375
G1 X5.5709
G1 Z-0.75
G1 X1.75
G3 X1.725 Y6.1 I0 J-0.025 F6.
G1 Y6.075
G1 Y6.0711 Z-0.7497
G1 Y6.0673 Z-0.7488
G1 Y6.0636 Z-0.7473
G1 Y6.0603 Z-0.7452
G1 Y6.0573 Z-0.7427
G1 Y6.0548 Z-0.7397
G1 Y6.0527 Z-0.7363
G1 Y6.0512 Z-0.7327
G1 Y6.0503 Z-0.7289
G1 Y6.05 Z-0.725
G0 Z0.2
G0 X1.775
G1 Z-0.5856 F30.
G1 Z-0.775
G1 Y6.0503 Z-0.7789 F6.
G1 Y6.0512 Z-0.7827
G1 Y6.0527 Z-0.7863
G1 Y6.0548 Z-0.7897
G1 Y6.0573 Z-0.7927
G1 Y6.0603 Z-0.7952
G1 Y6.0636 Z-0.7973
G1 Y6.0673 Z-0.7988
G1 Y6.0711 Z-0.7997
G1 Y6.075 Z-0.8
G1 Y6.1
G3 X1.75 Y6.125 I-0.025 J0
G1 X0.125 F30.
G1 Y4.8349
G1 Z-0.7375
G1 Y4.3349
G1 Z-0.8
G1 Y2.875
G1 X5.5461
G1 Z-0.7375
G1 X6.0461
G1 Z-0.8
G1 X11.6676
G1 Z-0.7375
G1 X12.1676
G1 Z-0.8
G1 X18.875
G1 Y4.3101
G1 Z-0.7375
G1 Y4.8101
G1 Z-0.8
G1 Y6.125
G1 X12.4155
G1 Z-0.7375
G1 X11.9155
G1 Z-0.8
G1 X6.0709
G1 Z-0.7375
G1 X5.5709
G1 Z-0.8
G1 X1.75
G3 X1.725 Y6.1 I0 J-0.025 F6.
G1 Y6.075
G1 Y6.0711 Z-0.7997
G1 Y6.0673 Z-0.7988
G1 Y6.0636 Z-0.7973
G1 Y6.0603 Z-0.7952
G1 Y6.0573 Z-0.7927
G1 Y6.0548 Z-0.7897
G1 Y6.0527 Z-0.7863
G1 Y6.0512 Z-0.7827
G1 Y6.0503 Z-0.7789
G1 Y6.05 Z-0.775
G0 Z0.6

M5
M30
