(1001)
(T1  D=0.25 CR=0 - ZMIN=-0.8 - FLAT END MILL)
G0 G40 G90 G17
G20

(2D CONTOUR2)
T1 M6
M3 S1220
G0 X1.5022 Y6.05
G0 Z0.6
G0 Z0.2
G1 Z0.1644 F30.
G1 Z-0.1
G1 Y6.0503 Z-0.1039 F6.
G1 Y6.0512 Z-0.1077
G1 Y6.0527 Z-0.1113
G1 Y6.0548 Z-0.1147
G1 Y6.0573 Z-0.1177
G1 Y6.0603 Z-0.1202
G1 Y6.0636 Z-0.1223
G1 Y6.0673 Z-0.1238
G1 Y6.0711 Z-0.1247
G1 Y6.075 Z-0.125
G1 Y6.1
G3 X1.4772 Y6.125 I-0.025 J0
G1 X-0.1478 F30.
G1 Y2.875
G1 X19.1022
G1 Y6.125
G1 X1.4772
G3 X1.4522 Y6.1 I0 J-0.025 F6.
G1 Y6.075
G1 Y6.0711 Z-0.1247
G1 Y6.0673 Z-0.1238
G1 Y6.0636 Z-0.1223
G1 Y6.0603 Z-0.1202
G1 Y6.0573 Z-0.1177
G1 Y6.0548 Z-0.1147
G1 Y6.0527 Z-0.1113
G1 Y6.0512 Z-0.1077
G1 Y6.0503 Z-0.1039
G1 Y6.05 Z-0.1
G0 Z0.2
G0 X1.5022
G1 Z0.0394 F30.
G1 Z-0.225
G1 Y6.0503 Z-0.2289 F6.
G1 Y6.0512 Z-0.2327
G1 Y6.0527 Z-0.2363
G1 Y6.0548 Z-0.2397
G1 Y6.0573 Z-0.2427
G1 Y6.0603 Z-0.2452
G1 Y6.0636 Z-0.2473
G1 Y6.0673 Z-0.2488
G1 Y6.0711 Z-0.2497
G1 Y6.075 Z-0.25
G1 Y6.1
G3 X1.4772 Y6.125 I-0.025 J0
G1 X-0.1478 F30.
G1 Y2.875
G1 X19.1022
G1 Y6.125
G1 X1.4772
G3 X1.4522 Y6.1 I0 J-0.025 F6.
G1 Y6.075
G1 Y6.0711 Z-0.2497
G1 Y6.0673 Z-0.2488
G1 Y6.0636 Z-0.2473
G1 Y6.0603 Z-0.2452
G1 Y6.0573 Z-0.2427
G1 Y6.0548 Z-0.2397
G1 Y6.0527 Z-0.2363
G1 Y6.0512 Z-0.2327
G1 Y6.0503 Z-0.2289
G1 Y6.05 Z-0.225
G0 Z0.2
G0 X1.5022
G1 Z-0.0856 F30.
G1 Z-0.35
G1 Y6.0503 Z-0.3539 F6.
G1 Y6.0512 Z-0.3577
G1 Y6.0527 Z-0.3613
G1 Y6.0548 Z-0.3647
G1 Y6.0573 Z-0.3677
G1 Y6.0603 Z-0.3702
G1 Y6.0636 Z-0.3723
G1 Y6.0673 Z-0.3738
G1 Y6.0711 Z-0.3747
G1 Y6.075 Z-0.375
G1 Y6.1
G3 X1.4772 Y6.125 I-0.025 J0
G1 X-0.1478 F30.
G1 Y2.875
G1 X19.1022
G1 Y6.125
G1 X1.4772
G3 X1.4522 Y6.1 I0 J-0.025 F6.
G1 Y6.075
G1 Y6.0711 Z-0.3747
G1 Y6.0673 Z-0.3738
G1 Y6.0636 Z-0.3723
G1 Y6.0603 Z-0.3702
G1 Y6.0573 Z-0.3677
G1 Y6.0548 Z-0.3647
G1 Y6.0527 Z-0.3613
G1 Y6.0512 Z-0.3577
G1 Y6.0503 Z-0.3539
G1 Y6.05 Z-0.35
G0 Z0.2
G0 X1.5022
G1 Z-0.2106 F30.
G1 Z-0.475
G1 Y6.0503 Z-0.4789 F6.
G1 Y6.0512 Z-0.4827
G1 Y6.0527 Z-0.4863
G1 Y6.0548 Z-0.4897
G1 Y6.0573 Z-0.4927
G1 Y6.0603 Z-0.4952
G1 Y6.0636 Z-0.4973
G1 Y6.0673 Z-0.4988
G1 Y6.0711 Z-0.4997
G1 Y6.075 Z-0.5
G1 Y6.1
G3 X1.4772 Y6.125 I-0.025 J0
G1 X-0.1478 F30.
G1 Y2.875
G1 X19.1022
G1 Y6.125
G1 X1.4772
G3 X1.4522 Y6.1 I0 J-0.025 F6.
G1 Y6.075
G1 Y6.0711 Z-0.4997
G1 Y6.0673 Z-0.4988
G1 Y6.0636 Z-0.4973
G1 Y6.0603 Z-0.4952
G1 Y6.0573 Z-0.4927
G1 Y6.0548 Z-0.4897
G1 Y6.0527 Z-0.4863
G1 Y6.0512 Z-0.4827
G1 Y6.0503 Z-0.4789
G1 Y6.05 Z-0.475
G0 Z0.2
G0 X1.5022
G1 Z-0.3356 F30.
G1 Z-0.6
G1 Y6.0503 Z-0.6039 F6.
G1 Y6.0512 Z-0.6077
G1 Y6.0527 Z-0.6113
G1 Y6.0548 Z-0.6147
G1 Y6.0573 Z-0.6177
G1 Y6.0603 Z-0.6202
G1 Y6.0636 Z-0.6223
G1 Y6.0673 Z-0.6238
G1 Y6.0711 Z-0.6247
G1 Y6.075 Z-0.625
G1 Y6.1
G3 X1.4772 Y6.125 I-0.025 J0
G1 X-0.1478 F30.
G1 Y2.875
G1 X19.1022
G1 Y6.125
G1 X1.4772
G3 X1.4522 Y6.1 I0 J-0.025 F6.
G1 Y6.075
G1 Y6.0711 Z-0.6247
G1 Y6.0673 Z-0.6238
G1 Y6.0636 Z-0.6223
G1 Y6.0603 Z-0.6202
G1 Y6.0573 Z-0.6177
G1 Y6.0548 Z-0.6147
G1 Y6.0527 Z-0.6113
G1 Y6.0512 Z-0.6077
G1 Y6.0503 Z-0.6039
G1 Y6.05 Z-0.6
G0 Z0.2
G0 X1.5022
G1 Z-0.4606 F30.
G1 Z-0.725
G1 Y6.0503 Z-0.7289 F6.
G1 Y6.0512 Z-0.7327
G1 Y6.0527 Z-0.7363
G1 Y6.0548 Z-0.7397
G1 Y6.0573 Z-0.7427
G1 Y6.0603 Z-0.7452
G1 Y6.0636 Z-0.7473
G1 Y6.0673 Z-0.7488
G1 Y6.0711 Z-0.7497
G1 Y6.075 Z-0.75
G1 Y6.1
G3 X1.4772 Y6.125 I-0.025 J0
G1 X-0.1478 F30.
G1 Y4.715
G1 Z-0.65
G1 Y4.215
G1 Z-0.75
G1 Y2.875
G1 X5.5793
G1 Z-0.65
G1 X6.0793
G1 Z-0.75
G1 X12.152
G1 Z-0.65
G1 X12.652
G1 Z-0.75
G1 X19.1022
G1 Y4.215
G1 Z-0.65
G1 Y4.715
G1 Z-0.75
G1 Y6.125
G1 X14.3827
G1 Z-0.65
G1 X13.8827
G1 Z-0.75
G1 X5.3612
G1 Z-0.65
G1 X4.8612
G1 Z-0.75
G1 X1.4772
G3 X1.4522 Y6.1 I0 J-0.025 F6.
G1 Y6.075
G1 Y6.0711 Z-0.7497
G1 Y6.0673 Z-0.7488
G1 Y6.0636 Z-0.7473
G1 Y6.0603 Z-0.7452
G1 Y6.0573 Z-0.7427
G1 Y6.0548 Z-0.7397
G1 Y6.0527 Z-0.7363
G1 Y6.0512 Z-0.7327
G1 Y6.0503 Z-0.7289
G1 Y6.05 Z-0.725
G0 Z0.2
G0 X1.5022
G1 Z-0.5856 F30.
G1 Z-0.775
G1 Y6.0503 Z-0.7789 F6.
G1 Y6.0512 Z-0.7827
G1 Y6.0527 Z-0.7863
G1 Y6.0548 Z-0.7897
G1 Y6.0573 Z-0.7927
G1 Y6.0603 Z-0.7952
G1 Y6.0636 Z-0.7973
G1 Y6.0673 Z-0.7988
G1 Y6.0711 Z-0.7997
G1 Y6.075 Z-0.8
G1 Y6.1
G3 X1.4772 Y6.125 I-0.025 J0
G1 X-0.1478 F30.
G1 Y4.715
G1 Z-0.65
G1 Y4.215
G1 Z-0.8
G1 Y2.875
G1 X5.5793
G1 Z-0.65
G1 X6.0793
G1 Z-0.8
G1 X12.152
G1 Z-0.65
G1 X12.652
G1 Z-0.8
G1 X19.1022
G1 Y4.215
G1 Z-0.65
G1 Y4.715
G1 Z-0.8
G1 Y6.125
G1 X14.3827
G1 Z-0.65
G1 X13.8827
G1 Z-0.8
G1 X5.3612
G1 Z-0.65
G1 X4.8612
G1 Z-0.8
G1 X1.4772
G3 X1.4522 Y6.1 I0 J-0.025 F6.
G1 Y6.075
G1 Y6.0711 Z-0.7997
G1 Y6.0673 Z-0.7988
G1 Y6.0636 Z-0.7973
G1 Y6.0603 Z-0.7952
G1 Y6.0573 Z-0.7927
G1 Y6.0548 Z-0.7897
G1 Y6.0527 Z-0.7863
G1 Y6.0512 Z-0.7827
G1 Y6.0503 Z-0.7789
G1 Y6.05 Z-0.775
G0 Z0.6

M5
M30
