(1001)
(T1  D=0.25 CR=0 - ZMIN=-0.15 - FLAT END MILL)
G0 G40 G90 G17
G20

(FACE3)
T1 M6
M3 S1220
G0 X18.1625 Y0.1067
G0 Z0.6
G0 Z0.2
G1 Z-0.125 F6.
G1 X18.1622 Z-0.1289
G1 X18.1613 Z-0.1327
G1 X18.1598 Z-0.1363
G1 X18.1577 Z-0.1397
G1 X18.1552 Z-0.1427
G1 X18.1522 Z-0.1452
G1 X18.1489 Z-0.1473
G1 X18.1452 Z-0.1488
G1 X18.1414 Z-0.1497
G1 X18.1375 Z-0.15
G1 X18
G1 X0
G2 X-0.1146 Y0.2213 I0 J0.1146
G2 X0 Y0.336 I0.1146 J0
G1 X18
G3 X18.1146 Y0.4506 I0 J0.1146
G3 X18 Y0.5653 I-0.1146 J0
G1 X0
G2 X-0.1146 Y0.6799 I0 J0.1146
G2 X0 Y0.7945 I0.1146 J0
G1 X18
G3 X18.1146 Y0.9092 I0 J0.1146
G3 X18 Y1.0238 I-0.1146 J0
G1 X0
G2 X-0.1146 Y1.1385 I0 J0.1146
G2 X0 Y1.2531 I0.1146 J0
G1 X18
G3 X18.1146 Y1.3678 I0 J0.1146
G3 X18 Y1.4824 I-0.1146 J0
G1 X0
G2 X-0.1146 Y1.5971 I0 J0.1146
G2 X0 Y1.7117 I0.1146 J0
G1 X18
G3 X18.1146 Y1.8264 I0 J0.1146
G3 X18 Y1.941 I-0.1146 J0
G1 X0
G2 X-0.1146 Y2.0556 I0 J0.1146
G2 X0 Y2.1703 I0.1146 J0
G1 X18
G3 X18.1146 Y2.2849 I0 J0.1146
G3 X18 Y2.3996 I-0.1146 J0
G1 X0
G2 X-0.1146 Y2.5142 I0 J0.1146
G2 X0 Y2.6289 I0.1146 J0
G1 X18
G1 X18.0039 Z-0.1497
G1 X18.0077 Z-0.1488
G1 X18.0114 Z-0.1473
G1 X18.0147 Z-0.1452
G1 X18.0177 Z-0.1427
G1 X18.0202 Z-0.1397
G1 X18.0223 Z-0.1363
G1 X18.0238 Z-0.1327
G1 X18.0247 Z-0.1289
G1 X18.025 Z-0.125
G0 Z0.6

M5
M30
