(1001)
(T1  D=0.125 CR=0 - ZMIN=-0.1563 - FLAT END MILL)
G0 G40 G90 G17
G20

(2D CONTOUR3)
T1 M6
M3 S2440
G0 X7.5048 Y1.8416
G0 Z0.6
G0 Z0.1375
G1 Z-0.0069 F30.
G1 Z-0.0663
G1 Y1.8413 Z-0.069 F6.1
G1 X7.5049 Y1.8404 Z-0.0717
G1 X7.5051 Y1.8389 Z-0.074
G1 X7.5053 Y1.8369 Z-0.076
G1 X7.5056 Y1.8346 Z-0.0775
G1 X7.5059 Y1.8319 Z-0.0784
G1 X7.5063 Y1.8292 Z-0.0788
G1 X7.5078 Y1.8168
G3 X7.5125 Y1.8084 I0.0124 J0.0015
G3 X7.5217 Y1.8059 I0.0077 J0.0098
G1 X11.1228 Y2.2394
G3 X11.1756 Y2.2845 I-0.0075 J0.0621
G2 X11.1987 Y2.351 I0.5659 J-0.1595
G3 X11.165 Y2.4327 I-0.0577 J0.024
G3 X11.141 Y2.4375 I-0.024 J-0.0577
G1 X2.8023
G3 X2.7398 Y2.375 I0 J-0.0625
G3 X2.7922 Y2.3133 I0.0625 J0
G1 X5.8004 Y1.819
G3 X5.8665 Y1.8528 I0.0101 J0.0617
G2 X6.9205 Y2.2062 I0.7037 J-0.3503
G2 X7.2883 Y1.8222 I-0.3503 J-0.7037
G3 X7.3529 Y1.7855 I0.0571 J0.0254
G1 X7.5217 Y1.8059
G3 X7.5326 Y1.8198 I-0.0015 J0.0124
G1 X7.5311 Y1.8322
G1 X7.5308 Y1.8349 Z-0.0784
G1 X7.5305 Y1.8376 Z-0.0775
G1 X7.5302 Y1.8399 Z-0.076
G1 X7.5299 Y1.8419 Z-0.074
G1 X7.5298 Y1.8434 Z-0.0717
G1 X7.5296 Y1.8443 Z-0.069
G1 Y1.8446 Z-0.0663
G0 Z0.2
G0 X7.5048 Y1.8416
G0 Z0.1375
G1 Z-0.0231 F30.
G1 Z-0.0825
G1 Y1.8413 Z-0.0853 F6.1
G1 X7.5049 Y1.8404 Z-0.0879
G1 X7.5051 Y1.8389 Z-0.0903
G1 X7.5053 Y1.8369 Z-0.0923
G1 X7.5056 Y1.8346 Z-0.0938
G1 X7.5059 Y1.8319 Z-0.0947
G1 X7.5063 Y1.8292 Z-0.095
G1 X7.5078 Y1.8168
G3 X7.5125 Y1.8084 I0.0124 J0.0015
G3 X7.5217 Y1.8059 I0.0077 J0.0098
G1 X11.1228 Y2.2394
G3 X11.1756 Y2.2845 I-0.0075 J0.0621
G2 X11.1987 Y2.351 I0.5659 J-0.1595
G3 X11.165 Y2.4327 I-0.0577 J0.024
G3 X11.141 Y2.4375 I-0.024 J-0.0577
G1 X2.8023
G3 X2.7398 Y2.375 I0 J-0.0625
G3 X2.7922 Y2.3133 I0.0625 J0
G1 X5.8004 Y1.819
G3 X5.8665 Y1.8528 I0.0101 J0.0617
G2 X6.9205 Y2.2062 I0.7037 J-0.3503
G2 X7.2883 Y1.8222 I-0.3503 J-0.7037
G3 X7.3529 Y1.7855 I0.0571 J0.0254
G1 X7.5217 Y1.8059
G3 X7.5326 Y1.8198 I-0.0015 J0.0124
G1 X7.5311 Y1.8322
G1 X7.5308 Y1.8349 Z-0.0947
G1 X7.5305 Y1.8376 Z-0.0938
G1 X7.5302 Y1.8399 Z-0.0923
G1 X7.5299 Y1.8419 Z-0.0903
G1 X7.5298 Y1.8434 Z-0.0879
G1 X7.5296 Y1.8443 Z-0.0853
G1 Y1.8446 Z-0.0825
G0 Z0.2
G0 X7.5048 Y1.8416
G0 Z0.1375
G1 Z-0.0394 F30.
G1 Z-0.0988
G1 Y1.8413 Z-0.1015 F6.1
G1 X7.5049 Y1.8404 Z-0.1042
G1 X7.5051 Y1.8389 Z-0.1065
G1 X7.5053 Y1.8369 Z-0.1085
G1 X7.5056 Y1.8346 Z-0.11
G1 X7.5059 Y1.8319 Z-0.1109
G1 X7.5063 Y1.8292 Z-0.1113
G1 X7.5078 Y1.8168
G3 X7.5125 Y1.8084 I0.0124 J0.0015
G3 X7.5217 Y1.8059 I0.0077 J0.0098
G1 X11.1228 Y2.2394
G3 X11.1756 Y2.2845 I-0.0075 J0.0621
G2 X11.1987 Y2.351 I0.5659 J-0.1595
G3 X11.165 Y2.4327 I-0.0577 J0.024
G3 X11.141 Y2.4375 I-0.024 J-0.0577
G1 X2.8023
G3 X2.7398 Y2.375 I0 J-0.0625
G3 X2.7922 Y2.3133 I0.0625 J0
G1 X5.8004 Y1.819
G3 X5.8665 Y1.8528 I0.0101 J0.0617
G2 X6.9205 Y2.2062 I0.7037 J-0.3503
G2 X7.2883 Y1.8222 I-0.3503 J-0.7037
G3 X7.3529 Y1.7855 I0.0571 J0.0254
G1 X7.5217 Y1.8059
G3 X7.5326 Y1.8198 I-0.0015 J0.0124
G1 X7.5311 Y1.8322
G1 X7.5308 Y1.8349 Z-0.1109
G1 X7.5305 Y1.8376 Z-0.11
G1 X7.5302 Y1.8399 Z-0.1085
G1 X7.5299 Y1.8419 Z-0.1065
G1 X7.5298 Y1.8434 Z-0.1042
G1 X7.5296 Y1.8443 Z-0.1015
G1 Y1.8446 Z-0.0988
G0 Z0.2
G0 X7.5048 Y1.8416
G0 Z0.1375
G1 Z-0.0556 F30.
G1 Z-0.115
G1 Y1.8413 Z-0.1178 F6.1
G1 X7.5049 Y1.8404 Z-0.1204
G1 X7.5051 Y1.8389 Z-0.1228
G1 X7.5053 Y1.8369 Z-0.1248
G1 X7.5056 Y1.8346 Z-0.1263
G1 X7.5059 Y1.8319 Z-0.1272
G1 X7.5063 Y1.8292 Z-0.1275
G1 X7.5078 Y1.8168
G3 X7.5125 Y1.8084 I0.0124 J0.0015
G3 X7.5217 Y1.8059 I0.0077 J0.0098
G1 X11.1228 Y2.2394
G3 X11.1756 Y2.2845 I-0.0075 J0.0621
G2 X11.1987 Y2.351 I0.5659 J-0.1595
G3 X11.165 Y2.4327 I-0.0577 J0.024
G3 X11.141 Y2.4375 I-0.024 J-0.0577
G1 X2.8023
G3 X2.7398 Y2.375 I0 J-0.0625
G3 X2.7922 Y2.3133 I0.0625 J0
G1 X5.8004 Y1.819
G3 X5.8665 Y1.8528 I0.0101 J0.0617
G2 X6.9205 Y2.2062 I0.7037 J-0.3503
G2 X7.2883 Y1.8222 I-0.3503 J-0.7037
G3 X7.3529 Y1.7855 I0.0571 J0.0254
G1 X7.5217 Y1.8059
G3 X7.5326 Y1.8198 I-0.0015 J0.0124
G1 X7.5311 Y1.8322
G1 X7.5308 Y1.8349 Z-0.1272
G1 X7.5305 Y1.8376 Z-0.1263
G1 X7.5302 Y1.8399 Z-0.1248
G1 X7.5299 Y1.8419 Z-0.1228
G1 X7.5298 Y1.8434 Z-0.1204
G1 X7.5296 Y1.8443 Z-0.1178
G1 Y1.8446 Z-0.115
G0 Z0.2
G0 X7.5048 Y1.8416
G0 Z0.1375
G1 Z-0.0719 F30.
G1 Z-0.1313
G1 Y1.8413 Z-0.134 F6.1
G1 X7.5049 Y1.8404 Z-0.1367
G1 X7.5051 Y1.8389 Z-0.139
G1 X7.5053 Y1.8369 Z-0.141
G1 X7.5056 Y1.8346 Z-0.1425
G1 X7.5059 Y1.8319 Z-0.1434
G1 X7.5063 Y1.8292 Z-0.1437
G1 X7.5078 Y1.8168
G3 X7.5125 Y1.8084 I0.0124 J0.0015
G3 X7.5217 Y1.8059 I0.0077 J0.0098
G1 X11.1228 Y2.2394
G3 X11.1756 Y2.2845 I-0.0075 J0.0621
G2 X11.1987 Y2.351 I0.5659 J-0.1595
G3 X11.165 Y2.4327 I-0.0577 J0.024
G3 X11.141 Y2.4375 I-0.024 J-0.0577
G1 X2.8023
G3 X2.7398 Y2.375 I0 J-0.0625
G3 X2.7922 Y2.3133 I0.0625 J0
G1 X5.8004 Y1.819
G3 X5.8665 Y1.8528 I0.0101 J0.0617
G2 X6.9205 Y2.2062 I0.7037 J-0.3503
G2 X7.2883 Y1.8222 I-0.3503 J-0.7037
G3 X7.3529 Y1.7855 I0.0571 J0.0254
G1 X7.5217 Y1.8059
G3 X7.5326 Y1.8198 I-0.0015 J0.0124
G1 X7.5311 Y1.8322
G1 X7.5308 Y1.8349 Z-0.1434
G1 X7.5305 Y1.8376 Z-0.1425
G1 X7.5302 Y1.8399 Z-0.141
G1 X7.5299 Y1.8419 Z-0.139
G1 X7.5298 Y1.8434 Z-0.1367
G1 X7.5296 Y1.8443 Z-0.134
G1 Y1.8446 Z-0.1313
G0 Z0.2
G0 X7.5048 Y1.8416
G0 Z0.1375
G1 Z-0.0881 F30.
G1 Z-0.1438
G1 Y1.8413 Z-0.1465 F6.1
G1 X7.5049 Y1.8404 Z-0.1492
G1 X7.5051 Y1.8389 Z-0.1515
G1 X7.5053 Y1.8369 Z-0.1535
G1 X7.5056 Y1.8346 Z-0.155
G1 X7.5059 Y1.8319 Z-0.1559
G1 X7.5063 Y1.8292 Z-0.1563
G1 X7.5078 Y1.8168
G3 X7.5125 Y1.8084 I0.0124 J0.0015
G3 X7.5217 Y1.8059 I0.0077 J0.0098
G1 X11.1228 Y2.2394
G3 X11.1756 Y2.2845 I-0.0075 J0.0621
G2 X11.1987 Y2.351 I0.5659 J-0.1595
G3 X11.165 Y2.4327 I-0.0577 J0.024
G3 X11.141 Y2.4375 I-0.024 J-0.0577
G1 X2.8023
G3 X2.7398 Y2.375 I0 J-0.0625
G3 X2.7922 Y2.3133 I0.0625 J0
G1 X5.8004 Y1.819
G3 X5.8665 Y1.8528 I0.0101 J0.0617
G2 X6.9205 Y2.2062 I0.7037 J-0.3503
G2 X7.2883 Y1.8222 I-0.3503 J-0.7037
G3 X7.3529 Y1.7855 I0.0571 J0.0254
G1 X7.5217 Y1.8059
G3 X7.5326 Y1.8198 I-0.0015 J0.0124
G1 X7.5311 Y1.8322
G1 X7.5308 Y1.8349 Z-0.1559
G1 X7.5305 Y1.8376 Z-0.155
G1 X7.5302 Y1.8399 Z-0.1535
G1 X7.5299 Y1.8419 Z-0.1515
G1 X7.5298 Y1.8434 Z-0.1492
G1 X7.5296 Y1.8443 Z-0.1465
G1 Y1.8446 Z-0.1438
G0 Z0.2
G0 X14.971 Y0.8085
G0 Z0.1375
G1 Z-0.0069 F30.
G1 Z-0.0663
G1 X14.9713 Z-0.069 F6.1
G1 X14.9722 Z-0.0717
G1 X14.9737 Z-0.074
G1 X14.9757 Z-0.076
G1 X14.9781 Z-0.0775
G1 X14.9807 Z-0.0784
G1 X14.9835 Z-0.0788
G1 X14.996
G3 X15.0085 Y0.821 I0 J0.0125
G3 X14.5 Y1.3295 I-0.5085 J0
G3 X13.9915 Y0.821 I0 J-0.5085
G3 X14.5 Y0.3125 I0.5085 J0
G3 X15.0085 Y0.821 I0 J0.5085
G3 X14.996 Y0.8335 I-0.0125 J0
G1 X14.9835
G1 X14.9807 Z-0.0784
G1 X14.9781 Z-0.0775
G1 X14.9757 Z-0.076
G1 X14.9737 Z-0.074
G1 X14.9722 Z-0.0717
G1 X14.9713 Z-0.069
G1 X14.971 Z-0.0663
G0 Z0.2
G0 Y0.8085
G0 Z0.1375
G1 Z-0.0231 F30.
G1 Z-0.0825
G1 X14.9713 Z-0.0853 F6.1
G1 X14.9722 Z-0.0879
G1 X14.9737 Z-0.0903
G1 X14.9757 Z-0.0923
G1 X14.9781 Z-0.0938
G1 X14.9807 Z-0.0947
G1 X14.9835 Z-0.095
G1 X14.996
G3 X15.0085 Y0.821 I0 J0.0125
G3 X14.5 Y1.3295 I-0.5085 J0
G3 X13.9915 Y0.821 I0 J-0.5085
G3 X14.5 Y0.3125 I0.5085 J0
G3 X15.0085 Y0.821 I0 J0.5085
G3 X14.996 Y0.8335 I-0.0125 J0
G1 X14.9835
G1 X14.9807 Z-0.0947
G1 X14.9781 Z-0.0938
G1 X14.9757 Z-0.0923
G1 X14.9737 Z-0.0903
G1 X14.9722 Z-0.0879
G1 X14.9713 Z-0.0853
G1 X14.971 Z-0.0825
G0 Z0.2
G0 Y0.8085
G0 Z0.1375
G1 Z-0.0394 F30.
G1 Z-0.0988
G1 X14.9713 Z-0.1015 F6.1
G1 X14.9722 Z-0.1042
G1 X14.9737 Z-0.1065
G1 X14.9757 Z-0.1085
G1 X14.9781 Z-0.11
G1 X14.9807 Z-0.1109
G1 X14.9835 Z-0.1113
G1 X14.996
G3 X15.0085 Y0.821 I0 J0.0125
G3 X14.5 Y1.3295 I-0.5085 J0
G3 X13.9915 Y0.821 I0 J-0.5085
G3 X14.5 Y0.3125 I0.5085 J0
G3 X15.0085 Y0.821 I0 J0.5085
G3 X14.996 Y0.8335 I-0.0125 J0
G1 X14.9835
G1 X14.9807 Z-0.1109
G1 X14.9781 Z-0.11
G1 X14.9757 Z-0.1085
G1 X14.9737 Z-0.1065
G1 X14.9722 Z-0.1042
G1 X14.9713 Z-0.1015
G1 X14.971 Z-0.0988
G0 Z0.2
G0 Y0.8085
G0 Z0.1375
G1 Z-0.0556 F30.
G1 Z-0.115
G1 X14.9713 Z-0.1178 F6.1
G1 X14.9722 Z-0.1204
G1 X14.9737 Z-0.1228
G1 X14.9757 Z-0.1248
G1 X14.9781 Z-0.1263
G1 X14.9807 Z-0.1272
G1 X14.9835 Z-0.1275
G1 X14.996
G3 X15.0085 Y0.821 I0 J0.0125
G3 X14.5 Y1.3295 I-0.5085 J0
G3 X13.9915 Y0.821 I0 J-0.5085
G3 X14.5 Y0.3125 I0.5085 J0
G3 X15.0085 Y0.821 I0 J0.5085
G3 X14.996 Y0.8335 I-0.0125 J0
G1 X14.9835
G1 X14.9807 Z-0.1272
G1 X14.9781 Z-0.1263
G1 X14.9757 Z-0.1248
G1 X14.9737 Z-0.1228
G1 X14.9722 Z-0.1204
G1 X14.9713 Z-0.1178
G1 X14.971 Z-0.115
G0 Z0.2
G0 Y0.8085
G0 Z0.1375
G1 Z-0.0719 F30.
G1 Z-0.1313
G1 X14.9713 Z-0.134 F6.1
G1 X14.9722 Z-0.1367
G1 X14.9737 Z-0.139
G1 X14.9757 Z-0.141
G1 X14.9781 Z-0.1425
G1 X14.9807 Z-0.1434
G1 X14.9835 Z-0.1437
G1 X14.996
G3 X15.0085 Y0.821 I0 J0.0125
G3 X14.5 Y1.3295 I-0.5085 J0
G3 X13.9915 Y0.821 I0 J-0.5085
G3 X14.5 Y0.3125 I0.5085 J0
G3 X15.0085 Y0.821 I0 J0.5085
G3 X14.996 Y0.8335 I-0.0125 J0
G1 X14.9835
G1 X14.9807 Z-0.1434
G1 X14.9781 Z-0.1425
G1 X14.9757 Z-0.141
G1 X14.9737 Z-0.139
G1 X14.9722 Z-0.1367
G1 X14.9713 Z-0.134
G1 X14.971 Z-0.1313
G0 Z0.2
G0 Y0.8085
G0 Z0.1375
G1 Z-0.0881 F30.
G1 Z-0.1438
G1 X14.9713 Z-0.1465 F6.1
G1 X14.9722 Z-0.1492
G1 X14.9737 Z-0.1515
G1 X14.9757 Z-0.1535
G1 X14.9781 Z-0.155
G1 X14.9807 Z-0.1559
G1 X14.9835 Z-0.1563
G1 X14.996
G3 X15.0085 Y0.821 I0 J0.0125
G3 X14.5 Y1.3295 I-0.5085 J0
G3 X13.9915 Y0.821 I0 J-0.5085
G3 X14.5 Y0.3125 I0.5085 J0
G3 X15.0085 Y0.821 I0 J0.5085
G3 X14.996 Y0.8335 I-0.0125 J0
G1 X14.9835
G1 X14.9807 Z-0.1559
G1 X14.9781 Z-0.155
G1 X14.9757 Z-0.1535
G1 X14.9737 Z-0.1515
G1 X14.9722 Z-0.1492
G1 X14.9713 Z-0.1465
G1 X14.971 Z-0.1438
G0 Z0.6

M5
M30
