(1001)
(T1  D=0.125 CR=0 - ZMIN=-0.1563 - FLAT END MILL)
G0 G40 G90 G17
G20

(2D CONTOUR1)
T1 M6
M3 S2440
G0 X-10.9857 Y1.7239
G0 Z0.6
G0 Z0.2
G1 Z0.0556 F30.
G1 Z-0.0038
G1 X-10.9856 Y1.7242 Z-0.0065 F6.1
G1 X-10.9854 Y1.7251 Z-0.0092
G1 X-10.9851 Y1.7266 Z-0.0115
G1 X-10.9846 Y1.7285 Z-0.0135
G1 X-10.9841 Y1.7308 Z-0.015
G1 X-10.9835 Y1.7334 Z-0.0159
G1 X-10.9829 Y1.7361 Z-0.0163
G1 X-10.9802 Y1.7483
G3 X-10.9818 Y1.7577 I-0.0122 J0.0027
G3 X-10.9896 Y1.7633 I-0.0106 J-0.0067
G1 X-11.1969 Y1.81
G3 X-11.2617 Y1.7852 I-0.0138 J-0.061
G2 X-11.677 Y1.5406 I-0.4798 J0.3398
G2 X-12.1357 Y1.6887 I-0.0645 J0.5844
G3 X-12.2043 Y1.6988 I-0.0419 J-0.0464
G1 X-13.4837 Y1.094
G3 X-13.5135 Y1.0108 I0.0267 J-0.0565
G3 X-13.459 Y0.9751 I0.0565 J0.0267
G1 X-7.1566 Y0.7721
G3 X-7.0921 Y0.8325 I0.002 J0.0625
G3 X-7.1409 Y0.8955 I-0.0625 J0.002
G1 X-10.9896 Y1.7633
G3 X-11.0045 Y1.7538 I-0.0027 J-0.0122
G1 X-11.0073 Y1.7416
G1 X-11.0079 Y1.7389 Z-0.0159
G1 X-11.0085 Y1.7363 Z-0.015
G1 X-11.009 Y1.734 Z-0.0135
G1 X-11.0094 Y1.7321 Z-0.0115
G1 X-11.0098 Y1.7306 Z-0.0092
G1 X-11.01 Y1.7297 Z-0.0065
G1 Y1.7294 Z-0.0038
G0 Z0.2
G0 X-10.9857 Y1.7239
G1 Z0.0394 F30.
G1 Z-0.02
G1 X-10.9856 Y1.7242 Z-0.0228 F6.1
G1 X-10.9854 Y1.7251 Z-0.0254
G1 X-10.9851 Y1.7266 Z-0.0278
G1 X-10.9846 Y1.7285 Z-0.0298
G1 X-10.9841 Y1.7308 Z-0.0313
G1 X-10.9835 Y1.7334 Z-0.0322
G1 X-10.9829 Y1.7361 Z-0.0325
G1 X-10.9802 Y1.7483
G3 X-10.9818 Y1.7577 I-0.0122 J0.0027
G3 X-10.9896 Y1.7633 I-0.0106 J-0.0067
G1 X-11.1969 Y1.81
G3 X-11.2617 Y1.7852 I-0.0138 J-0.061
G2 X-11.677 Y1.5406 I-0.4798 J0.3398
G2 X-12.1357 Y1.6887 I-0.0645 J0.5844
G3 X-12.2043 Y1.6988 I-0.0419 J-0.0464
G1 X-13.4837 Y1.094
G3 X-13.5135 Y1.0108 I0.0267 J-0.0565
G3 X-13.459 Y0.9751 I0.0565 J0.0267
G1 X-7.1566 Y0.7721
G3 X-7.0921 Y0.8325 I0.002 J0.0625
G3 X-7.1409 Y0.8955 I-0.0625 J0.002
G1 X-10.9896 Y1.7633
G3 X-11.0045 Y1.7538 I-0.0027 J-0.0122
G1 X-11.0073 Y1.7416
G1 X-11.0079 Y1.7389 Z-0.0322
G1 X-11.0085 Y1.7363 Z-0.0313
G1 X-11.009 Y1.734 Z-0.0298
G1 X-11.0094 Y1.7321 Z-0.0278
G1 X-11.0098 Y1.7306 Z-0.0254
G1 X-11.01 Y1.7297 Z-0.0228
G1 Y1.7294 Z-0.02
G0 Z0.2
G0 X-10.9857 Y1.7239
G1 Z0.0231 F30.
G1 Z-0.0363
G1 X-10.9856 Y1.7242 Z-0.039 F6.1
G1 X-10.9854 Y1.7251 Z-0.0417
G1 X-10.9851 Y1.7266 Z-0.044
G1 X-10.9846 Y1.7285 Z-0.046
G1 X-10.9841 Y1.7308 Z-0.0475
G1 X-10.9835 Y1.7334 Z-0.0484
G1 X-10.9829 Y1.7361 Z-0.0488
G1 X-10.9802 Y1.7483
G3 X-10.9818 Y1.7577 I-0.0122 J0.0027
G3 X-10.9896 Y1.7633 I-0.0106 J-0.0067
G1 X-11.1969 Y1.81
G3 X-11.2617 Y1.7852 I-0.0138 J-0.061
G2 X-11.677 Y1.5406 I-0.4798 J0.3398
G2 X-12.1357 Y1.6887 I-0.0645 J0.5844
G3 X-12.2043 Y1.6988 I-0.0419 J-0.0464
G1 X-13.4837 Y1.094
G3 X-13.5135 Y1.0108 I0.0267 J-0.0565
G3 X-13.459 Y0.9751 I0.0565 J0.0267
G1 X-7.1566 Y0.7721
G3 X-7.0921 Y0.8325 I0.002 J0.0625
G3 X-7.1409 Y0.8955 I-0.0625 J0.002
G1 X-10.9896 Y1.7633
G3 X-11.0045 Y1.7538 I-0.0027 J-0.0122
G1 X-11.0073 Y1.7416
G1 X-11.0079 Y1.7389 Z-0.0484
G1 X-11.0085 Y1.7363 Z-0.0475
G1 X-11.009 Y1.734 Z-0.046
G1 X-11.0094 Y1.7321 Z-0.044
G1 X-11.0098 Y1.7306 Z-0.0417
G1 X-11.01 Y1.7297 Z-0.039
G1 Y1.7294 Z-0.0363
G0 Z0.2
G0 X-10.9857 Y1.7239
G1 Z0.0069 F30.
G1 Z-0.0525
G1 X-10.9856 Y1.7242 Z-0.0553 F6.1
G1 X-10.9854 Y1.7251 Z-0.0579
G1 X-10.9851 Y1.7266 Z-0.0603
G1 X-10.9846 Y1.7285 Z-0.0623
G1 X-10.9841 Y1.7308 Z-0.0638
G1 X-10.9835 Y1.7334 Z-0.0647
G1 X-10.9829 Y1.7361 Z-0.065
G1 X-10.9802 Y1.7483
G3 X-10.9818 Y1.7577 I-0.0122 J0.0027
G3 X-10.9896 Y1.7633 I-0.0106 J-0.0067
G1 X-11.1969 Y1.81
G3 X-11.2617 Y1.7852 I-0.0138 J-0.061
G2 X-11.677 Y1.5406 I-0.4798 J0.3398
G2 X-12.1357 Y1.6887 I-0.0645 J0.5844
G3 X-12.2043 Y1.6988 I-0.0419 J-0.0464
G1 X-13.4837 Y1.094
G3 X-13.5135 Y1.0108 I0.0267 J-0.0565
G3 X-13.459 Y0.9751 I0.0565 J0.0267
G1 X-7.1566 Y0.7721
G3 X-7.0921 Y0.8325 I0.002 J0.0625
G3 X-7.1409 Y0.8955 I-0.0625 J0.002
G1 X-10.9896 Y1.7633
G3 X-11.0045 Y1.7538 I-0.0027 J-0.0122
G1 X-11.0073 Y1.7416
G1 X-11.0079 Y1.7389 Z-0.0647
G1 X-11.0085 Y1.7363 Z-0.0638
G1 X-11.009 Y1.734 Z-0.0623
G1 X-11.0094 Y1.7321 Z-0.0603
G1 X-11.0098 Y1.7306 Z-0.0579
G1 X-11.01 Y1.7297 Z-0.0553
G1 Y1.7294 Z-0.0525
G0 Z0.2
G0 X-10.9857 Y1.7239
G1 Z-0.0094 F30.
G1 Z-0.0688
G1 X-10.9856 Y1.7242 Z-0.0715 F6.1
G1 X-10.9854 Y1.7251 Z-0.0742
G1 X-10.9851 Y1.7266 Z-0.0765
G1 X-10.9846 Y1.7285 Z-0.0785
G1 X-10.9841 Y1.7308 Z-0.08
G1 X-10.9835 Y1.7334 Z-0.0809
G1 X-10.9829 Y1.7361 Z-0.0813
G1 X-10.9802 Y1.7483
G3 X-10.9818 Y1.7577 I-0.0122 J0.0027
G3 X-10.9896 Y1.7633 I-0.0106 J-0.0067
G1 X-11.1969 Y1.81
G3 X-11.2617 Y1.7852 I-0.0138 J-0.061
G2 X-11.677 Y1.5406 I-0.4798 J0.3398
G2 X-12.1357 Y1.6887 I-0.0645 J0.5844
G3 X-12.2043 Y1.6988 I-0.0419 J-0.0464
G1 X-13.4837 Y1.094
G3 X-13.5135 Y1.0108 I0.0267 J-0.0565
G3 X-13.459 Y0.9751 I0.0565 J0.0267
G1 X-7.1566 Y0.7721
G3 X-7.0921 Y0.8325 I0.002 J0.0625
G3 X-7.1409 Y0.8955 I-0.0625 J0.002
G1 X-10.9896 Y1.7633
G3 X-11.0045 Y1.7538 I-0.0027 J-0.0122
G1 X-11.0073 Y1.7416
G1 X-11.0079 Y1.7389 Z-0.0809
G1 X-11.0085 Y1.7363 Z-0.08
G1 X-11.009 Y1.734 Z-0.0785
G1 X-11.0094 Y1.7321 Z-0.0765
G1 X-11.0098 Y1.7306 Z-0.0742
G1 X-11.01 Y1.7297 Z-0.0715
G1 Y1.7294 Z-0.0688
G0 Z0.2
G0 X-10.9857 Y1.7239
G1 Z-0.0256 F30.
G1 Z-0.085
G1 X-10.9856 Y1.7242 Z-0.0878 F6.1
G1 X-10.9854 Y1.7251 Z-0.0904
G1 X-10.9851 Y1.7266 Z-0.0928
G1 X-10.9846 Y1.7285 Z-0.0948
G1 X-10.9841 Y1.7308 Z-0.0963
G1 X-10.9835 Y1.7334 Z-0.0972
G1 X-10.9829 Y1.7361 Z-0.0975
G1 X-10.9802 Y1.7483
G3 X-10.9818 Y1.7577 I-0.0122 J0.0027
G3 X-10.9896 Y1.7633 I-0.0106 J-0.0067
G1 X-11.1969 Y1.81
G3 X-11.2617 Y1.7852 I-0.0138 J-0.061
G2 X-11.677 Y1.5406 I-0.4798 J0.3398
G2 X-12.1357 Y1.6887 I-0.0645 J0.5844
G3 X-12.2043 Y1.6988 I-0.0419 J-0.0464
G1 X-13.4837 Y1.094
G3 X-13.5135 Y1.0108 I0.0267 J-0.0565
G3 X-13.459 Y0.9751 I0.0565 J0.0267
G1 X-7.1566 Y0.7721
G3 X-7.0921 Y0.8325 I0.002 J0.0625
G3 X-7.1409 Y0.8955 I-0.0625 J0.002
G1 X-10.9896 Y1.7633
G3 X-11.0045 Y1.7538 I-0.0027 J-0.0122
G1 X-11.0073 Y1.7416
G1 X-11.0079 Y1.7389 Z-0.0972
G1 X-11.0085 Y1.7363 Z-0.0963
G1 X-11.009 Y1.734 Z-0.0948
G1 X-11.0094 Y1.7321 Z-0.0928
G1 X-11.0098 Y1.7306 Z-0.0904
G1 X-11.01 Y1.7297 Z-0.0878
G1 Y1.7294 Z-0.085
G0 Z0.2
G0 X-10.9857 Y1.7239
G1 Z-0.0419 F30.
G1 Z-0.1013
G1 X-10.9856 Y1.7242 Z-0.104 F6.1
G1 X-10.9854 Y1.7251 Z-0.1067
G1 X-10.9851 Y1.7266 Z-0.109
G1 X-10.9846 Y1.7285 Z-0.111
G1 X-10.9841 Y1.7308 Z-0.1125
G1 X-10.9835 Y1.7334 Z-0.1134
G1 X-10.9829 Y1.7361 Z-0.1138
G1 X-10.9802 Y1.7483
G3 X-10.9818 Y1.7577 I-0.0122 J0.0027
G3 X-10.9896 Y1.7633 I-0.0106 J-0.0067
G1 X-11.1969 Y1.81
G3 X-11.2617 Y1.7852 I-0.0138 J-0.061
G2 X-11.677 Y1.5406 I-0.4798 J0.3398
G2 X-12.1357 Y1.6887 I-0.0645 J0.5844
G3 X-12.2043 Y1.6988 I-0.0419 J-0.0464
G1 X-13.4837 Y1.094
G3 X-13.5135 Y1.0108 I0.0267 J-0.0565
G3 X-13.459 Y0.9751 I0.0565 J0.0267
G1 X-7.1566 Y0.7721
G3 X-7.0921 Y0.8325 I0.002 J0.0625
G3 X-7.1409 Y0.8955 I-0.0625 J0.002
G1 X-10.9896 Y1.7633
G3 X-11.0045 Y1.7538 I-0.0027 J-0.0122
G1 X-11.0073 Y1.7416
G1 X-11.0079 Y1.7389 Z-0.1134
G1 X-11.0085 Y1.7363 Z-0.1125
G1 X-11.009 Y1.734 Z-0.111
G1 X-11.0094 Y1.7321 Z-0.109
G1 X-11.0098 Y1.7306 Z-0.1067
G1 X-11.01 Y1.7297 Z-0.104
G1 Y1.7294 Z-0.1013
G0 Z0.2
G0 X-10.9857 Y1.7239
G1 Z-0.0581 F30.
G1 Z-0.1175
G1 X-10.9856 Y1.7242 Z-0.1203 F6.1
G1 X-10.9854 Y1.7251 Z-0.1229
G1 X-10.9851 Y1.7266 Z-0.1253
G1 X-10.9846 Y1.7285 Z-0.1273
G1 X-10.9841 Y1.7308 Z-0.1288
G1 X-10.9835 Y1.7334 Z-0.1297
G1 X-10.9829 Y1.7361 Z-0.13
G1 X-10.9802 Y1.7483
G3 X-10.9818 Y1.7577 I-0.0122 J0.0027
G3 X-10.9896 Y1.7633 I-0.0106 J-0.0067
G1 X-11.1969 Y1.81
G3 X-11.2617 Y1.7852 I-0.0138 J-0.061
G2 X-11.677 Y1.5406 I-0.4798 J0.3398
G2 X-12.1357 Y1.6887 I-0.0645 J0.5844
G3 X-12.2043 Y1.6988 I-0.0419 J-0.0464
G1 X-13.4837 Y1.094
G3 X-13.5135 Y1.0108 I0.0267 J-0.0565
G3 X-13.459 Y0.9751 I0.0565 J0.0267
G1 X-7.1566 Y0.7721
G3 X-7.0921 Y0.8325 I0.002 J0.0625
G3 X-7.1409 Y0.8955 I-0.0625 J0.002
G1 X-10.9896 Y1.7633
G3 X-11.0045 Y1.7538 I-0.0027 J-0.0122
G1 X-11.0073 Y1.7416
G1 X-11.0079 Y1.7389 Z-0.1297
G1 X-11.0085 Y1.7363 Z-0.1288
G1 X-11.009 Y1.734 Z-0.1273
G1 X-11.0094 Y1.7321 Z-0.1253
G1 X-11.0098 Y1.7306 Z-0.1229
G1 X-11.01 Y1.7297 Z-0.1203
G1 Y1.7294 Z-0.1175
G0 Z0.2
G0 X-10.9857 Y1.7239
G1 Z-0.0744 F30.
G1 Z-0.1338
G1 X-10.9856 Y1.7242 Z-0.1365 F6.1
G1 X-10.9854 Y1.7251 Z-0.1392
G1 X-10.9851 Y1.7266 Z-0.1415
G1 X-10.9846 Y1.7285 Z-0.1435
G1 X-10.9841 Y1.7308 Z-0.145
G1 X-10.9835 Y1.7334 Z-0.1459
G1 X-10.9829 Y1.7361 Z-0.1463
G1 X-10.9802 Y1.7483
G3 X-10.9818 Y1.7577 I-0.0122 J0.0027
G3 X-10.9896 Y1.7633 I-0.0106 J-0.0067
G1 X-11.1969 Y1.81
G3 X-11.2617 Y1.7852 I-0.0138 J-0.061
G2 X-11.677 Y1.5406 I-0.4798 J0.3398
G2 X-12.1357 Y1.6887 I-0.0645 J0.5844
G3 X-12.2043 Y1.6988 I-0.0419 J-0.0464
G1 X-13.4837 Y1.094
G3 X-13.5135 Y1.0108 I0.0267 J-0.0565
G3 X-13.459 Y0.9751 I0.0565 J0.0267
G1 X-7.1566 Y0.7721
G3 X-7.0921 Y0.8325 I0.002 J0.0625
G3 X-7.1409 Y0.8955 I-0.0625 J0.002
G1 X-10.9896 Y1.7633
G3 X-11.0045 Y1.7538 I-0.0027 J-0.0122
G1 X-11.0073 Y1.7416
G1 X-11.0079 Y1.7389 Z-0.1459
G1 X-11.0085 Y1.7363 Z-0.145
G1 X-11.009 Y1.734 Z-0.1435
G1 X-11.0094 Y1.7321 Z-0.1415
G1 X-11.0098 Y1.7306 Z-0.1392
G1 X-11.01 Y1.7297 Z-0.1365
G1 Y1.7294 Z-0.1338
G0 Z0.2
G0 X-10.9857 Y1.7239
G1 Z-0.0906 F30.
G1 Z-0.1438
G1 X-10.9856 Y1.7242 Z-0.1465 F6.1
G1 X-10.9854 Y1.7251 Z-0.1492
G1 X-10.9851 Y1.7266 Z-0.1515
G1 X-10.9846 Y1.7285 Z-0.1535
G1 X-10.9841 Y1.7308 Z-0.155
G1 X-10.9835 Y1.7334 Z-0.1559
G1 X-10.9829 Y1.7361 Z-0.1563
G1 X-10.9802 Y1.7483
G3 X-10.9818 Y1.7577 I-0.0122 J0.0027
G3 X-10.9896 Y1.7633 I-0.0106 J-0.0067
G1 X-11.1969 Y1.81
G3 X-11.2617 Y1.7852 I-0.0138 J-0.061
G2 X-11.677 Y1.5406 I-0.4798 J0.3398
G2 X-12.1357 Y1.6887 I-0.0645 J0.5844
G3 X-12.2043 Y1.6988 I-0.0419 J-0.0464
G1 X-13.4837 Y1.094
G3 X-13.5135 Y1.0108 I0.0267 J-0.0565
G3 X-13.459 Y0.9751 I0.0565 J0.0267
G1 X-7.1566 Y0.7721
G3 X-7.0921 Y0.8325 I0.002 J0.0625
G3 X-7.1409 Y0.8955 I-0.0625 J0.002
G1 X-10.9896 Y1.7633
G3 X-11.0045 Y1.7538 I-0.0027 J-0.0122
G1 X-11.0073 Y1.7416
G1 X-11.0079 Y1.7389 Z-0.1559
G1 X-11.0085 Y1.7363 Z-0.155
G1 X-11.009 Y1.734 Z-0.1535
G1 X-11.0094 Y1.7321 Z-0.1515
G1 X-11.0098 Y1.7306 Z-0.1492
G1 X-11.01 Y1.7297 Z-0.1465
G1 Y1.7294 Z-0.1438
G0 Z0.2
G0 X-2.397 Y1.4579
G1 Z0.0556 F30.
G1 Z-0.0038
G1 X-2.3967 Y1.4577 Z-0.0065 F6.1
G1 X-2.396 Y1.4571 Z-0.0092
G1 X-2.3948 Y1.4562 Z-0.0115
G1 X-2.3932 Y1.4551 Z-0.0135
G1 X-2.3913 Y1.4537 Z-0.015
G1 X-2.3891 Y1.4521 Z-0.0159
G1 X-2.3869 Y1.4505 Z-0.0163
G1 X-2.3768 Y1.4431
G3 X-2.3593 Y1.4459 I0.0074 J0.0101
G2 X-0.8751 Y1.6803 I0.8593 J-0.6249
G2 X-0.6736 Y1.4888 I-0.6249 J-0.8593
G3 X-0.5857 Y1.4795 I0.0486 J0.0393
G3 X-0.5625 Y1.5281 I-0.0393 J0.0486
G1 Y2.375
G3 X-0.625 Y2.4375 I-0.0625 J0
G1 X-11.1409
G3 X-11.2035 Y2.375 I0 J-0.0625
G3 X-11.1987 Y2.351 I0.0625 J0
G2 X-11.1745 Y2.2806 I-0.5427 J-0.2262
G3 X-11.1221 Y2.2351 I0.0603 J0.0165
G1 X-2.5644 Y1.1455
G3 X-2.4978 Y1.1861 I0.0079 J0.062
G2 X-2.3593 Y1.4459 I0.9978 J-0.3651
G3 X-2.3621 Y1.4634 I-0.0101 J0.0074
G1 X-2.3722 Y1.4707
G1 X-2.3744 Y1.4724 Z-0.0159
G1 X-2.3766 Y1.4739 Z-0.015
G1 X-2.3785 Y1.4753 Z-0.0135
G1 X-2.3801 Y1.4765 Z-0.0115
G1 X-2.3813 Y1.4773 Z-0.0092
G1 X-2.382 Y1.4779 Z-0.0065
G1 X-2.3823 Y1.4781 Z-0.0038
G0 Z0.2
G0 X-2.397 Y1.4579
G1 Z0.0394 F30.
G1 Z-0.02
G1 X-2.3967 Y1.4577 Z-0.0228 F6.1
G1 X-2.396 Y1.4571 Z-0.0254
G1 X-2.3948 Y1.4562 Z-0.0278
G1 X-2.3932 Y1.4551 Z-0.0298
G1 X-2.3913 Y1.4537 Z-0.0313
G1 X-2.3891 Y1.4521 Z-0.0322
G1 X-2.3869 Y1.4505 Z-0.0325
G1 X-2.3768 Y1.4431
G3 X-2.3593 Y1.4459 I0.0074 J0.0101
G2 X-0.8751 Y1.6803 I0.8593 J-0.6249
G2 X-0.6736 Y1.4888 I-0.6249 J-0.8593
G3 X-0.5857 Y1.4795 I0.0486 J0.0393
G3 X-0.5625 Y1.5281 I-0.0393 J0.0486
G1 Y2.375
G3 X-0.625 Y2.4375 I-0.0625 J0
G1 X-11.1409
G3 X-11.2035 Y2.375 I0 J-0.0625
G3 X-11.1987 Y2.351 I0.0625 J0
G2 X-11.1745 Y2.2806 I-0.5427 J-0.2262
G3 X-11.1221 Y2.2351 I0.0603 J0.0165
G1 X-2.5644 Y1.1455
G3 X-2.4978 Y1.1861 I0.0079 J0.062
G2 X-2.3593 Y1.4459 I0.9978 J-0.3651
G3 X-2.3621 Y1.4634 I-0.0101 J0.0074
G1 X-2.3722 Y1.4707
G1 X-2.3744 Y1.4724 Z-0.0322
G1 X-2.3766 Y1.4739 Z-0.0313
G1 X-2.3785 Y1.4753 Z-0.0298
G1 X-2.3801 Y1.4765 Z-0.0278
G1 X-2.3813 Y1.4773 Z-0.0254
G1 X-2.382 Y1.4779 Z-0.0228
G1 X-2.3823 Y1.4781 Z-0.02
G0 Z0.2
G0 X-2.397 Y1.4579
G1 Z0.0231 F30.
G1 Z-0.0363
G1 X-2.3967 Y1.4577 Z-0.039 F6.1
G1 X-2.396 Y1.4571 Z-0.0417
G1 X-2.3948 Y1.4562 Z-0.044
G1 X-2.3932 Y1.4551 Z-0.046
G1 X-2.3913 Y1.4537 Z-0.0475
G1 X-2.3891 Y1.4521 Z-0.0484
G1 X-2.3869 Y1.4505 Z-0.0488
G1 X-2.3768 Y1.4431
G3 X-2.3593 Y1.4459 I0.0074 J0.0101
G2 X-0.8751 Y1.6803 I0.8593 J-0.6249
G2 X-0.6736 Y1.4888 I-0.6249 J-0.8593
G3 X-0.5857 Y1.4795 I0.0486 J0.0393
G3 X-0.5625 Y1.5281 I-0.0393 J0.0486
G1 Y2.375
G3 X-0.625 Y2.4375 I-0.0625 J0
G1 X-11.1409
G3 X-11.2035 Y2.375 I0 J-0.0625
G3 X-11.1987 Y2.351 I0.0625 J0
G2 X-11.1745 Y2.2806 I-0.5427 J-0.2262
G3 X-11.1221 Y2.2351 I0.0603 J0.0165
G1 X-2.5644 Y1.1455
G3 X-2.4978 Y1.1861 I0.0079 J0.062
G2 X-2.3593 Y1.4459 I0.9978 J-0.3651
G3 X-2.3621 Y1.4634 I-0.0101 J0.0074
G1 X-2.3722 Y1.4707
G1 X-2.3744 Y1.4724 Z-0.0484
G1 X-2.3766 Y1.4739 Z-0.0475
G1 X-2.3785 Y1.4753 Z-0.046
G1 X-2.3801 Y1.4765 Z-0.044
G1 X-2.3813 Y1.4773 Z-0.0417
G1 X-2.382 Y1.4779 Z-0.039
G1 X-2.3823 Y1.4781 Z-0.0363
G0 Z0.2
G0 X-2.397 Y1.4579
G1 Z0.0069 F30.
G1 Z-0.0525
G1 X-2.3967 Y1.4577 Z-0.0553 F6.1
G1 X-2.396 Y1.4571 Z-0.0579
G1 X-2.3948 Y1.4562 Z-0.0603
G1 X-2.3932 Y1.4551 Z-0.0623
G1 X-2.3913 Y1.4537 Z-0.0638
G1 X-2.3891 Y1.4521 Z-0.0647
G1 X-2.3869 Y1.4505 Z-0.065
G1 X-2.3768 Y1.4431
G3 X-2.3593 Y1.4459 I0.0074 J0.0101
G2 X-0.8751 Y1.6803 I0.8593 J-0.6249
G2 X-0.6736 Y1.4888 I-0.6249 J-0.8593
G3 X-0.5857 Y1.4795 I0.0486 J0.0393
G3 X-0.5625 Y1.5281 I-0.0393 J0.0486
G1 Y2.375
G3 X-0.625 Y2.4375 I-0.0625 J0
G1 X-11.1409
G3 X-11.2035 Y2.375 I0 J-0.0625
G3 X-11.1987 Y2.351 I0.0625 J0
G2 X-11.1745 Y2.2806 I-0.5427 J-0.2262
G3 X-11.1221 Y2.2351 I0.0603 J0.0165
G1 X-2.5644 Y1.1455
G3 X-2.4978 Y1.1861 I0.0079 J0.062
G2 X-2.3593 Y1.4459 I0.9978 J-0.3651
G3 X-2.3621 Y1.4634 I-0.0101 J0.0074
G1 X-2.3722 Y1.4707
G1 X-2.3744 Y1.4724 Z-0.0647
G1 X-2.3766 Y1.4739 Z-0.0638
G1 X-2.3785 Y1.4753 Z-0.0623
G1 X-2.3801 Y1.4765 Z-0.0603
G1 X-2.3813 Y1.4773 Z-0.0579
G1 X-2.382 Y1.4779 Z-0.0553
G1 X-2.3823 Y1.4781 Z-0.0525
G0 Z0.2
G0 X-2.397 Y1.4579
G1 Z-0.0094 F30.
G1 Z-0.0688
G1 X-2.3967 Y1.4577 Z-0.0715 F6.1
G1 X-2.396 Y1.4571 Z-0.0742
G1 X-2.3948 Y1.4562 Z-0.0765
G1 X-2.3932 Y1.4551 Z-0.0785
G1 X-2.3913 Y1.4537 Z-0.08
G1 X-2.3891 Y1.4521 Z-0.0809
G1 X-2.3869 Y1.4505 Z-0.0813
G1 X-2.3768 Y1.4431
G3 X-2.3593 Y1.4459 I0.0074 J0.0101
G2 X-0.8751 Y1.6803 I0.8593 J-0.6249
G2 X-0.6736 Y1.4888 I-0.6249 J-0.8593
G3 X-0.5857 Y1.4795 I0.0486 J0.0393
G3 X-0.5625 Y1.5281 I-0.0393 J0.0486
G1 Y2.375
G3 X-0.625 Y2.4375 I-0.0625 J0
G1 X-11.1409
G3 X-11.2035 Y2.375 I0 J-0.0625
G3 X-11.1987 Y2.351 I0.0625 J0
G2 X-11.1745 Y2.2806 I-0.5427 J-0.2262
G3 X-11.1221 Y2.2351 I0.0603 J0.0165
G1 X-2.5644 Y1.1455
G3 X-2.4978 Y1.1861 I0.0079 J0.062
G2 X-2.3593 Y1.4459 I0.9978 J-0.3651
G3 X-2.3621 Y1.4634 I-0.0101 J0.0074
G1 X-2.3722 Y1.4707
G1 X-2.3744 Y1.4724 Z-0.0809
G1 X-2.3766 Y1.4739 Z-0.08
G1 X-2.3785 Y1.4753 Z-0.0785
G1 X-2.3801 Y1.4765 Z-0.0765
G1 X-2.3813 Y1.4773 Z-0.0742
G1 X-2.382 Y1.4779 Z-0.0715
G1 X-2.3823 Y1.4781 Z-0.0688
G0 Z0.2
G0 X-2.397 Y1.4579
G1 Z-0.0256 F30.
G1 Z-0.085
G1 X-2.3967 Y1.4577 Z-0.0878 F6.1
G1 X-2.396 Y1.4571 Z-0.0904
G1 X-2.3948 Y1.4562 Z-0.0928
G1 X-2.3932 Y1.4551 Z-0.0948
G1 X-2.3913 Y1.4537 Z-0.0963
G1 X-2.3891 Y1.4521 Z-0.0972
G1 X-2.3869 Y1.4505 Z-0.0975
G1 X-2.3768 Y1.4431
G3 X-2.3593 Y1.4459 I0.0074 J0.0101
G2 X-0.8751 Y1.6803 I0.8593 J-0.6249
G2 X-0.6736 Y1.4888 I-0.6249 J-0.8593
G3 X-0.5857 Y1.4795 I0.0486 J0.0393
G3 X-0.5625 Y1.5281 I-0.0393 J0.0486
G1 Y2.375
G3 X-0.625 Y2.4375 I-0.0625 J0
G1 X-11.1409
G3 X-11.2035 Y2.375 I0 J-0.0625
G3 X-11.1987 Y2.351 I0.0625 J0
G2 X-11.1745 Y2.2806 I-0.5427 J-0.2262
G3 X-11.1221 Y2.2351 I0.0603 J0.0165
G1 X-2.5644 Y1.1455
G3 X-2.4978 Y1.1861 I0.0079 J0.062
G2 X-2.3593 Y1.4459 I0.9978 J-0.3651
G3 X-2.3621 Y1.4634 I-0.0101 J0.0074
G1 X-2.3722 Y1.4707
G1 X-2.3744 Y1.4724 Z-0.0972
G1 X-2.3766 Y1.4739 Z-0.0963
G1 X-2.3785 Y1.4753 Z-0.0948
G1 X-2.3801 Y1.4765 Z-0.0928
G1 X-2.3813 Y1.4773 Z-0.0904
G1 X-2.382 Y1.4779 Z-0.0878
G1 X-2.3823 Y1.4781 Z-0.085
G0 Z0.2
G0 X-2.397 Y1.4579
G1 Z-0.0419 F30.
G1 Z-0.1013
G1 X-2.3967 Y1.4577 Z-0.104 F6.1
G1 X-2.396 Y1.4571 Z-0.1067
G1 X-2.3948 Y1.4562 Z-0.109
G1 X-2.3932 Y1.4551 Z-0.111
G1 X-2.3913 Y1.4537 Z-0.1125
G1 X-2.3891 Y1.4521 Z-0.1134
G1 X-2.3869 Y1.4505 Z-0.1138
G1 X-2.3768 Y1.4431
G3 X-2.3593 Y1.4459 I0.0074 J0.0101
G2 X-0.8751 Y1.6803 I0.8593 J-0.6249
G2 X-0.6736 Y1.4888 I-0.6249 J-0.8593
G3 X-0.5857 Y1.4795 I0.0486 J0.0393
G3 X-0.5625 Y1.5281 I-0.0393 J0.0486
G1 Y2.375
G3 X-0.625 Y2.4375 I-0.0625 J0
G1 X-11.1409
G3 X-11.2035 Y2.375 I0 J-0.0625
G3 X-11.1987 Y2.351 I0.0625 J0
G2 X-11.1745 Y2.2806 I-0.5427 J-0.2262
G3 X-11.1221 Y2.2351 I0.0603 J0.0165
G1 X-2.5644 Y1.1455
G3 X-2.4978 Y1.1861 I0.0079 J0.062
G2 X-2.3593 Y1.4459 I0.9978 J-0.3651
G3 X-2.3621 Y1.4634 I-0.0101 J0.0074
G1 X-2.3722 Y1.4707
G1 X-2.3744 Y1.4724 Z-0.1134
G1 X-2.3766 Y1.4739 Z-0.1125
G1 X-2.3785 Y1.4753 Z-0.111
G1 X-2.3801 Y1.4765 Z-0.109
G1 X-2.3813 Y1.4773 Z-0.1067
G1 X-2.382 Y1.4779 Z-0.104
G1 X-2.3823 Y1.4781 Z-0.1013
G0 Z0.2
G0 X-2.397 Y1.4579
G1 Z-0.0581 F30.
G1 Z-0.1175
G1 X-2.3967 Y1.4577 Z-0.1203 F6.1
G1 X-2.396 Y1.4571 Z-0.1229
G1 X-2.3948 Y1.4562 Z-0.1253
G1 X-2.3932 Y1.4551 Z-0.1273
G1 X-2.3913 Y1.4537 Z-0.1288
G1 X-2.3891 Y1.4521 Z-0.1297
G1 X-2.3869 Y1.4505 Z-0.13
G1 X-2.3768 Y1.4431
G3 X-2.3593 Y1.4459 I0.0074 J0.0101
G2 X-0.8751 Y1.6803 I0.8593 J-0.6249
G2 X-0.6736 Y1.4888 I-0.6249 J-0.8593
G3 X-0.5857 Y1.4795 I0.0486 J0.0393
G3 X-0.5625 Y1.5281 I-0.0393 J0.0486
G1 Y2.375
G3 X-0.625 Y2.4375 I-0.0625 J0
G1 X-11.1409
G3 X-11.2035 Y2.375 I0 J-0.0625
G3 X-11.1987 Y2.351 I0.0625 J0
G2 X-11.1745 Y2.2806 I-0.5427 J-0.2262
G3 X-11.1221 Y2.2351 I0.0603 J0.0165
G1 X-2.5644 Y1.1455
G3 X-2.4978 Y1.1861 I0.0079 J0.062
G2 X-2.3593 Y1.4459 I0.9978 J-0.3651
G3 X-2.3621 Y1.4634 I-0.0101 J0.0074
G1 X-2.3722 Y1.4707
G1 X-2.3744 Y1.4724 Z-0.1297
G1 X-2.3766 Y1.4739 Z-0.1288
G1 X-2.3785 Y1.4753 Z-0.1273
G1 X-2.3801 Y1.4765 Z-0.1253
G1 X-2.3813 Y1.4773 Z-0.1229
G1 X-2.382 Y1.4779 Z-0.1203
G1 X-2.3823 Y1.4781 Z-0.1175
G0 Z0.2
G0 X-2.397 Y1.4579
G1 Z-0.0744 F30.
G1 Z-0.1338
G1 X-2.3967 Y1.4577 Z-0.1365 F6.1
G1 X-2.396 Y1.4571 Z-0.1392
G1 X-2.3948 Y1.4562 Z-0.1415
G1 X-2.3932 Y1.4551 Z-0.1435
G1 X-2.3913 Y1.4537 Z-0.145
G1 X-2.3891 Y1.4521 Z-0.1459
G1 X-2.3869 Y1.4505 Z-0.1463
G1 X-2.3768 Y1.4431
G3 X-2.3593 Y1.4459 I0.0074 J0.0101
G2 X-0.8751 Y1.6803 I0.8593 J-0.6249
G2 X-0.6736 Y1.4888 I-0.6249 J-0.8593
G3 X-0.5857 Y1.4795 I0.0486 J0.0393
G3 X-0.5625 Y1.5281 I-0.0393 J0.0486
G1 Y2.375
G3 X-0.625 Y2.4375 I-0.0625 J0
G1 X-11.1409
G3 X-11.2035 Y2.375 I0 J-0.0625
G3 X-11.1987 Y2.351 I0.0625 J0
G2 X-11.1745 Y2.2806 I-0.5427 J-0.2262
G3 X-11.1221 Y2.2351 I0.0603 J0.0165
G1 X-2.5644 Y1.1455
G3 X-2.4978 Y1.1861 I0.0079 J0.062
G2 X-2.3593 Y1.4459 I0.9978 J-0.3651
G3 X-2.3621 Y1.4634 I-0.0101 J0.0074
G1 X-2.3722 Y1.4707
G1 X-2.3744 Y1.4724 Z-0.1459
G1 X-2.3766 Y1.4739 Z-0.145
G1 X-2.3785 Y1.4753 Z-0.1435
G1 X-2.3801 Y1.4765 Z-0.1415
G1 X-2.3813 Y1.4773 Z-0.1392
G1 X-2.382 Y1.4779 Z-0.1365
G1 X-2.3823 Y1.4781 Z-0.1338
G0 Z0.2
G0 X-2.397 Y1.4579
G1 Z-0.0906 F30.
G1 Z-0.1438
G1 X-2.3967 Y1.4577 Z-0.1465 F6.1
G1 X-2.396 Y1.4571 Z-0.1492
G1 X-2.3948 Y1.4562 Z-0.1515
G1 X-2.3932 Y1.4551 Z-0.1535
G1 X-2.3913 Y1.4537 Z-0.155
G1 X-2.3891 Y1.4521 Z-0.1559
G1 X-2.3869 Y1.4505 Z-0.1563
G1 X-2.3768 Y1.4431
G3 X-2.3593 Y1.4459 I0.0074 J0.0101
G2 X-0.8751 Y1.6803 I0.8593 J-0.6249
G2 X-0.6736 Y1.4888 I-0.6249 J-0.8593
G3 X-0.5857 Y1.4795 I0.0486 J0.0393
G3 X-0.5625 Y1.5281 I-0.0393 J0.0486
G1 Y2.375
G3 X-0.625 Y2.4375 I-0.0625 J0
G1 X-11.1409
G3 X-11.2035 Y2.375 I0 J-0.0625
G3 X-11.1987 Y2.351 I0.0625 J0
G2 X-11.1745 Y2.2806 I-0.5427 J-0.2262
G3 X-11.1221 Y2.2351 I0.0603 J0.0165
G1 X-2.5644 Y1.1455
G3 X-2.4978 Y1.1861 I0.0079 J0.062
G2 X-2.3593 Y1.4459 I0.9978 J-0.3651
G3 X-2.3621 Y1.4634 I-0.0101 J0.0074
G1 X-2.3722 Y1.4707
G1 X-2.3744 Y1.4724 Z-0.1559
G1 X-2.3766 Y1.4739 Z-0.155
G1 X-2.3785 Y1.4753 Z-0.1535
G1 X-2.3801 Y1.4765 Z-0.1515
G1 X-2.3813 Y1.4773 Z-0.1492
G1 X-2.382 Y1.4779 Z-0.1465
G1 X-2.3823 Y1.4781 Z-0.1438
G0 Z0.2
G0 X-1.029 Y0.8085
G1 Z0.0556 F30.
G1 Z-0.0038
G1 X-1.0287 Z-0.0065 F6.1
G1 X-1.0278 Z-0.0092
G1 X-1.0263 Z-0.0115
G1 X-1.0243 Z-0.0135
G1 X-1.0219 Z-0.015
G1 X-1.0193 Z-0.0159
G1 X-1.0165 Z-0.0163
G1 X-1.004
G3 X-0.9915 Y0.821 I0 J0.0125
G3 X-1.5 Y1.3295 I-0.5085 J0
G3 X-2.0085 Y0.821 I0 J-0.5085
G3 X-1.5 Y0.3125 I0.5085 J0
G3 X-0.9915 Y0.821 I0 J0.5085
G3 X-1.004 Y0.8335 I-0.0125 J0
G1 X-1.0165
G1 X-1.0193 Z-0.0159
G1 X-1.0219 Z-0.015
G1 X-1.0243 Z-0.0135
G1 X-1.0263 Z-0.0115
G1 X-1.0278 Z-0.0092
G1 X-1.0287 Z-0.0065
G1 X-1.029 Z-0.0038
G0 Z0.2
G0 Y0.8085
G1 Z0.0394 F30.
G1 Z-0.02
G1 X-1.0287 Z-0.0228 F6.1
G1 X-1.0278 Z-0.0254
G1 X-1.0263 Z-0.0278
G1 X-1.0243 Z-0.0298
G1 X-1.0219 Z-0.0313
G1 X-1.0193 Z-0.0322
G1 X-1.0165 Z-0.0325
G1 X-1.004
G3 X-0.9915 Y0.821 I0 J0.0125
G3 X-1.5 Y1.3295 I-0.5085 J0
G3 X-2.0085 Y0.821 I0 J-0.5085
G3 X-1.5 Y0.3125 I0.5085 J0
G3 X-0.9915 Y0.821 I0 J0.5085
G3 X-1.004 Y0.8335 I-0.0125 J0
G1 X-1.0165
G1 X-1.0193 Z-0.0322
G1 X-1.0219 Z-0.0313
G1 X-1.0243 Z-0.0298
G1 X-1.0263 Z-0.0278
G1 X-1.0278 Z-0.0254
G1 X-1.0287 Z-0.0228
G1 X-1.029 Z-0.02
G0 Z0.2
G0 Y0.8085
G1 Z0.0231 F30.
G1 Z-0.0363
G1 X-1.0287 Z-0.039 F6.1
G1 X-1.0278 Z-0.0417
G1 X-1.0263 Z-0.044
G1 X-1.0243 Z-0.046
G1 X-1.0219 Z-0.0475
G1 X-1.0193 Z-0.0484
G1 X-1.0165 Z-0.0488
G1 X-1.004
G3 X-0.9915 Y0.821 I0 J0.0125
G3 X-1.5 Y1.3295 I-0.5085 J0
G3 X-2.0085 Y0.821 I0 J-0.5085
G3 X-1.5 Y0.3125 I0.5085 J0
G3 X-0.9915 Y0.821 I0 J0.5085
G3 X-1.004 Y0.8335 I-0.0125 J0
G1 X-1.0165
G1 X-1.0193 Z-0.0484
G1 X-1.0219 Z-0.0475
G1 X-1.0243 Z-0.046
G1 X-1.0263 Z-0.044
G1 X-1.0278 Z-0.0417
G1 X-1.0287 Z-0.039
G1 X-1.029 Z-0.0363
G0 Z0.2
G0 Y0.8085
G1 Z0.0069 F30.
G1 Z-0.0525
G1 X-1.0287 Z-0.0553 F6.1
G1 X-1.0278 Z-0.0579
G1 X-1.0263 Z-0.0603
G1 X-1.0243 Z-0.0623
G1 X-1.0219 Z-0.0638
G1 X-1.0193 Z-0.0647
G1 X-1.0165 Z-0.065
G1 X-1.004
G3 X-0.9915 Y0.821 I0 J0.0125
G3 X-1.5 Y1.3295 I-0.5085 J0
G3 X-2.0085 Y0.821 I0 J-0.5085
G3 X-1.5 Y0.3125 I0.5085 J0
G3 X-0.9915 Y0.821 I0 J0.5085
G3 X-1.004 Y0.8335 I-0.0125 J0
G1 X-1.0165
G1 X-1.0193 Z-0.0647
G1 X-1.0219 Z-0.0638
G1 X-1.0243 Z-0.0623
G1 X-1.0263 Z-0.0603
G1 X-1.0278 Z-0.0579
G1 X-1.0287 Z-0.0553
G1 X-1.029 Z-0.0525
G0 Z0.2
G0 Y0.8085
G1 Z-0.0094 F30.
G1 Z-0.0688
G1 X-1.0287 Z-0.0715 F6.1
G1 X-1.0278 Z-0.0742
G1 X-1.0263 Z-0.0765
G1 X-1.0243 Z-0.0785
G1 X-1.0219 Z-0.08
G1 X-1.0193 Z-0.0809
G1 X-1.0165 Z-0.0813
G1 X-1.004
G3 X-0.9915 Y0.821 I0 J0.0125
G3 X-1.5 Y1.3295 I-0.5085 J0
G3 X-2.0085 Y0.821 I0 J-0.5085
G3 X-1.5 Y0.3125 I0.5085 J0
G3 X-0.9915 Y0.821 I0 J0.5085
G3 X-1.004 Y0.8335 I-0.0125 J0
G1 X-1.0165
G1 X-1.0193 Z-0.0809
G1 X-1.0219 Z-0.08
G1 X-1.0243 Z-0.0785
G1 X-1.0263 Z-0.0765
G1 X-1.0278 Z-0.0742
G1 X-1.0287 Z-0.0715
G1 X-1.029 Z-0.0688
G0 Z0.2
G0 Y0.8085
G1 Z-0.0256 F30.
G1 Z-0.085
G1 X-1.0287 Z-0.0878 F6.1
G1 X-1.0278 Z-0.0904
G1 X-1.0263 Z-0.0928
G1 X-1.0243 Z-0.0948
G1 X-1.0219 Z-0.0963
G1 X-1.0193 Z-0.0972
G1 X-1.0165 Z-0.0975
G1 X-1.004
G3 X-0.9915 Y0.821 I0 J0.0125
G3 X-1.5 Y1.3295 I-0.5085 J0
G3 X-2.0085 Y0.821 I0 J-0.5085
G3 X-1.5 Y0.3125 I0.5085 J0
G3 X-0.9915 Y0.821 I0 J0.5085
G3 X-1.004 Y0.8335 I-0.0125 J0
G1 X-1.0165
G1 X-1.0193 Z-0.0972
G1 X-1.0219 Z-0.0963
G1 X-1.0243 Z-0.0948
G1 X-1.0263 Z-0.0928
G1 X-1.0278 Z-0.0904
G1 X-1.0287 Z-0.0878
G1 X-1.029 Z-0.085
G0 Z0.2
G0 Y0.8085
G1 Z-0.0419 F30.
G1 Z-0.1013
G1 X-1.0287 Z-0.104 F6.1
G1 X-1.0278 Z-0.1067
G1 X-1.0263 Z-0.109
G1 X-1.0243 Z-0.111
G1 X-1.0219 Z-0.1125
G1 X-1.0193 Z-0.1134
G1 X-1.0165 Z-0.1138
G1 X-1.004
G3 X-0.9915 Y0.821 I0 J0.0125
G3 X-1.5 Y1.3295 I-0.5085 J0
G3 X-2.0085 Y0.821 I0 J-0.5085
G3 X-1.5 Y0.3125 I0.5085 J0
G3 X-0.9915 Y0.821 I0 J0.5085
G3 X-1.004 Y0.8335 I-0.0125 J0
G1 X-1.0165
G1 X-1.0193 Z-0.1134
G1 X-1.0219 Z-0.1125
G1 X-1.0243 Z-0.111
G1 X-1.0263 Z-0.109
G1 X-1.0278 Z-0.1067
G1 X-1.0287 Z-0.104
G1 X-1.029 Z-0.1013
G0 Z0.2
G0 Y0.8085
G1 Z-0.0581 F30.
G1 Z-0.1175
G1 X-1.0287 Z-0.1203 F6.1
G1 X-1.0278 Z-0.1229
G1 X-1.0263 Z-0.1253
G1 X-1.0243 Z-0.1273
G1 X-1.0219 Z-0.1288
G1 X-1.0193 Z-0.1297
G1 X-1.0165 Z-0.13
G1 X-1.004
G3 X-0.9915 Y0.821 I0 J0.0125
G3 X-1.5 Y1.3295 I-0.5085 J0
G3 X-2.0085 Y0.821 I0 J-0.5085
G3 X-1.5 Y0.3125 I0.5085 J0
G3 X-0.9915 Y0.821 I0 J0.5085
G3 X-1.004 Y0.8335 I-0.0125 J0
G1 X-1.0165
G1 X-1.0193 Z-0.1297
G1 X-1.0219 Z-0.1288
G1 X-1.0243 Z-0.1273
G1 X-1.0263 Z-0.1253
G1 X-1.0278 Z-0.1229
G1 X-1.0287 Z-0.1203
G1 X-1.029 Z-0.1175
G0 Z0.2
G0 Y0.8085
G1 Z-0.0744 F30.
G1 Z-0.1338
G1 X-1.0287 Z-0.1365 F6.1
G1 X-1.0278 Z-0.1392
G1 X-1.0263 Z-0.1415
G1 X-1.0243 Z-0.1435
G1 X-1.0219 Z-0.145
G1 X-1.0193 Z-0.1459
G1 X-1.0165 Z-0.1463
G1 X-1.004
G3 X-0.9915 Y0.821 I0 J0.0125
G3 X-1.5 Y1.3295 I-0.5085 J0
G3 X-2.0085 Y0.821 I0 J-0.5085
G3 X-1.5 Y0.3125 I0.5085 J0
G3 X-0.9915 Y0.821 I0 J0.5085
G3 X-1.004 Y0.8335 I-0.0125 J0
G1 X-1.0165
G1 X-1.0193 Z-0.1459
G1 X-1.0219 Z-0.145
G1 X-1.0243 Z-0.1435
G1 X-1.0263 Z-0.1415
G1 X-1.0278 Z-0.1392
G1 X-1.0287 Z-0.1365
G1 X-1.029 Z-0.1338
G0 Z0.2
G0 Y0.8085
G1 Z-0.0906 F30.
G1 Z-0.1438
G1 X-1.0287 Z-0.1465 F6.1
G1 X-1.0278 Z-0.1492
G1 X-1.0263 Z-0.1515
G1 X-1.0243 Z-0.1535
G1 X-1.0219 Z-0.155
G1 X-1.0193 Z-0.1559
G1 X-1.0165 Z-0.1563
G1 X-1.004
G3 X-0.9915 Y0.821 I0 J0.0125
G3 X-1.5 Y1.3295 I-0.5085 J0
G3 X-2.0085 Y0.821 I0 J-0.5085
G3 X-1.5 Y0.3125 I0.5085 J0
G3 X-0.9915 Y0.821 I0 J0.5085
G3 X-1.004 Y0.8335 I-0.0125 J0
G1 X-1.0165
G1 X-1.0193 Z-0.1559
G1 X-1.0219 Z-0.155
G1 X-1.0243 Z-0.1535
G1 X-1.0263 Z-0.1515
G1 X-1.0278 Z-0.1492
G1 X-1.0287 Z-0.1465
G1 X-1.029 Z-0.1438
G0 Z0.2
G0 X-3.9255 Y0.903
G1 Z0.0556 F30.
G1 Z-0.0038
G1 Y0.9033 Z-0.0065 F6.1
G1 X-3.9254 Y0.9042 Z-0.0092
G1 X-3.9252 Y0.9057 Z-0.0115
G1 X-3.9249 Y0.9077 Z-0.0135
G1 X-3.9246 Y0.91 Z-0.015
G1 X-3.9243 Y0.9127 Z-0.0159
G1 X-3.9239 Y0.9154 Z-0.0163
G1 X-3.9224 Y0.9278
G3 X-3.9249 Y0.937 I-0.0124 J0.0016
G3 X-3.9332 Y0.9418 I-0.0099 J-0.0077
G1 X-4.0049 Y0.9509
G3 X-4.0748 Y0.8968 I-0.0079 J-0.062
G3 X-4.0629 Y0.8516 I0.062 J-0.0079
G2 X-4.0182 Y0.7819 I-0.4712 J-0.3517
G3 X-3.9568 Y0.7496 I0.0549 J0.0299
G1 X-3.6529 Y0.7818
G3 X-3.5973 Y0.8505 I-0.0066 J0.0622
G3 X-3.6516 Y0.9059 I-0.0622 J-0.0066
G1 X-3.9332 Y0.9418
G3 X-3.9472 Y0.931 I-0.0016 J-0.0124
G1 X-3.9487 Y0.9186
G1 X-3.9491 Y0.9158 Z-0.0159
G1 X-3.9494 Y0.9132 Z-0.015
G1 X-3.9497 Y0.9108 Z-0.0135
G1 X-3.95 Y0.9089 Z-0.0115
G1 X-3.9502 Y0.9074 Z-0.0092
G1 X-3.9503 Y0.9065 Z-0.0065
G1 Y0.9062 Z-0.0038
G0 Z0.2
G0 X-3.9255 Y0.903
G1 Z0.0394 F30.
G1 Z-0.02
G1 Y0.9033 Z-0.0228 F6.1
G1 X-3.9254 Y0.9042 Z-0.0254
G1 X-3.9252 Y0.9057 Z-0.0278
G1 X-3.9249 Y0.9077 Z-0.0298
G1 X-3.9246 Y0.91 Z-0.0313
G1 X-3.9243 Y0.9127 Z-0.0322
G1 X-3.9239 Y0.9154 Z-0.0325
G1 X-3.9224 Y0.9278
G3 X-3.9249 Y0.937 I-0.0124 J0.0016
G3 X-3.9332 Y0.9418 I-0.0099 J-0.0077
G1 X-4.0049 Y0.9509
G3 X-4.0748 Y0.8968 I-0.0079 J-0.062
G3 X-4.0629 Y0.8516 I0.062 J-0.0079
G2 X-4.0182 Y0.7819 I-0.4712 J-0.3517
G3 X-3.9568 Y0.7496 I0.0549 J0.0299
G1 X-3.6529 Y0.7818
G3 X-3.5973 Y0.8505 I-0.0066 J0.0622
G3 X-3.6516 Y0.9059 I-0.0622 J-0.0066
G1 X-3.9332 Y0.9418
G3 X-3.9472 Y0.931 I-0.0016 J-0.0124
G1 X-3.9487 Y0.9186
G1 X-3.9491 Y0.9158 Z-0.0322
G1 X-3.9494 Y0.9132 Z-0.0313
G1 X-3.9497 Y0.9108 Z-0.0298
G1 X-3.95 Y0.9089 Z-0.0278
G1 X-3.9502 Y0.9074 Z-0.0254
G1 X-3.9503 Y0.9065 Z-0.0228
G1 Y0.9062 Z-0.02
G0 Z0.2
G0 X-3.9255 Y0.903
G1 Z0.0231 F30.
G1 Z-0.0363
G1 Y0.9033 Z-0.039 F6.1
G1 X-3.9254 Y0.9042 Z-0.0417
G1 X-3.9252 Y0.9057 Z-0.044
G1 X-3.9249 Y0.9077 Z-0.046
G1 X-3.9246 Y0.91 Z-0.0475
G1 X-3.9243 Y0.9127 Z-0.0484
G1 X-3.9239 Y0.9154 Z-0.0488
G1 X-3.9224 Y0.9278
G3 X-3.9249 Y0.937 I-0.0124 J0.0016
G3 X-3.9332 Y0.9418 I-0.0099 J-0.0077
G1 X-4.0049 Y0.9509
G3 X-4.0748 Y0.8968 I-0.0079 J-0.062
G3 X-4.0629 Y0.8516 I0.062 J-0.0079
G2 X-4.0182 Y0.7819 I-0.4712 J-0.3517
G3 X-3.9568 Y0.7496 I0.0549 J0.0299
G1 X-3.6529 Y0.7818
G3 X-3.5973 Y0.8505 I-0.0066 J0.0622
G3 X-3.6516 Y0.9059 I-0.0622 J-0.0066
G1 X-3.9332 Y0.9418
G3 X-3.9472 Y0.931 I-0.0016 J-0.0124
G1 X-3.9487 Y0.9186
G1 X-3.9491 Y0.9158 Z-0.0484
G1 X-3.9494 Y0.9132 Z-0.0475
G1 X-3.9497 Y0.9108 Z-0.046
G1 X-3.95 Y0.9089 Z-0.044
G1 X-3.9502 Y0.9074 Z-0.0417
G1 X-3.9503 Y0.9065 Z-0.039
G1 Y0.9062 Z-0.0363
G0 Z0.2
G0 X-3.9255 Y0.903
G1 Z0.0069 F30.
G1 Z-0.0525
G1 Y0.9033 Z-0.0553 F6.1
G1 X-3.9254 Y0.9042 Z-0.0579
G1 X-3.9252 Y0.9057 Z-0.0603
G1 X-3.9249 Y0.9077 Z-0.0623
G1 X-3.9246 Y0.91 Z-0.0638
G1 X-3.9243 Y0.9127 Z-0.0647
G1 X-3.9239 Y0.9154 Z-0.065
G1 X-3.9224 Y0.9278
G3 X-3.9249 Y0.937 I-0.0124 J0.0016
G3 X-3.9332 Y0.9418 I-0.0099 J-0.0077
G1 X-4.0049 Y0.9509
G3 X-4.0748 Y0.8968 I-0.0079 J-0.062
G3 X-4.0629 Y0.8516 I0.062 J-0.0079
G2 X-4.0182 Y0.7819 I-0.4712 J-0.3517
G3 X-3.9568 Y0.7496 I0.0549 J0.0299
G1 X-3.6529 Y0.7818
G3 X-3.5973 Y0.8505 I-0.0066 J0.0622
G3 X-3.6516 Y0.9059 I-0.0622 J-0.0066
G1 X-3.9332 Y0.9418
G3 X-3.9472 Y0.931 I-0.0016 J-0.0124
G1 X-3.9487 Y0.9186
G1 X-3.9491 Y0.9158 Z-0.0647
G1 X-3.9494 Y0.9132 Z-0.0638
G1 X-3.9497 Y0.9108 Z-0.0623
G1 X-3.95 Y0.9089 Z-0.0603
G1 X-3.9502 Y0.9074 Z-0.0579
G1 X-3.9503 Y0.9065 Z-0.0553
G1 Y0.9062 Z-0.0525
G0 Z0.2
G0 X-3.9255 Y0.903
G1 Z-0.0094 F30.
G1 Z-0.0688
G1 Y0.9033 Z-0.0715 F6.1
G1 X-3.9254 Y0.9042 Z-0.0742
G1 X-3.9252 Y0.9057 Z-0.0765
G1 X-3.9249 Y0.9077 Z-0.0785
G1 X-3.9246 Y0.91 Z-0.08
G1 X-3.9243 Y0.9127 Z-0.0809
G1 X-3.9239 Y0.9154 Z-0.0813
G1 X-3.9224 Y0.9278
G3 X-3.9249 Y0.937 I-0.0124 J0.0016
G3 X-3.9332 Y0.9418 I-0.0099 J-0.0077
G1 X-4.0049 Y0.9509
G3 X-4.0748 Y0.8968 I-0.0079 J-0.062
G3 X-4.0629 Y0.8516 I0.062 J-0.0079
G2 X-4.0182 Y0.7819 I-0.4712 J-0.3517
G3 X-3.9568 Y0.7496 I0.0549 J0.0299
G1 X-3.6529 Y0.7818
G3 X-3.5973 Y0.8505 I-0.0066 J0.0622
G3 X-3.6516 Y0.9059 I-0.0622 J-0.0066
G1 X-3.9332 Y0.9418
G3 X-3.9472 Y0.931 I-0.0016 J-0.0124
G1 X-3.9487 Y0.9186
G1 X-3.9491 Y0.9158 Z-0.0809
G1 X-3.9494 Y0.9132 Z-0.08
G1 X-3.9497 Y0.9108 Z-0.0785
G1 X-3.95 Y0.9089 Z-0.0765
G1 X-3.9502 Y0.9074 Z-0.0742
G1 X-3.9503 Y0.9065 Z-0.0715
G1 Y0.9062 Z-0.0688
G0 Z0.2
G0 X-3.9255 Y0.903
G1 Z-0.0256 F30.
G1 Z-0.085
G1 Y0.9033 Z-0.0878 F6.1
G1 X-3.9254 Y0.9042 Z-0.0904
G1 X-3.9252 Y0.9057 Z-0.0928
G1 X-3.9249 Y0.9077 Z-0.0948
G1 X-3.9246 Y0.91 Z-0.0963
G1 X-3.9243 Y0.9127 Z-0.0972
G1 X-3.9239 Y0.9154 Z-0.0975
G1 X-3.9224 Y0.9278
G3 X-3.9249 Y0.937 I-0.0124 J0.0016
G3 X-3.9332 Y0.9418 I-0.0099 J-0.0077
G1 X-4.0049 Y0.9509
G3 X-4.0748 Y0.8968 I-0.0079 J-0.062
G3 X-4.0629 Y0.8516 I0.062 J-0.0079
G2 X-4.0182 Y0.7819 I-0.4712 J-0.3517
G3 X-3.9568 Y0.7496 I0.0549 J0.0299
G1 X-3.6529 Y0.7818
G3 X-3.5973 Y0.8505 I-0.0066 J0.0622
G3 X-3.6516 Y0.9059 I-0.0622 J-0.0066
G1 X-3.9332 Y0.9418
G3 X-3.9472 Y0.931 I-0.0016 J-0.0124
G1 X-3.9487 Y0.9186
G1 X-3.9491 Y0.9158 Z-0.0972
G1 X-3.9494 Y0.9132 Z-0.0963
G1 X-3.9497 Y0.9108 Z-0.0948
G1 X-3.95 Y0.9089 Z-0.0928
G1 X-3.9502 Y0.9074 Z-0.0904
G1 X-3.9503 Y0.9065 Z-0.0878
G1 Y0.9062 Z-0.085
G0 Z0.2
G0 X-3.9255 Y0.903
G1 Z-0.0419 F30.
G1 Z-0.1013
G1 Y0.9033 Z-0.104 F6.1
G1 X-3.9254 Y0.9042 Z-0.1067
G1 X-3.9252 Y0.9057 Z-0.109
G1 X-3.9249 Y0.9077 Z-0.111
G1 X-3.9246 Y0.91 Z-0.1125
G1 X-3.9243 Y0.9127 Z-0.1134
G1 X-3.9239 Y0.9154 Z-0.1138
G1 X-3.9224 Y0.9278
G3 X-3.9249 Y0.937 I-0.0124 J0.0016
G3 X-3.9332 Y0.9418 I-0.0099 J-0.0077
G1 X-4.0049 Y0.9509
G3 X-4.0748 Y0.8968 I-0.0079 J-0.062
G3 X-4.0629 Y0.8516 I0.062 J-0.0079
G2 X-4.0182 Y0.7819 I-0.4712 J-0.3517
G3 X-3.9568 Y0.7496 I0.0549 J0.0299
G1 X-3.6529 Y0.7818
G3 X-3.5973 Y0.8505 I-0.0066 J0.0622
G3 X-3.6516 Y0.9059 I-0.0622 J-0.0066
G1 X-3.9332 Y0.9418
G3 X-3.9472 Y0.931 I-0.0016 J-0.0124
G1 X-3.9487 Y0.9186
G1 X-3.9491 Y0.9158 Z-0.1134
G1 X-3.9494 Y0.9132 Z-0.1125
G1 X-3.9497 Y0.9108 Z-0.111
G1 X-3.95 Y0.9089 Z-0.109
G1 X-3.9502 Y0.9074 Z-0.1067
G1 X-3.9503 Y0.9065 Z-0.104
G1 Y0.9062 Z-0.1013
G0 Z0.2
G0 X-3.9255 Y0.903
G1 Z-0.0581 F30.
G1 Z-0.1175
G1 Y0.9033 Z-0.1203 F6.1
G1 X-3.9254 Y0.9042 Z-0.1229
G1 X-3.9252 Y0.9057 Z-0.1253
G1 X-3.9249 Y0.9077 Z-0.1273
G1 X-3.9246 Y0.91 Z-0.1288
G1 X-3.9243 Y0.9127 Z-0.1297
G1 X-3.9239 Y0.9154 Z-0.13
G1 X-3.9224 Y0.9278
G3 X-3.9249 Y0.937 I-0.0124 J0.0016
G3 X-3.9332 Y0.9418 I-0.0099 J-0.0077
G1 X-4.0049 Y0.9509
G3 X-4.0748 Y0.8968 I-0.0079 J-0.062
G3 X-4.0629 Y0.8516 I0.062 J-0.0079
G2 X-4.0182 Y0.7819 I-0.4712 J-0.3517
G3 X-3.9568 Y0.7496 I0.0549 J0.0299
G1 X-3.6529 Y0.7818
G3 X-3.5973 Y0.8505 I-0.0066 J0.0622
G3 X-3.6516 Y0.9059 I-0.0622 J-0.0066
G1 X-3.9332 Y0.9418
G3 X-3.9472 Y0.931 I-0.0016 J-0.0124
G1 X-3.9487 Y0.9186
G1 X-3.9491 Y0.9158 Z-0.1297
G1 X-3.9494 Y0.9132 Z-0.1288
G1 X-3.9497 Y0.9108 Z-0.1273
G1 X-3.95 Y0.9089 Z-0.1253
G1 X-3.9502 Y0.9074 Z-0.1229
G1 X-3.9503 Y0.9065 Z-0.1203
G1 Y0.9062 Z-0.1175
G0 Z0.2
G0 X-3.9255 Y0.903
G1 Z-0.0744 F30.
G1 Z-0.1338
G1 Y0.9033 Z-0.1365 F6.1
G1 X-3.9254 Y0.9042 Z-0.1392
G1 X-3.9252 Y0.9057 Z-0.1415
G1 X-3.9249 Y0.9077 Z-0.1435
G1 X-3.9246 Y0.91 Z-0.145
G1 X-3.9243 Y0.9127 Z-0.1459
G1 X-3.9239 Y0.9154 Z-0.1463
G1 X-3.9224 Y0.9278
G3 X-3.9249 Y0.937 I-0.0124 J0.0016
G3 X-3.9332 Y0.9418 I-0.0099 J-0.0077
G1 X-4.0049 Y0.9509
G3 X-4.0748 Y0.8968 I-0.0079 J-0.062
G3 X-4.0629 Y0.8516 I0.062 J-0.0079
G2 X-4.0182 Y0.7819 I-0.4712 J-0.3517
G3 X-3.9568 Y0.7496 I0.0549 J0.0299
G1 X-3.6529 Y0.7818
G3 X-3.5973 Y0.8505 I-0.0066 J0.0622
G3 X-3.6516 Y0.9059 I-0.0622 J-0.0066
G1 X-3.9332 Y0.9418
G3 X-3.9472 Y0.931 I-0.0016 J-0.0124
G1 X-3.9487 Y0.9186
G1 X-3.9491 Y0.9158 Z-0.1459
G1 X-3.9494 Y0.9132 Z-0.145
G1 X-3.9497 Y0.9108 Z-0.1435
G1 X-3.95 Y0.9089 Z-0.1415
G1 X-3.9502 Y0.9074 Z-0.1392
G1 X-3.9503 Y0.9065 Z-0.1365
G1 Y0.9062 Z-0.1338
G0 Z0.2
G0 X-3.9255 Y0.903
G1 Z-0.0906 F30.
G1 Z-0.1438
G1 Y0.9033 Z-0.1465 F6.1
G1 X-3.9254 Y0.9042 Z-0.1492
G1 X-3.9252 Y0.9057 Z-0.1515
G1 X-3.9249 Y0.9077 Z-0.1535
G1 X-3.9246 Y0.91 Z-0.155
G1 X-3.9243 Y0.9127 Z-0.1559
G1 X-3.9239 Y0.9154 Z-0.1563
G1 X-3.9224 Y0.9278
G3 X-3.9249 Y0.937 I-0.0124 J0.0016
G3 X-3.9332 Y0.9418 I-0.0099 J-0.0077
G1 X-4.0049 Y0.9509
G3 X-4.0748 Y0.8968 I-0.0079 J-0.062
G3 X-4.0629 Y0.8516 I0.062 J-0.0079
G2 X-4.0182 Y0.7819 I-0.4712 J-0.3517
G3 X-3.9568 Y0.7496 I0.0549 J0.0299
G1 X-3.6529 Y0.7818
G3 X-3.5973 Y0.8505 I-0.0066 J0.0622
G3 X-3.6516 Y0.9059 I-0.0622 J-0.0066
G1 X-3.9332 Y0.9418
G3 X-3.9472 Y0.931 I-0.0016 J-0.0124
G1 X-3.9487 Y0.9186
G1 X-3.9491 Y0.9158 Z-0.1559
G1 X-3.9494 Y0.9132 Z-0.155
G1 X-3.9497 Y0.9108 Z-0.1535
G1 X-3.95 Y0.9089 Z-0.1515
G1 X-3.9502 Y0.9074 Z-0.1492
G1 X-3.9503 Y0.9065 Z-0.1465
G1 Y0.9062 Z-0.1438
G0 Z0.2
G0 X-4.3588 Y0.4875
G1 Z0.0556 F30.
G1 Z-0.0038
G1 X-4.3584 Z-0.0065 F6.1
G1 X-4.3575 Z-0.0092
G1 X-4.356 Z-0.0115
G1 X-4.354 Z-0.0135
G1 X-4.3517 Z-0.015
G1 X-4.349 Z-0.0159
G1 X-4.3463 Z-0.0163
G1 X-4.3338
G3 X-4.3213 Y0.5 I0 J0.0125
G3 X-4.5343 Y0.713 I-0.213 J0
G3 X-4.7473 Y0.5 I0 J-0.213
G3 X-4.5343 Y0.287 I0.213 J0
G3 X-4.3213 Y0.5 I0 J0.213
G3 X-4.3338 Y0.5125 I-0.0125 J0
G1 X-4.3463
G1 X-4.349 Z-0.0159
G1 X-4.3517 Z-0.015
G1 X-4.354 Z-0.0135
G1 X-4.356 Z-0.0115
G1 X-4.3575 Z-0.0092
G1 X-4.3584 Z-0.0065
G1 X-4.3588 Z-0.0038
G0 Z0.2
G0 Y0.4875
G1 Z0.0394 F30.
G1 Z-0.02
G1 X-4.3584 Z-0.0228 F6.1
G1 X-4.3575 Z-0.0254
G1 X-4.356 Z-0.0278
G1 X-4.354 Z-0.0298
G1 X-4.3517 Z-0.0313
G1 X-4.349 Z-0.0322
G1 X-4.3463 Z-0.0325
G1 X-4.3338
G3 X-4.3213 Y0.5 I0 J0.0125
G3 X-4.5343 Y0.713 I-0.213 J0
G3 X-4.7473 Y0.5 I0 J-0.213
G3 X-4.5343 Y0.287 I0.213 J0
G3 X-4.3213 Y0.5 I0 J0.213
G3 X-4.3338 Y0.5125 I-0.0125 J0
G1 X-4.3463
G1 X-4.349 Z-0.0322
G1 X-4.3517 Z-0.0313
G1 X-4.354 Z-0.0298
G1 X-4.356 Z-0.0278
G1 X-4.3575 Z-0.0254
G1 X-4.3584 Z-0.0228
G1 X-4.3588 Z-0.02
G0 Z0.2
G0 Y0.4875
G1 Z0.0231 F30.
G1 Z-0.0363
G1 X-4.3584 Z-0.039 F6.1
G1 X-4.3575 Z-0.0417
G1 X-4.356 Z-0.044
G1 X-4.354 Z-0.046
G1 X-4.3517 Z-0.0475
G1 X-4.349 Z-0.0484
G1 X-4.3463 Z-0.0488
G1 X-4.3338
G3 X-4.3213 Y0.5 I0 J0.0125
G3 X-4.5343 Y0.713 I-0.213 J0
G3 X-4.7473 Y0.5 I0 J-0.213
G3 X-4.5343 Y0.287 I0.213 J0
G3 X-4.3213 Y0.5 I0 J0.213
G3 X-4.3338 Y0.5125 I-0.0125 J0
G1 X-4.3463
G1 X-4.349 Z-0.0484
G1 X-4.3517 Z-0.0475
G1 X-4.354 Z-0.046
G1 X-4.356 Z-0.044
G1 X-4.3575 Z-0.0417
G1 X-4.3584 Z-0.039
G1 X-4.3588 Z-0.0363
G0 Z0.2
G0 Y0.4875
G1 Z0.0069 F30.
G1 Z-0.0525
G1 X-4.3584 Z-0.0553 F6.1
G1 X-4.3575 Z-0.0579
G1 X-4.356 Z-0.0603
G1 X-4.354 Z-0.0623
G1 X-4.3517 Z-0.0638
G1 X-4.349 Z-0.0647
G1 X-4.3463 Z-0.065
G1 X-4.3338
G3 X-4.3213 Y0.5 I0 J0.0125
G3 X-4.5343 Y0.713 I-0.213 J0
G3 X-4.7473 Y0.5 I0 J-0.213
G3 X-4.5343 Y0.287 I0.213 J0
G3 X-4.3213 Y0.5 I0 J0.213
G3 X-4.3338 Y0.5125 I-0.0125 J0
G1 X-4.3463
G1 X-4.349 Z-0.0647
G1 X-4.3517 Z-0.0638
G1 X-4.354 Z-0.0623
G1 X-4.356 Z-0.0603
G1 X-4.3575 Z-0.0579
G1 X-4.3584 Z-0.0553
G1 X-4.3588 Z-0.0525
G0 Z0.2
G0 Y0.4875
G1 Z-0.0094 F30.
G1 Z-0.0688
G1 X-4.3584 Z-0.0715 F6.1
G1 X-4.3575 Z-0.0742
G1 X-4.356 Z-0.0765
G1 X-4.354 Z-0.0785
G1 X-4.3517 Z-0.08
G1 X-4.349 Z-0.0809
G1 X-4.3463 Z-0.0813
G1 X-4.3338
G3 X-4.3213 Y0.5 I0 J0.0125
G3 X-4.5343 Y0.713 I-0.213 J0
G3 X-4.7473 Y0.5 I0 J-0.213
G3 X-4.5343 Y0.287 I0.213 J0
G3 X-4.3213 Y0.5 I0 J0.213
G3 X-4.3338 Y0.5125 I-0.0125 J0
G1 X-4.3463
G1 X-4.349 Z-0.0809
G1 X-4.3517 Z-0.08
G1 X-4.354 Z-0.0785
G1 X-4.356 Z-0.0765
G1 X-4.3575 Z-0.0742
G1 X-4.3584 Z-0.0715
G1 X-4.3588 Z-0.0688
G0 Z0.2
G0 Y0.4875
G1 Z-0.0256 F30.
G1 Z-0.085
G1 X-4.3584 Z-0.0878 F6.1
G1 X-4.3575 Z-0.0904
G1 X-4.356 Z-0.0928
G1 X-4.354 Z-0.0948
G1 X-4.3517 Z-0.0963
G1 X-4.349 Z-0.0972
G1 X-4.3463 Z-0.0975
G1 X-4.3338
G3 X-4.3213 Y0.5 I0 J0.0125
G3 X-4.5343 Y0.713 I-0.213 J0
G3 X-4.7473 Y0.5 I0 J-0.213
G3 X-4.5343 Y0.287 I0.213 J0
G3 X-4.3213 Y0.5 I0 J0.213
G3 X-4.3338 Y0.5125 I-0.0125 J0
G1 X-4.3463
G1 X-4.349 Z-0.0972
G1 X-4.3517 Z-0.0963
G1 X-4.354 Z-0.0948
G1 X-4.356 Z-0.0928
G1 X-4.3575 Z-0.0904
G1 X-4.3584 Z-0.0878
G1 X-4.3588 Z-0.085
G0 Z0.2
G0 Y0.4875
G1 Z-0.0419 F30.
G1 Z-0.1013
G1 X-4.3584 Z-0.104 F6.1
G1 X-4.3575 Z-0.1067
G1 X-4.356 Z-0.109
G1 X-4.354 Z-0.111
G1 X-4.3517 Z-0.1125
G1 X-4.349 Z-0.1134
G1 X-4.3463 Z-0.1138
G1 X-4.3338
G3 X-4.3213 Y0.5 I0 J0.0125
G3 X-4.5343 Y0.713 I-0.213 J0
G3 X-4.7473 Y0.5 I0 J-0.213
G3 X-4.5343 Y0.287 I0.213 J0
G3 X-4.3213 Y0.5 I0 J0.213
G3 X-4.3338 Y0.5125 I-0.0125 J0
G1 X-4.3463
G1 X-4.349 Z-0.1134
G1 X-4.3517 Z-0.1125
G1 X-4.354 Z-0.111
G1 X-4.356 Z-0.109
G1 X-4.3575 Z-0.1067
G1 X-4.3584 Z-0.104
G1 X-4.3588 Z-0.1013
G0 Z0.2
G0 Y0.4875
G1 Z-0.0581 F30.
G1 Z-0.1175
G1 X-4.3584 Z-0.1203 F6.1
G1 X-4.3575 Z-0.1229
G1 X-4.356 Z-0.1253
G1 X-4.354 Z-0.1273
G1 X-4.3517 Z-0.1288
G1 X-4.349 Z-0.1297
G1 X-4.3463 Z-0.13
G1 X-4.3338
G3 X-4.3213 Y0.5 I0 J0.0125
G3 X-4.5343 Y0.713 I-0.213 J0
G3 X-4.7473 Y0.5 I0 J-0.213
G3 X-4.5343 Y0.287 I0.213 J0
G3 X-4.3213 Y0.5 I0 J0.213
G3 X-4.3338 Y0.5125 I-0.0125 J0
G1 X-4.3463
G1 X-4.349 Z-0.1297
G1 X-4.3517 Z-0.1288
G1 X-4.354 Z-0.1273
G1 X-4.356 Z-0.1253
G1 X-4.3575 Z-0.1229
G1 X-4.3584 Z-0.1203
G1 X-4.3588 Z-0.1175
G0 Z0.2
G0 Y0.4875
G1 Z-0.0744 F30.
G1 Z-0.1338
G1 X-4.3584 Z-0.1365 F6.1
G1 X-4.3575 Z-0.1392
G1 X-4.356 Z-0.1415
G1 X-4.354 Z-0.1435
G1 X-4.3517 Z-0.145
G1 X-4.349 Z-0.1459
G1 X-4.3463 Z-0.1463
G1 X-4.3338
G3 X-4.3213 Y0.5 I0 J0.0125
G3 X-4.5343 Y0.713 I-0.213 J0
G3 X-4.7473 Y0.5 I0 J-0.213
G3 X-4.5343 Y0.287 I0.213 J0
G3 X-4.3213 Y0.5 I0 J0.213
G3 X-4.3338 Y0.5125 I-0.0125 J0
G1 X-4.3463
G1 X-4.349 Z-0.1459
G1 X-4.3517 Z-0.145
G1 X-4.354 Z-0.1435
G1 X-4.356 Z-0.1415
G1 X-4.3575 Z-0.1392
G1 X-4.3584 Z-0.1365
G1 X-4.3588 Z-0.1338
G0 Z0.2
G0 Y0.4875
G1 Z-0.0906 F30.
G1 Z-0.1438
G1 X-4.3584 Z-0.1465 F6.1
G1 X-4.3575 Z-0.1492
G1 X-4.356 Z-0.1515
G1 X-4.354 Z-0.1535
G1 X-4.3517 Z-0.155
G1 X-4.349 Z-0.1559
G1 X-4.3463 Z-0.1563
G1 X-4.3338
G3 X-4.3213 Y0.5 I0 J0.0125
G3 X-4.5343 Y0.713 I-0.213 J0
G3 X-4.7473 Y0.5 I0 J-0.213
G3 X-4.5343 Y0.287 I0.213 J0
G3 X-4.3213 Y0.5 I0 J0.213
G3 X-4.3338 Y0.5125 I-0.0125 J0
G1 X-4.3463
G1 X-4.349 Z-0.1559
G1 X-4.3517 Z-0.155
G1 X-4.354 Z-0.1535
G1 X-4.356 Z-0.1515
G1 X-4.3575 Z-0.1492
G1 X-4.3584 Z-0.1465
G1 X-4.3588 Z-0.1438
G0 Z0.2
G0 X-5.0694 Y1.0487
G1 Z0.0556 F30.
G1 Z-0.0038
G1 Y1.049 Z-0.0065 F6.1
G1 X-5.0693 Y1.0499 Z-0.0092
G1 X-5.0691 Y1.0514 Z-0.0115
G1 X-5.0688 Y1.0533 Z-0.0135
G1 X-5.0685 Y1.0557 Z-0.015
G1 X-5.0682 Y1.0583 Z-0.0159
G1 X-5.0678 Y1.0611 Z-0.0163
G1 X-5.0663 Y1.0735
G3 X-5.0688 Y1.0827 I-0.0124 J0.0016
G3 X-5.0771 Y1.0874 I-0.0099 J-0.0077
G1 X-6.5545 Y1.2755
G3 X-6.6244 Y1.2214 I-0.0079 J-0.062
G3 X-6.5761 Y1.1526 I0.062 J-0.0079
G1 X-5.0789 Y0.815
G3 X-5.0141 Y0.8398 I0.0138 J0.061
G2 X-4.9024 Y0.9584 I0.4799 J-0.3398
G3 X-4.8928 Y1.0463 I-0.0391 J0.0487
G3 X-4.9337 Y1.0692 I-0.0487 J-0.0391
G1 X-5.0771 Y1.0874
G3 X-5.0911 Y1.0766 I-0.0016 J-0.0124
G1 X-5.0926 Y1.0642
G1 X-5.093 Y1.0615 Z-0.0159
G1 X-5.0933 Y1.0588 Z-0.015
G1 X-5.0936 Y1.0565 Z-0.0135
G1 X-5.0939 Y1.0545 Z-0.0115
G1 X-5.0941 Y1.053 Z-0.0092
G1 X-5.0942 Y1.0521 Z-0.0065
G1 Y1.0518 Z-0.0038
G0 Z0.2
G0 X-5.0694 Y1.0487
G1 Z0.0394 F30.
G1 Z-0.02
G1 Y1.049 Z-0.0228 F6.1
G1 X-5.0693 Y1.0499 Z-0.0254
G1 X-5.0691 Y1.0514 Z-0.0278
G1 X-5.0688 Y1.0533 Z-0.0298
G1 X-5.0685 Y1.0557 Z-0.0313
G1 X-5.0682 Y1.0583 Z-0.0322
G1 X-5.0678 Y1.0611 Z-0.0325
G1 X-5.0663 Y1.0735
G3 X-5.0688 Y1.0827 I-0.0124 J0.0016
G3 X-5.0771 Y1.0874 I-0.0099 J-0.0077
G1 X-6.5545 Y1.2755
G3 X-6.6244 Y1.2214 I-0.0079 J-0.062
G3 X-6.5761 Y1.1526 I0.062 J-0.0079
G1 X-5.0789 Y0.815
G3 X-5.0141 Y0.8398 I0.0138 J0.061
G2 X-4.9024 Y0.9584 I0.4799 J-0.3398
G3 X-4.8928 Y1.0463 I-0.0391 J0.0487
G3 X-4.9337 Y1.0692 I-0.0487 J-0.0391
G1 X-5.0771 Y1.0874
G3 X-5.0911 Y1.0766 I-0.0016 J-0.0124
G1 X-5.0926 Y1.0642
G1 X-5.093 Y1.0615 Z-0.0322
G1 X-5.0933 Y1.0588 Z-0.0313
G1 X-5.0936 Y1.0565 Z-0.0298
G1 X-5.0939 Y1.0545 Z-0.0278
G1 X-5.0941 Y1.053 Z-0.0254
G1 X-5.0942 Y1.0521 Z-0.0228
G1 Y1.0518 Z-0.02
G0 Z0.2
G0 X-5.0694 Y1.0487
G1 Z0.0231 F30.
G1 Z-0.0363
G1 Y1.049 Z-0.039 F6.1
G1 X-5.0693 Y1.0499 Z-0.0417
G1 X-5.0691 Y1.0514 Z-0.044
G1 X-5.0688 Y1.0533 Z-0.046
G1 X-5.0685 Y1.0557 Z-0.0475
G1 X-5.0682 Y1.0583 Z-0.0484
G1 X-5.0678 Y1.0611 Z-0.0488
G1 X-5.0663 Y1.0735
G3 X-5.0688 Y1.0827 I-0.0124 J0.0016
G3 X-5.0771 Y1.0874 I-0.0099 J-0.0077
G1 X-6.5545 Y1.2755
G3 X-6.6244 Y1.2214 I-0.0079 J-0.062
G3 X-6.5761 Y1.1526 I0.062 J-0.0079
G1 X-5.0789 Y0.815
G3 X-5.0141 Y0.8398 I0.0138 J0.061
G2 X-4.9024 Y0.9584 I0.4799 J-0.3398
G3 X-4.8928 Y1.0463 I-0.0391 J0.0487
G3 X-4.9337 Y1.0692 I-0.0487 J-0.0391
G1 X-5.0771 Y1.0874
G3 X-5.0911 Y1.0766 I-0.0016 J-0.0124
G1 X-5.0926 Y1.0642
G1 X-5.093 Y1.0615 Z-0.0484
G1 X-5.0933 Y1.0588 Z-0.0475
G1 X-5.0936 Y1.0565 Z-0.046
G1 X-5.0939 Y1.0545 Z-0.044
G1 X-5.0941 Y1.053 Z-0.0417
G1 X-5.0942 Y1.0521 Z-0.039
G1 Y1.0518 Z-0.0363
G0 Z0.2
G0 X-5.0694 Y1.0487
G1 Z0.0069 F30.
G1 Z-0.0525
G1 Y1.049 Z-0.0553 F6.1
G1 X-5.0693 Y1.0499 Z-0.0579
G1 X-5.0691 Y1.0514 Z-0.0603
G1 X-5.0688 Y1.0533 Z-0.0623
G1 X-5.0685 Y1.0557 Z-0.0638
G1 X-5.0682 Y1.0583 Z-0.0647
G1 X-5.0678 Y1.0611 Z-0.065
G1 X-5.0663 Y1.0735
G3 X-5.0688 Y1.0827 I-0.0124 J0.0016
G3 X-5.0771 Y1.0874 I-0.0099 J-0.0077
G1 X-6.5545 Y1.2755
G3 X-6.6244 Y1.2214 I-0.0079 J-0.062
G3 X-6.5761 Y1.1526 I0.062 J-0.0079
G1 X-5.0789 Y0.815
G3 X-5.0141 Y0.8398 I0.0138 J0.061
G2 X-4.9024 Y0.9584 I0.4799 J-0.3398
G3 X-4.8928 Y1.0463 I-0.0391 J0.0487
G3 X-4.9337 Y1.0692 I-0.0487 J-0.0391
G1 X-5.0771 Y1.0874
G3 X-5.0911 Y1.0766 I-0.0016 J-0.0124
G1 X-5.0926 Y1.0642
G1 X-5.093 Y1.0615 Z-0.0647
G1 X-5.0933 Y1.0588 Z-0.0638
G1 X-5.0936 Y1.0565 Z-0.0623
G1 X-5.0939 Y1.0545 Z-0.0603
G1 X-5.0941 Y1.053 Z-0.0579
G1 X-5.0942 Y1.0521 Z-0.0553
G1 Y1.0518 Z-0.0525
G0 Z0.2
G0 X-5.0694 Y1.0487
G1 Z-0.0094 F30.
G1 Z-0.0688
G1 Y1.049 Z-0.0715 F6.1
G1 X-5.0693 Y1.0499 Z-0.0742
G1 X-5.0691 Y1.0514 Z-0.0765
G1 X-5.0688 Y1.0533 Z-0.0785
G1 X-5.0685 Y1.0557 Z-0.08
G1 X-5.0682 Y1.0583 Z-0.0809
G1 X-5.0678 Y1.0611 Z-0.0813
G1 X-5.0663 Y1.0735
G3 X-5.0688 Y1.0827 I-0.0124 J0.0016
G3 X-5.0771 Y1.0874 I-0.0099 J-0.0077
G1 X-6.5545 Y1.2755
G3 X-6.6244 Y1.2214 I-0.0079 J-0.062
G3 X-6.5761 Y1.1526 I0.062 J-0.0079
G1 X-5.0789 Y0.815
G3 X-5.0141 Y0.8398 I0.0138 J0.061
G2 X-4.9024 Y0.9584 I0.4799 J-0.3398
G3 X-4.8928 Y1.0463 I-0.0391 J0.0487
G3 X-4.9337 Y1.0692 I-0.0487 J-0.0391
G1 X-5.0771 Y1.0874
G3 X-5.0911 Y1.0766 I-0.0016 J-0.0124
G1 X-5.0926 Y1.0642
G1 X-5.093 Y1.0615 Z-0.0809
G1 X-5.0933 Y1.0588 Z-0.08
G1 X-5.0936 Y1.0565 Z-0.0785
G1 X-5.0939 Y1.0545 Z-0.0765
G1 X-5.0941 Y1.053 Z-0.0742
G1 X-5.0942 Y1.0521 Z-0.0715
G1 Y1.0518 Z-0.0688
G0 Z0.2
G0 X-5.0694 Y1.0487
G1 Z-0.0256 F30.
G1 Z-0.085
G1 Y1.049 Z-0.0878 F6.1
G1 X-5.0693 Y1.0499 Z-0.0904
G1 X-5.0691 Y1.0514 Z-0.0928
G1 X-5.0688 Y1.0533 Z-0.0948
G1 X-5.0685 Y1.0557 Z-0.0963
G1 X-5.0682 Y1.0583 Z-0.0972
G1 X-5.0678 Y1.0611 Z-0.0975
G1 X-5.0663 Y1.0735
G3 X-5.0688 Y1.0827 I-0.0124 J0.0016
G3 X-5.0771 Y1.0874 I-0.0099 J-0.0077
G1 X-6.5545 Y1.2755
G3 X-6.6244 Y1.2214 I-0.0079 J-0.062
G3 X-6.5761 Y1.1526 I0.062 J-0.0079
G1 X-5.0789 Y0.815
G3 X-5.0141 Y0.8398 I0.0138 J0.061
G2 X-4.9024 Y0.9584 I0.4799 J-0.3398
G3 X-4.8928 Y1.0463 I-0.0391 J0.0487
G3 X-4.9337 Y1.0692 I-0.0487 J-0.0391
G1 X-5.0771 Y1.0874
G3 X-5.0911 Y1.0766 I-0.0016 J-0.0124
G1 X-5.0926 Y1.0642
G1 X-5.093 Y1.0615 Z-0.0972
G1 X-5.0933 Y1.0588 Z-0.0963
G1 X-5.0936 Y1.0565 Z-0.0948
G1 X-5.0939 Y1.0545 Z-0.0928
G1 X-5.0941 Y1.053 Z-0.0904
G1 X-5.0942 Y1.0521 Z-0.0878
G1 Y1.0518 Z-0.085
G0 Z0.2
G0 X-5.0694 Y1.0487
G1 Z-0.0419 F30.
G1 Z-0.1013
G1 Y1.049 Z-0.104 F6.1
G1 X-5.0693 Y1.0499 Z-0.1067
G1 X-5.0691 Y1.0514 Z-0.109
G1 X-5.0688 Y1.0533 Z-0.111
G1 X-5.0685 Y1.0557 Z-0.1125
G1 X-5.0682 Y1.0583 Z-0.1134
G1 X-5.0678 Y1.0611 Z-0.1138
G1 X-5.0663 Y1.0735
G3 X-5.0688 Y1.0827 I-0.0124 J0.0016
G3 X-5.0771 Y1.0874 I-0.0099 J-0.0077
G1 X-6.5545 Y1.2755
G3 X-6.6244 Y1.2214 I-0.0079 J-0.062
G3 X-6.5761 Y1.1526 I0.062 J-0.0079
G1 X-5.0789 Y0.815
G3 X-5.0141 Y0.8398 I0.0138 J0.061
G2 X-4.9024 Y0.9584 I0.4799 J-0.3398
G3 X-4.8928 Y1.0463 I-0.0391 J0.0487
G3 X-4.9337 Y1.0692 I-0.0487 J-0.0391
G1 X-5.0771 Y1.0874
G3 X-5.0911 Y1.0766 I-0.0016 J-0.0124
G1 X-5.0926 Y1.0642
G1 X-5.093 Y1.0615 Z-0.1134
G1 X-5.0933 Y1.0588 Z-0.1125
G1 X-5.0936 Y1.0565 Z-0.111
G1 X-5.0939 Y1.0545 Z-0.109
G1 X-5.0941 Y1.053 Z-0.1067
G1 X-5.0942 Y1.0521 Z-0.104
G1 Y1.0518 Z-0.1013
G0 Z0.2
G0 X-5.0694 Y1.0487
G1 Z-0.0581 F30.
G1 Z-0.1175
G1 Y1.049 Z-0.1203 F6.1
G1 X-5.0693 Y1.0499 Z-0.1229
G1 X-5.0691 Y1.0514 Z-0.1253
G1 X-5.0688 Y1.0533 Z-0.1273
G1 X-5.0685 Y1.0557 Z-0.1288
G1 X-5.0682 Y1.0583 Z-0.1297
G1 X-5.0678 Y1.0611 Z-0.13
G1 X-5.0663 Y1.0735
G3 X-5.0688 Y1.0827 I-0.0124 J0.0016
G3 X-5.0771 Y1.0874 I-0.0099 J-0.0077
G1 X-6.5545 Y1.2755
G3 X-6.6244 Y1.2214 I-0.0079 J-0.062
G3 X-6.5761 Y1.1526 I0.062 J-0.0079
G1 X-5.0789 Y0.815
G3 X-5.0141 Y0.8398 I0.0138 J0.061
G2 X-4.9024 Y0.9584 I0.4799 J-0.3398
G3 X-4.8928 Y1.0463 I-0.0391 J0.0487
G3 X-4.9337 Y1.0692 I-0.0487 J-0.0391
G1 X-5.0771 Y1.0874
G3 X-5.0911 Y1.0766 I-0.0016 J-0.0124
G1 X-5.0926 Y1.0642
G1 X-5.093 Y1.0615 Z-0.1297
G1 X-5.0933 Y1.0588 Z-0.1288
G1 X-5.0936 Y1.0565 Z-0.1273
G1 X-5.0939 Y1.0545 Z-0.1253
G1 X-5.0941 Y1.053 Z-0.1229
G1 X-5.0942 Y1.0521 Z-0.1203
G1 Y1.0518 Z-0.1175
G0 Z0.2
G0 X-5.0694 Y1.0487
G1 Z-0.0744 F30.
G1 Z-0.1338
G1 Y1.049 Z-0.1365 F6.1
G1 X-5.0693 Y1.0499 Z-0.1392
G1 X-5.0691 Y1.0514 Z-0.1415
G1 X-5.0688 Y1.0533 Z-0.1435
G1 X-5.0685 Y1.0557 Z-0.145
G1 X-5.0682 Y1.0583 Z-0.1459
G1 X-5.0678 Y1.0611 Z-0.1463
G1 X-5.0663 Y1.0735
G3 X-5.0688 Y1.0827 I-0.0124 J0.0016
G3 X-5.0771 Y1.0874 I-0.0099 J-0.0077
G1 X-6.5545 Y1.2755
G3 X-6.6244 Y1.2214 I-0.0079 J-0.062
G3 X-6.5761 Y1.1526 I0.062 J-0.0079
G1 X-5.0789 Y0.815
G3 X-5.0141 Y0.8398 I0.0138 J0.061
G2 X-4.9024 Y0.9584 I0.4799 J-0.3398
G3 X-4.8928 Y1.0463 I-0.0391 J0.0487
G3 X-4.9337 Y1.0692 I-0.0487 J-0.0391
G1 X-5.0771 Y1.0874
G3 X-5.0911 Y1.0766 I-0.0016 J-0.0124
G1 X-5.0926 Y1.0642
G1 X-5.093 Y1.0615 Z-0.1459
G1 X-5.0933 Y1.0588 Z-0.145
G1 X-5.0936 Y1.0565 Z-0.1435
G1 X-5.0939 Y1.0545 Z-0.1415
G1 X-5.0941 Y1.053 Z-0.1392
G1 X-5.0942 Y1.0521 Z-0.1365
G1 Y1.0518 Z-0.1338
G0 Z0.2
G0 X-5.0694 Y1.0487
G1 Z-0.0906 F30.
G1 Z-0.1438
G1 Y1.049 Z-0.1465 F6.1
G1 X-5.0693 Y1.0499 Z-0.1492
G1 X-5.0691 Y1.0514 Z-0.1515
G1 X-5.0688 Y1.0533 Z-0.1535
G1 X-5.0685 Y1.0557 Z-0.155
G1 X-5.0682 Y1.0583 Z-0.1559
G1 X-5.0678 Y1.0611 Z-0.1563
G1 X-5.0663 Y1.0735
G3 X-5.0688 Y1.0827 I-0.0124 J0.0016
G3 X-5.0771 Y1.0874 I-0.0099 J-0.0077
G1 X-6.5545 Y1.2755
G3 X-6.6244 Y1.2214 I-0.0079 J-0.062
G3 X-6.5761 Y1.1526 I0.062 J-0.0079
G1 X-5.0789 Y0.815
G3 X-5.0141 Y0.8398 I0.0138 J0.061
G2 X-4.9024 Y0.9584 I0.4799 J-0.3398
G3 X-4.8928 Y1.0463 I-0.0391 J0.0487
G3 X-4.9337 Y1.0692 I-0.0487 J-0.0391
G1 X-5.0771 Y1.0874
G3 X-5.0911 Y1.0766 I-0.0016 J-0.0124
G1 X-5.0926 Y1.0642
G1 X-5.093 Y1.0615 Z-0.1559
G1 X-5.0933 Y1.0588 Z-0.155
G1 X-5.0936 Y1.0565 Z-0.1535
G1 X-5.0939 Y1.0545 Z-0.1515
G1 X-5.0941 Y1.053 Z-0.1492
G1 X-5.0942 Y1.0521 Z-0.1465
G1 Y1.0518 Z-0.1438
G0 Z0.2
G0 X-11.566 Y2.1125
G1 Z0.0556 F30.
G1 Z-0.0038
G1 X-11.5657 Z-0.0065 F6.1
G1 X-11.5648 Z-0.0092
G1 X-11.5633 Z-0.0115
G1 X-11.5613 Z-0.0135
G1 X-11.5589 Z-0.015
G1 X-11.5563 Z-0.0159
G1 X-11.5535 Z-0.0163
G1 X-11.541
G3 X-11.5285 Y2.125 I0 J0.0125
G3 X-11.7415 Y2.338 I-0.213 J0
G3 X-11.9545 Y2.125 I0 J-0.213
G3 X-11.7415 Y1.912 I0.213 J0
G3 X-11.5285 Y2.125 I0 J0.213
G3 X-11.541 Y2.1375 I-0.0125 J0
G1 X-11.5535
G1 X-11.5563 Z-0.0159
G1 X-11.5589 Z-0.015
G1 X-11.5613 Z-0.0135
G1 X-11.5633 Z-0.0115
G1 X-11.5648 Z-0.0092
G1 X-11.5657 Z-0.0065
G1 X-11.566 Z-0.0038
G0 Z0.2
G0 Y2.1125
G1 Z0.0394 F30.
G1 Z-0.02
G1 X-11.5657 Z-0.0228 F6.1
G1 X-11.5648 Z-0.0254
G1 X-11.5633 Z-0.0278
G1 X-11.5613 Z-0.0298
G1 X-11.5589 Z-0.0313
G1 X-11.5563 Z-0.0322
G1 X-11.5535 Z-0.0325
G1 X-11.541
G3 X-11.5285 Y2.125 I0 J0.0125
G3 X-11.7415 Y2.338 I-0.213 J0
G3 X-11.9545 Y2.125 I0 J-0.213
G3 X-11.7415 Y1.912 I0.213 J0
G3 X-11.5285 Y2.125 I0 J0.213
G3 X-11.541 Y2.1375 I-0.0125 J0
G1 X-11.5535
G1 X-11.5563 Z-0.0322
G1 X-11.5589 Z-0.0313
G1 X-11.5613 Z-0.0298
G1 X-11.5633 Z-0.0278
G1 X-11.5648 Z-0.0254
G1 X-11.5657 Z-0.0228
G1 X-11.566 Z-0.02
G0 Z0.2
G0 Y2.1125
G1 Z0.0231 F30.
G1 Z-0.0363
G1 X-11.5657 Z-0.039 F6.1
G1 X-11.5648 Z-0.0417
G1 X-11.5633 Z-0.044
G1 X-11.5613 Z-0.046
G1 X-11.5589 Z-0.0475
G1 X-11.5563 Z-0.0484
G1 X-11.5535 Z-0.0488
G1 X-11.541
G3 X-11.5285 Y2.125 I0 J0.0125
G3 X-11.7415 Y2.338 I-0.213 J0
G3 X-11.9545 Y2.125 I0 J-0.213
G3 X-11.7415 Y1.912 I0.213 J0
G3 X-11.5285 Y2.125 I0 J0.213
G3 X-11.541 Y2.1375 I-0.0125 J0
G1 X-11.5535
G1 X-11.5563 Z-0.0484
G1 X-11.5589 Z-0.0475
G1 X-11.5613 Z-0.046
G1 X-11.5633 Z-0.044
G1 X-11.5648 Z-0.0417
G1 X-11.5657 Z-0.039
G1 X-11.566 Z-0.0363
G0 Z0.2
G0 Y2.1125
G1 Z0.0069 F30.
G1 Z-0.0525
G1 X-11.5657 Z-0.0553 F6.1
G1 X-11.5648 Z-0.0579
G1 X-11.5633 Z-0.0603
G1 X-11.5613 Z-0.0623
G1 X-11.5589 Z-0.0638
G1 X-11.5563 Z-0.0647
G1 X-11.5535 Z-0.065
G1 X-11.541
G3 X-11.5285 Y2.125 I0 J0.0125
G3 X-11.7415 Y2.338 I-0.213 J0
G3 X-11.9545 Y2.125 I0 J-0.213
G3 X-11.7415 Y1.912 I0.213 J0
G3 X-11.5285 Y2.125 I0 J0.213
G3 X-11.541 Y2.1375 I-0.0125 J0
G1 X-11.5535
G1 X-11.5563 Z-0.0647
G1 X-11.5589 Z-0.0638
G1 X-11.5613 Z-0.0623
G1 X-11.5633 Z-0.0603
G1 X-11.5648 Z-0.0579
G1 X-11.5657 Z-0.0553
G1 X-11.566 Z-0.0525
G0 Z0.2
G0 Y2.1125
G1 Z-0.0094 F30.
G1 Z-0.0688
G1 X-11.5657 Z-0.0715 F6.1
G1 X-11.5648 Z-0.0742
G1 X-11.5633 Z-0.0765
G1 X-11.5613 Z-0.0785
G1 X-11.5589 Z-0.08
G1 X-11.5563 Z-0.0809
G1 X-11.5535 Z-0.0813
G1 X-11.541
G3 X-11.5285 Y2.125 I0 J0.0125
G3 X-11.7415 Y2.338 I-0.213 J0
G3 X-11.9545 Y2.125 I0 J-0.213
G3 X-11.7415 Y1.912 I0.213 J0
G3 X-11.5285 Y2.125 I0 J0.213
G3 X-11.541 Y2.1375 I-0.0125 J0
G1 X-11.5535
G1 X-11.5563 Z-0.0809
G1 X-11.5589 Z-0.08
G1 X-11.5613 Z-0.0785
G1 X-11.5633 Z-0.0765
G1 X-11.5648 Z-0.0742
G1 X-11.5657 Z-0.0715
G1 X-11.566 Z-0.0688
G0 Z0.2
G0 Y2.1125
G1 Z-0.0256 F30.
G1 Z-0.085
G1 X-11.5657 Z-0.0878 F6.1
G1 X-11.5648 Z-0.0904
G1 X-11.5633 Z-0.0928
G1 X-11.5613 Z-0.0948
G1 X-11.5589 Z-0.0963
G1 X-11.5563 Z-0.0972
G1 X-11.5535 Z-0.0975
G1 X-11.541
G3 X-11.5285 Y2.125 I0 J0.0125
G3 X-11.7415 Y2.338 I-0.213 J0
G3 X-11.9545 Y2.125 I0 J-0.213
G3 X-11.7415 Y1.912 I0.213 J0
G3 X-11.5285 Y2.125 I0 J0.213
G3 X-11.541 Y2.1375 I-0.0125 J0
G1 X-11.5535
G1 X-11.5563 Z-0.0972
G1 X-11.5589 Z-0.0963
G1 X-11.5613 Z-0.0948
G1 X-11.5633 Z-0.0928
G1 X-11.5648 Z-0.0904
G1 X-11.5657 Z-0.0878
G1 X-11.566 Z-0.085
G0 Z0.2
G0 Y2.1125
G1 Z-0.0419 F30.
G1 Z-0.1013
G1 X-11.5657 Z-0.104 F6.1
G1 X-11.5648 Z-0.1067
G1 X-11.5633 Z-0.109
G1 X-11.5613 Z-0.111
G1 X-11.5589 Z-0.1125
G1 X-11.5563 Z-0.1134
G1 X-11.5535 Z-0.1138
G1 X-11.541
G3 X-11.5285 Y2.125 I0 J0.0125
G3 X-11.7415 Y2.338 I-0.213 J0
G3 X-11.9545 Y2.125 I0 J-0.213
G3 X-11.7415 Y1.912 I0.213 J0
G3 X-11.5285 Y2.125 I0 J0.213
G3 X-11.541 Y2.1375 I-0.0125 J0
G1 X-11.5535
G1 X-11.5563 Z-0.1134
G1 X-11.5589 Z-0.1125
G1 X-11.5613 Z-0.111
G1 X-11.5633 Z-0.109
G1 X-11.5648 Z-0.1067
G1 X-11.5657 Z-0.104
G1 X-11.566 Z-0.1013
G0 Z0.2
G0 Y2.1125
G1 Z-0.0581 F30.
G1 Z-0.1175
G1 X-11.5657 Z-0.1203 F6.1
G1 X-11.5648 Z-0.1229
G1 X-11.5633 Z-0.1253
G1 X-11.5613 Z-0.1273
G1 X-11.5589 Z-0.1288
G1 X-11.5563 Z-0.1297
G1 X-11.5535 Z-0.13
G1 X-11.541
G3 X-11.5285 Y2.125 I0 J0.0125
G3 X-11.7415 Y2.338 I-0.213 J0
G3 X-11.9545 Y2.125 I0 J-0.213
G3 X-11.7415 Y1.912 I0.213 J0
G3 X-11.5285 Y2.125 I0 J0.213
G3 X-11.541 Y2.1375 I-0.0125 J0
G1 X-11.5535
G1 X-11.5563 Z-0.1297
G1 X-11.5589 Z-0.1288
G1 X-11.5613 Z-0.1273
G1 X-11.5633 Z-0.1253
G1 X-11.5648 Z-0.1229
G1 X-11.5657 Z-0.1203
G1 X-11.566 Z-0.1175
G0 Z0.2
G0 Y2.1125
G1 Z-0.0744 F30.
G1 Z-0.1338
G1 X-11.5657 Z-0.1365 F6.1
G1 X-11.5648 Z-0.1392
G1 X-11.5633 Z-0.1415
G1 X-11.5613 Z-0.1435
G1 X-11.5589 Z-0.145
G1 X-11.5563 Z-0.1459
G1 X-11.5535 Z-0.1463
G1 X-11.541
G3 X-11.5285 Y2.125 I0 J0.0125
G3 X-11.7415 Y2.338 I-0.213 J0
G3 X-11.9545 Y2.125 I0 J-0.213
G3 X-11.7415 Y1.912 I0.213 J0
G3 X-11.5285 Y2.125 I0 J0.213
G3 X-11.541 Y2.1375 I-0.0125 J0
G1 X-11.5535
G1 X-11.5563 Z-0.1459
G1 X-11.5589 Z-0.145
G1 X-11.5613 Z-0.1435
G1 X-11.5633 Z-0.1415
G1 X-11.5648 Z-0.1392
G1 X-11.5657 Z-0.1365
G1 X-11.566 Z-0.1338
G0 Z0.2
G0 Y2.1125
G1 Z-0.0906 F30.
G1 Z-0.1438
G1 X-11.5657 Z-0.1465 F6.1
G1 X-11.5648 Z-0.1492
G1 X-11.5633 Z-0.1515
G1 X-11.5613 Z-0.1535
G1 X-11.5589 Z-0.155
G1 X-11.5563 Z-0.1559
G1 X-11.5535 Z-0.1563
G1 X-11.541
G3 X-11.5285 Y2.125 I0 J0.0125
G3 X-11.7415 Y2.338 I-0.213 J0
G3 X-11.9545 Y2.125 I0 J-0.213
G3 X-11.7415 Y1.912 I0.213 J0
G3 X-11.5285 Y2.125 I0 J0.213
G3 X-11.541 Y2.1375 I-0.0125 J0
G1 X-11.5535
G1 X-11.5563 Z-0.1559
G1 X-11.5589 Z-0.155
G1 X-11.5613 Z-0.1535
G1 X-11.5633 Z-0.1515
G1 X-11.5648 Z-0.1492
G1 X-11.5657 Z-0.1465
G1 X-11.566 Z-0.1438
G0 Z0.2
G0 X-13.6034 Y1.4937
G1 Z0.0556 F30.
G1 Z-0.0038
G1 X-13.6032 Y1.4935 Z-0.0065 F6.1
G1 X-13.6028 Y1.4926 Z-0.0092
G1 X-13.6022 Y1.4913 Z-0.0115
G1 X-13.6013 Y1.4895 Z-0.0135
G1 X-13.6003 Y1.4873 Z-0.015
G1 X-13.5992 Y1.485 Z-0.0159
G1 X-13.598 Y1.4824 Z-0.0163
G1 X-13.5927 Y1.4711
G3 X-13.5856 Y1.4647 I0.0113 J0.0053
G3 X-13.576 Y1.4652 I0.0042 J0.0118
G1 X-12.6367 Y1.9092
G3 X-12.6069 Y1.9924 I-0.0267 J0.0565
G3 X-12.6572 Y2.0279 I-0.0565 J-0.0267
G1 X-15.0253 Y2.2642
G3 X-15.0937 Y2.2082 I-0.0062 J-0.0622
G3 X-15.0852 Y2.17 I0.0622 J-0.0062
G1 X-14.8058 Y1.7008
G3 X-14.7354 Y1.6726 I0.0537 J0.032
G2 X-13.8294 Y1.3962 I0.2354 J-0.8516
G3 X-13.7553 Y1.3804 I0.0474 J0.0407
G1 X-13.576 Y1.4652
G3 X-13.5701 Y1.4818 I-0.0053 J0.0113
G1 X-13.5754 Y1.4931
G1 X-13.5766 Y1.4956 Z-0.0159
G1 X-13.5777 Y1.498 Z-0.015
G1 X-13.5787 Y1.5002 Z-0.0135
G1 X-13.5796 Y1.502 Z-0.0115
G1 X-13.5802 Y1.5033 Z-0.0092
G1 X-13.5806 Y1.5041 Z-0.0065
G1 X-13.5808 Y1.5044 Z-0.0038
G0 Z0.2
G0 X-13.6034 Y1.4937
G1 Z0.0394 F30.
G1 Z-0.02
G1 X-13.6032 Y1.4935 Z-0.0228 F6.1
G1 X-13.6028 Y1.4926 Z-0.0254
G1 X-13.6022 Y1.4913 Z-0.0278
G1 X-13.6013 Y1.4895 Z-0.0298
G1 X-13.6003 Y1.4873 Z-0.0313
G1 X-13.5992 Y1.485 Z-0.0322
G1 X-13.598 Y1.4824 Z-0.0325
G1 X-13.5927 Y1.4711
G3 X-13.5856 Y1.4647 I0.0113 J0.0053
G3 X-13.576 Y1.4652 I0.0042 J0.0118
G1 X-12.6367 Y1.9092
G3 X-12.6069 Y1.9924 I-0.0267 J0.0565
G3 X-12.6572 Y2.0279 I-0.0565 J-0.0267
G1 X-15.0253 Y2.2642
G3 X-15.0937 Y2.2082 I-0.0062 J-0.0622
G3 X-15.0852 Y2.17 I0.0622 J-0.0062
G1 X-14.8058 Y1.7008
G3 X-14.7354 Y1.6726 I0.0537 J0.032
G2 X-13.8294 Y1.3962 I0.2354 J-0.8516
G3 X-13.7553 Y1.3804 I0.0474 J0.0407
G1 X-13.576 Y1.4652
G3 X-13.5701 Y1.4818 I-0.0053 J0.0113
G1 X-13.5754 Y1.4931
G1 X-13.5766 Y1.4956 Z-0.0322
G1 X-13.5777 Y1.498 Z-0.0313
G1 X-13.5787 Y1.5002 Z-0.0298
G1 X-13.5796 Y1.502 Z-0.0278
G1 X-13.5802 Y1.5033 Z-0.0254
G1 X-13.5806 Y1.5041 Z-0.0228
G1 X-13.5808 Y1.5044 Z-0.02
G0 Z0.2
G0 X-13.6034 Y1.4937
G1 Z0.0231 F30.
G1 Z-0.0363
G1 X-13.6032 Y1.4935 Z-0.039 F6.1
G1 X-13.6028 Y1.4926 Z-0.0417
G1 X-13.6022 Y1.4913 Z-0.044
G1 X-13.6013 Y1.4895 Z-0.046
G1 X-13.6003 Y1.4873 Z-0.0475
G1 X-13.5992 Y1.485 Z-0.0484
G1 X-13.598 Y1.4824 Z-0.0488
G1 X-13.5927 Y1.4711
G3 X-13.5856 Y1.4647 I0.0113 J0.0053
G3 X-13.576 Y1.4652 I0.0042 J0.0118
G1 X-12.6367 Y1.9092
G3 X-12.6069 Y1.9924 I-0.0267 J0.0565
G3 X-12.6572 Y2.0279 I-0.0565 J-0.0267
G1 X-15.0253 Y2.2642
G3 X-15.0937 Y2.2082 I-0.0062 J-0.0622
G3 X-15.0852 Y2.17 I0.0622 J-0.0062
G1 X-14.8058 Y1.7008
G3 X-14.7354 Y1.6726 I0.0537 J0.032
G2 X-13.8294 Y1.3962 I0.2354 J-0.8516
G3 X-13.7553 Y1.3804 I0.0474 J0.0407
G1 X-13.576 Y1.4652
G3 X-13.5701 Y1.4818 I-0.0053 J0.0113
G1 X-13.5754 Y1.4931
G1 X-13.5766 Y1.4956 Z-0.0484
G1 X-13.5777 Y1.498 Z-0.0475
G1 X-13.5787 Y1.5002 Z-0.046
G1 X-13.5796 Y1.502 Z-0.044
G1 X-13.5802 Y1.5033 Z-0.0417
G1 X-13.5806 Y1.5041 Z-0.039
G1 X-13.5808 Y1.5044 Z-0.0363
G0 Z0.2
G0 X-13.6034 Y1.4937
G1 Z0.0069 F30.
G1 Z-0.0525
G1 X-13.6032 Y1.4935 Z-0.0553 F6.1
G1 X-13.6028 Y1.4926 Z-0.0579
G1 X-13.6022 Y1.4913 Z-0.0603
G1 X-13.6013 Y1.4895 Z-0.0623
G1 X-13.6003 Y1.4873 Z-0.0638
G1 X-13.5992 Y1.485 Z-0.0647
G1 X-13.598 Y1.4824 Z-0.065
G1 X-13.5927 Y1.4711
G3 X-13.5856 Y1.4647 I0.0113 J0.0053
G3 X-13.576 Y1.4652 I0.0042 J0.0118
G1 X-12.6367 Y1.9092
G3 X-12.6069 Y1.9924 I-0.0267 J0.0565
G3 X-12.6572 Y2.0279 I-0.0565 J-0.0267
G1 X-15.0253 Y2.2642
G3 X-15.0937 Y2.2082 I-0.0062 J-0.0622
G3 X-15.0852 Y2.17 I0.0622 J-0.0062
G1 X-14.8058 Y1.7008
G3 X-14.7354 Y1.6726 I0.0537 J0.032
G2 X-13.8294 Y1.3962 I0.2354 J-0.8516
G3 X-13.7553 Y1.3804 I0.0474 J0.0407
G1 X-13.576 Y1.4652
G3 X-13.5701 Y1.4818 I-0.0053 J0.0113
G1 X-13.5754 Y1.4931
G1 X-13.5766 Y1.4956 Z-0.0647
G1 X-13.5777 Y1.498 Z-0.0638
G1 X-13.5787 Y1.5002 Z-0.0623
G1 X-13.5796 Y1.502 Z-0.0603
G1 X-13.5802 Y1.5033 Z-0.0579
G1 X-13.5806 Y1.5041 Z-0.0553
G1 X-13.5808 Y1.5044 Z-0.0525
G0 Z0.2
G0 X-13.6034 Y1.4937
G1 Z-0.0094 F30.
G1 Z-0.0688
G1 X-13.6032 Y1.4935 Z-0.0715 F6.1
G1 X-13.6028 Y1.4926 Z-0.0742
G1 X-13.6022 Y1.4913 Z-0.0765
G1 X-13.6013 Y1.4895 Z-0.0785
G1 X-13.6003 Y1.4873 Z-0.08
G1 X-13.5992 Y1.485 Z-0.0809
G1 X-13.598 Y1.4824 Z-0.0813
G1 X-13.5927 Y1.4711
G3 X-13.5856 Y1.4647 I0.0113 J0.0053
G3 X-13.576 Y1.4652 I0.0042 J0.0118
G1 X-12.6367 Y1.9092
G3 X-12.6069 Y1.9924 I-0.0267 J0.0565
G3 X-12.6572 Y2.0279 I-0.0565 J-0.0267
G1 X-15.0253 Y2.2642
G3 X-15.0937 Y2.2082 I-0.0062 J-0.0622
G3 X-15.0852 Y2.17 I0.0622 J-0.0062
G1 X-14.8058 Y1.7008
G3 X-14.7354 Y1.6726 I0.0537 J0.032
G2 X-13.8294 Y1.3962 I0.2354 J-0.8516
G3 X-13.7553 Y1.3804 I0.0474 J0.0407
G1 X-13.576 Y1.4652
G3 X-13.5701 Y1.4818 I-0.0053 J0.0113
G1 X-13.5754 Y1.4931
G1 X-13.5766 Y1.4956 Z-0.0809
G1 X-13.5777 Y1.498 Z-0.08
G1 X-13.5787 Y1.5002 Z-0.0785
G1 X-13.5796 Y1.502 Z-0.0765
G1 X-13.5802 Y1.5033 Z-0.0742
G1 X-13.5806 Y1.5041 Z-0.0715
G1 X-13.5808 Y1.5044 Z-0.0688
G0 Z0.2
G0 X-13.6034 Y1.4937
G1 Z-0.0256 F30.
G1 Z-0.085
G1 X-13.6032 Y1.4935 Z-0.0878 F6.1
G1 X-13.6028 Y1.4926 Z-0.0904
G1 X-13.6022 Y1.4913 Z-0.0928
G1 X-13.6013 Y1.4895 Z-0.0948
G1 X-13.6003 Y1.4873 Z-0.0963
G1 X-13.5992 Y1.485 Z-0.0972
G1 X-13.598 Y1.4824 Z-0.0975
G1 X-13.5927 Y1.4711
G3 X-13.5856 Y1.4647 I0.0113 J0.0053
G3 X-13.576 Y1.4652 I0.0042 J0.0118
G1 X-12.6367 Y1.9092
G3 X-12.6069 Y1.9924 I-0.0267 J0.0565
G3 X-12.6572 Y2.0279 I-0.0565 J-0.0267
G1 X-15.0253 Y2.2642
G3 X-15.0937 Y2.2082 I-0.0062 J-0.0622
G3 X-15.0852 Y2.17 I0.0622 J-0.0062
G1 X-14.8058 Y1.7008
G3 X-14.7354 Y1.6726 I0.0537 J0.032
G2 X-13.8294 Y1.3962 I0.2354 J-0.8516
G3 X-13.7553 Y1.3804 I0.0474 J0.0407
G1 X-13.576 Y1.4652
G3 X-13.5701 Y1.4818 I-0.0053 J0.0113
G1 X-13.5754 Y1.4931
G1 X-13.5766 Y1.4956 Z-0.0972
G1 X-13.5777 Y1.498 Z-0.0963
G1 X-13.5787 Y1.5002 Z-0.0948
G1 X-13.5796 Y1.502 Z-0.0928
G1 X-13.5802 Y1.5033 Z-0.0904
G1 X-13.5806 Y1.5041 Z-0.0878
G1 X-13.5808 Y1.5044 Z-0.085
G0 Z0.2
G0 X-13.6034 Y1.4937
G1 Z-0.0419 F30.
G1 Z-0.1013
G1 X-13.6032 Y1.4935 Z-0.104 F6.1
G1 X-13.6028 Y1.4926 Z-0.1067
G1 X-13.6022 Y1.4913 Z-0.109
G1 X-13.6013 Y1.4895 Z-0.111
G1 X-13.6003 Y1.4873 Z-0.1125
G1 X-13.5992 Y1.485 Z-0.1134
G1 X-13.598 Y1.4824 Z-0.1138
G1 X-13.5927 Y1.4711
G3 X-13.5856 Y1.4647 I0.0113 J0.0053
G3 X-13.576 Y1.4652 I0.0042 J0.0118
G1 X-12.6367 Y1.9092
G3 X-12.6069 Y1.9924 I-0.0267 J0.0565
G3 X-12.6572 Y2.0279 I-0.0565 J-0.0267
G1 X-15.0253 Y2.2642
G3 X-15.0937 Y2.2082 I-0.0062 J-0.0622
G3 X-15.0852 Y2.17 I0.0622 J-0.0062
G1 X-14.8058 Y1.7008
G3 X-14.7354 Y1.6726 I0.0537 J0.032
G2 X-13.8294 Y1.3962 I0.2354 J-0.8516
G3 X-13.7553 Y1.3804 I0.0474 J0.0407
G1 X-13.576 Y1.4652
G3 X-13.5701 Y1.4818 I-0.0053 J0.0113
G1 X-13.5754 Y1.4931
G1 X-13.5766 Y1.4956 Z-0.1134
G1 X-13.5777 Y1.498 Z-0.1125
G1 X-13.5787 Y1.5002 Z-0.111
G1 X-13.5796 Y1.502 Z-0.109
G1 X-13.5802 Y1.5033 Z-0.1067
G1 X-13.5806 Y1.5041 Z-0.104
G1 X-13.5808 Y1.5044 Z-0.1013
G0 Z0.2
G0 X-13.6034 Y1.4937
G1 Z-0.0581 F30.
G1 Z-0.1175
G1 X-13.6032 Y1.4935 Z-0.1203 F6.1
G1 X-13.6028 Y1.4926 Z-0.1229
G1 X-13.6022 Y1.4913 Z-0.1253
G1 X-13.6013 Y1.4895 Z-0.1273
G1 X-13.6003 Y1.4873 Z-0.1288
G1 X-13.5992 Y1.485 Z-0.1297
G1 X-13.598 Y1.4824 Z-0.13
G1 X-13.5927 Y1.4711
G3 X-13.5856 Y1.4647 I0.0113 J0.0053
G3 X-13.576 Y1.4652 I0.0042 J0.0118
G1 X-12.6367 Y1.9092
G3 X-12.6069 Y1.9924 I-0.0267 J0.0565
G3 X-12.6572 Y2.0279 I-0.0565 J-0.0267
G1 X-15.0253 Y2.2642
G3 X-15.0937 Y2.2082 I-0.0062 J-0.0622
G3 X-15.0852 Y2.17 I0.0622 J-0.0062
G1 X-14.8058 Y1.7008
G3 X-14.7354 Y1.6726 I0.0537 J0.032
G2 X-13.8294 Y1.3962 I0.2354 J-0.8516
G3 X-13.7553 Y1.3804 I0.0474 J0.0407
G1 X-13.576 Y1.4652
G3 X-13.5701 Y1.4818 I-0.0053 J0.0113
G1 X-13.5754 Y1.4931
G1 X-13.5766 Y1.4956 Z-0.1297
G1 X-13.5777 Y1.498 Z-0.1288
G1 X-13.5787 Y1.5002 Z-0.1273
G1 X-13.5796 Y1.502 Z-0.1253
G1 X-13.5802 Y1.5033 Z-0.1229
G1 X-13.5806 Y1.5041 Z-0.1203
G1 X-13.5808 Y1.5044 Z-0.1175
G0 Z0.2
G0 X-13.6034 Y1.4937
G1 Z-0.0744 F30.
G1 Z-0.1338
G1 X-13.6032 Y1.4935 Z-0.1365 F6.1
G1 X-13.6028 Y1.4926 Z-0.1392
G1 X-13.6022 Y1.4913 Z-0.1415
G1 X-13.6013 Y1.4895 Z-0.1435
G1 X-13.6003 Y1.4873 Z-0.145
G1 X-13.5992 Y1.485 Z-0.1459
G1 X-13.598 Y1.4824 Z-0.1463
G1 X-13.5927 Y1.4711
G3 X-13.5856 Y1.4647 I0.0113 J0.0053
G3 X-13.576 Y1.4652 I0.0042 J0.0118
G1 X-12.6367 Y1.9092
G3 X-12.6069 Y1.9924 I-0.0267 J0.0565
G3 X-12.6572 Y2.0279 I-0.0565 J-0.0267
G1 X-15.0253 Y2.2642
G3 X-15.0937 Y2.2082 I-0.0062 J-0.0622
G3 X-15.0852 Y2.17 I0.0622 J-0.0062
G1 X-14.8058 Y1.7008
G3 X-14.7354 Y1.6726 I0.0537 J0.032
G2 X-13.8294 Y1.3962 I0.2354 J-0.8516
G3 X-13.7553 Y1.3804 I0.0474 J0.0407
G1 X-13.576 Y1.4652
G3 X-13.5701 Y1.4818 I-0.0053 J0.0113
G1 X-13.5754 Y1.4931
G1 X-13.5766 Y1.4956 Z-0.1459
G1 X-13.5777 Y1.498 Z-0.145
G1 X-13.5787 Y1.5002 Z-0.1435
G1 X-13.5796 Y1.502 Z-0.1415
G1 X-13.5802 Y1.5033 Z-0.1392
G1 X-13.5806 Y1.5041 Z-0.1365
G1 X-13.5808 Y1.5044 Z-0.1338
G0 Z0.2
G0 X-13.6034 Y1.4937
G1 Z-0.0906 F30.
G1 Z-0.1438
G1 X-13.6032 Y1.4935 Z-0.1465 F6.1
G1 X-13.6028 Y1.4926 Z-0.1492
G1 X-13.6022 Y1.4913 Z-0.1515
G1 X-13.6013 Y1.4895 Z-0.1535
G1 X-13.6003 Y1.4873 Z-0.155
G1 X-13.5992 Y1.485 Z-0.1559
G1 X-13.598 Y1.4824 Z-0.1563
G1 X-13.5927 Y1.4711
G3 X-13.5856 Y1.4647 I0.0113 J0.0053
G3 X-13.576 Y1.4652 I0.0042 J0.0118
G1 X-12.6367 Y1.9092
G3 X-12.6069 Y1.9924 I-0.0267 J0.0565
G3 X-12.6572 Y2.0279 I-0.0565 J-0.0267
G1 X-15.0253 Y2.2642
G3 X-15.0937 Y2.2082 I-0.0062 J-0.0622
G3 X-15.0852 Y2.17 I0.0622 J-0.0062
G1 X-14.8058 Y1.7008
G3 X-14.7354 Y1.6726 I0.0537 J0.032
G2 X-13.8294 Y1.3962 I0.2354 J-0.8516
G3 X-13.7553 Y1.3804 I0.0474 J0.0407
G1 X-13.576 Y1.4652
G3 X-13.5701 Y1.4818 I-0.0053 J0.0113
G1 X-13.5754 Y1.4931
G1 X-13.5766 Y1.4956 Z-0.1559
G1 X-13.5777 Y1.498 Z-0.155
G1 X-13.5787 Y1.5002 Z-0.1535
G1 X-13.5796 Y1.502 Z-0.1515
G1 X-13.5802 Y1.5033 Z-0.1492
G1 X-13.5806 Y1.5041 Z-0.1465
G1 X-13.5808 Y1.5044 Z-0.1438
G0 Z0.2
G0 X-14.029 Y0.8085
G1 Z0.0556 F30.
G1 Z-0.0038
G1 X-14.0287 Z-0.0065 F6.1
G1 X-14.0278 Z-0.0092
G1 X-14.0263 Z-0.0115
G1 X-14.0243 Z-0.0135
G1 X-14.0219 Z-0.015
G1 X-14.0193 Z-0.0159
G1 X-14.0165 Z-0.0163
G1 X-14.004
G3 X-13.9915 Y0.821 I0 J0.0125
G3 X-14.5 Y1.3295 I-0.5085 J0
G3 X-15.0085 Y0.821 I0 J-0.5085
G3 X-14.5 Y0.3125 I0.5085 J0
G3 X-13.9915 Y0.821 I0 J0.5085
G3 X-14.004 Y0.8335 I-0.0125 J0
G1 X-14.0165
G1 X-14.0193 Z-0.0159
G1 X-14.0219 Z-0.015
G1 X-14.0243 Z-0.0135
G1 X-14.0263 Z-0.0115
G1 X-14.0278 Z-0.0092
G1 X-14.0287 Z-0.0065
G1 X-14.029 Z-0.0038
G0 Z0.2
G0 Y0.8085
G1 Z0.0394 F30.
G1 Z-0.02
G1 X-14.0287 Z-0.0228 F6.1
G1 X-14.0278 Z-0.0254
G1 X-14.0263 Z-0.0278
G1 X-14.0243 Z-0.0298
G1 X-14.0219 Z-0.0313
G1 X-14.0193 Z-0.0322
G1 X-14.0165 Z-0.0325
G1 X-14.004
G3 X-13.9915 Y0.821 I0 J0.0125
G3 X-14.5 Y1.3295 I-0.5085 J0
G3 X-15.0085 Y0.821 I0 J-0.5085
G3 X-14.5 Y0.3125 I0.5085 J0
G3 X-13.9915 Y0.821 I0 J0.5085
G3 X-14.004 Y0.8335 I-0.0125 J0
G1 X-14.0165
G1 X-14.0193 Z-0.0322
G1 X-14.0219 Z-0.0313
G1 X-14.0243 Z-0.0298
G1 X-14.0263 Z-0.0278
G1 X-14.0278 Z-0.0254
G1 X-14.0287 Z-0.0228
G1 X-14.029 Z-0.02
G0 Z0.2
G0 Y0.8085
G1 Z0.0231 F30.
G1 Z-0.0363
G1 X-14.0287 Z-0.039 F6.1
G1 X-14.0278 Z-0.0417
G1 X-14.0263 Z-0.044
G1 X-14.0243 Z-0.046
G1 X-14.0219 Z-0.0475
G1 X-14.0193 Z-0.0484
G1 X-14.0165 Z-0.0488
G1 X-14.004
G3 X-13.9915 Y0.821 I0 J0.0125
G3 X-14.5 Y1.3295 I-0.5085 J0
G3 X-15.0085 Y0.821 I0 J-0.5085
G3 X-14.5 Y0.3125 I0.5085 J0
G3 X-13.9915 Y0.821 I0 J0.5085
G3 X-14.004 Y0.8335 I-0.0125 J0
G1 X-14.0165
G1 X-14.0193 Z-0.0484
G1 X-14.0219 Z-0.0475
G1 X-14.0243 Z-0.046
G1 X-14.0263 Z-0.044
G1 X-14.0278 Z-0.0417
G1 X-14.0287 Z-0.039
G1 X-14.029 Z-0.0363
G0 Z0.2
G0 Y0.8085
G1 Z0.0069 F30.
G1 Z-0.0525
G1 X-14.0287 Z-0.0553 F6.1
G1 X-14.0278 Z-0.0579
G1 X-14.0263 Z-0.0603
G1 X-14.0243 Z-0.0623
G1 X-14.0219 Z-0.0638
G1 X-14.0193 Z-0.0647
G1 X-14.0165 Z-0.065
G1 X-14.004
G3 X-13.9915 Y0.821 I0 J0.0125
G3 X-14.5 Y1.3295 I-0.5085 J0
G3 X-15.0085 Y0.821 I0 J-0.5085
G3 X-14.5 Y0.3125 I0.5085 J0
G3 X-13.9915 Y0.821 I0 J0.5085
G3 X-14.004 Y0.8335 I-0.0125 J0
G1 X-14.0165
G1 X-14.0193 Z-0.0647
G1 X-14.0219 Z-0.0638
G1 X-14.0243 Z-0.0623
G1 X-14.0263 Z-0.0603
G1 X-14.0278 Z-0.0579
G1 X-14.0287 Z-0.0553
G1 X-14.029 Z-0.0525
G0 Z0.2
G0 Y0.8085
G1 Z-0.0094 F30.
G1 Z-0.0688
G1 X-14.0287 Z-0.0715 F6.1
G1 X-14.0278 Z-0.0742
G1 X-14.0263 Z-0.0765
G1 X-14.0243 Z-0.0785
G1 X-14.0219 Z-0.08
G1 X-14.0193 Z-0.0809
G1 X-14.0165 Z-0.0813
G1 X-14.004
G3 X-13.9915 Y0.821 I0 J0.0125
G3 X-14.5 Y1.3295 I-0.5085 J0
G3 X-15.0085 Y0.821 I0 J-0.5085
G3 X-14.5 Y0.3125 I0.5085 J0
G3 X-13.9915 Y0.821 I0 J0.5085
G3 X-14.004 Y0.8335 I-0.0125 J0
G1 X-14.0165
G1 X-14.0193 Z-0.0809
G1 X-14.0219 Z-0.08
G1 X-14.0243 Z-0.0785
G1 X-14.0263 Z-0.0765
G1 X-14.0278 Z-0.0742
G1 X-14.0287 Z-0.0715
G1 X-14.029 Z-0.0688
G0 Z0.2
G0 Y0.8085
G1 Z-0.0256 F30.
G1 Z-0.085
G1 X-14.0287 Z-0.0878 F6.1
G1 X-14.0278 Z-0.0904
G1 X-14.0263 Z-0.0928
G1 X-14.0243 Z-0.0948
G1 X-14.0219 Z-0.0963
G1 X-14.0193 Z-0.0972
G1 X-14.0165 Z-0.0975
G1 X-14.004
G3 X-13.9915 Y0.821 I0 J0.0125
G3 X-14.5 Y1.3295 I-0.5085 J0
G3 X-15.0085 Y0.821 I0 J-0.5085
G3 X-14.5 Y0.3125 I0.5085 J0
G3 X-13.9915 Y0.821 I0 J0.5085
G3 X-14.004 Y0.8335 I-0.0125 J0
G1 X-14.0165
G1 X-14.0193 Z-0.0972
G1 X-14.0219 Z-0.0963
G1 X-14.0243 Z-0.0948
G1 X-14.0263 Z-0.0928
G1 X-14.0278 Z-0.0904
G1 X-14.0287 Z-0.0878
G1 X-14.029 Z-0.085
G0 Z0.2
G0 Y0.8085
G1 Z-0.0419 F30.
G1 Z-0.1013
G1 X-14.0287 Z-0.104 F6.1
G1 X-14.0278 Z-0.1067
G1 X-14.0263 Z-0.109
G1 X-14.0243 Z-0.111
G1 X-14.0219 Z-0.1125
G1 X-14.0193 Z-0.1134
G1 X-14.0165 Z-0.1138
G1 X-14.004
G3 X-13.9915 Y0.821 I0 J0.0125
G3 X-14.5 Y1.3295 I-0.5085 J0
G3 X-15.0085 Y0.821 I0 J-0.5085
G3 X-14.5 Y0.3125 I0.5085 J0
G3 X-13.9915 Y0.821 I0 J0.5085
G3 X-14.004 Y0.8335 I-0.0125 J0
G1 X-14.0165
G1 X-14.0193 Z-0.1134
G1 X-14.0219 Z-0.1125
G1 X-14.0243 Z-0.111
G1 X-14.0263 Z-0.109
G1 X-14.0278 Z-0.1067
G1 X-14.0287 Z-0.104
G1 X-14.029 Z-0.1013
G0 Z0.2
G0 Y0.8085
G1 Z-0.0581 F30.
G1 Z-0.1175
G1 X-14.0287 Z-0.1203 F6.1
G1 X-14.0278 Z-0.1229
G1 X-14.0263 Z-0.1253
G1 X-14.0243 Z-0.1273
G1 X-14.0219 Z-0.1288
G1 X-14.0193 Z-0.1297
G1 X-14.0165 Z-0.13
G1 X-14.004
G3 X-13.9915 Y0.821 I0 J0.0125
G3 X-14.5 Y1.3295 I-0.5085 J0
G3 X-15.0085 Y0.821 I0 J-0.5085
G3 X-14.5 Y0.3125 I0.5085 J0
G3 X-13.9915 Y0.821 I0 J0.5085
G3 X-14.004 Y0.8335 I-0.0125 J0
G1 X-14.0165
G1 X-14.0193 Z-0.1297
G1 X-14.0219 Z-0.1288
G1 X-14.0243 Z-0.1273
G1 X-14.0263 Z-0.1253
G1 X-14.0278 Z-0.1229
G1 X-14.0287 Z-0.1203
G1 X-14.029 Z-0.1175
G0 Z0.2
G0 Y0.8085
G1 Z-0.0744 F30.
G1 Z-0.1338
G1 X-14.0287 Z-0.1365 F6.1
G1 X-14.0278 Z-0.1392
G1 X-14.0263 Z-0.1415
G1 X-14.0243 Z-0.1435
G1 X-14.0219 Z-0.145
G1 X-14.0193 Z-0.1459
G1 X-14.0165 Z-0.1463
G1 X-14.004
G3 X-13.9915 Y0.821 I0 J0.0125
G3 X-14.5 Y1.3295 I-0.5085 J0
G3 X-15.0085 Y0.821 I0 J-0.5085
G3 X-14.5 Y0.3125 I0.5085 J0
G3 X-13.9915 Y0.821 I0 J0.5085
G3 X-14.004 Y0.8335 I-0.0125 J0
G1 X-14.0165
G1 X-14.0193 Z-0.1459
G1 X-14.0219 Z-0.145
G1 X-14.0243 Z-0.1435
G1 X-14.0263 Z-0.1415
G1 X-14.0278 Z-0.1392
G1 X-14.0287 Z-0.1365
G1 X-14.029 Z-0.1338
G0 Z0.2
G0 Y0.8085
G1 Z-0.0906 F30.
G1 Z-0.1438
G1 X-14.0287 Z-0.1465 F6.1
G1 X-14.0278 Z-0.1492
G1 X-14.0263 Z-0.1515
G1 X-14.0243 Z-0.1535
G1 X-14.0219 Z-0.155
G1 X-14.0193 Z-0.1559
G1 X-14.0165 Z-0.1563
G1 X-14.004
G3 X-13.9915 Y0.821 I0 J0.0125
G3 X-14.5 Y1.3295 I-0.5085 J0
G3 X-15.0085 Y0.821 I0 J-0.5085
G3 X-14.5 Y0.3125 I0.5085 J0
G3 X-13.9915 Y0.821 I0 J0.5085
G3 X-14.004 Y0.8335 I-0.0125 J0
G1 X-14.0165
G1 X-14.0193 Z-0.1559
G1 X-14.0219 Z-0.155
G1 X-14.0243 Z-0.1535
G1 X-14.0263 Z-0.1515
G1 X-14.0278 Z-0.1492
G1 X-14.0287 Z-0.1465
G1 X-14.029 Z-0.1438
G0 Z0.2
G0 X-15.1864 Y1.5338
G1 Z0.0556 F30.
G1 Z-0.0038
G1 X-15.1861 Y1.5339 Z-0.0065 F6.1
G1 X-15.1853 Y1.5344 Z-0.0092
G1 X-15.184 Y1.5352 Z-0.0115
G1 X-15.1823 Y1.5362 Z-0.0135
G1 X-15.1803 Y1.5374 Z-0.015
G1 X-15.178 Y1.5387 Z-0.0159
G1 X-15.1756 Y1.5402 Z-0.0163
G1 X-15.1649 Y1.5466
G3 X-15.1592 Y1.5542 I-0.0064 J0.0107
G3 X-15.1606 Y1.5637 I-0.0121 J0.0031
G1 X-15.3213 Y1.8335
G3 X-15.407 Y1.8553 I-0.0537 J-0.032
G3 X-15.4375 Y1.8016 I0.032 J-0.0537
G1 Y0.625
G3 X-15.3878 Y0.5638 I0.0625 J0
G3 X-15.3623 Y0.6289 I-0.0355 J0.0514
G2 X-15.1366 Y1.4336 I0.8623 J0.1921
G3 X-15.1279 Y1.5089 I-0.045 J0.0433
G1 X-15.1606 Y1.5637
G3 X-15.1777 Y1.568 I-0.0107 J-0.0064
G1 X-15.1884 Y1.5616
G1 X-15.1908 Y1.5602 Z-0.0159
G1 X-15.1931 Y1.5589 Z-0.015
G1 X-15.1951 Y1.5576 Z-0.0135
G1 X-15.1968 Y1.5566 Z-0.0115
G1 X-15.1981 Y1.5559 Z-0.0092
G1 X-15.1989 Y1.5554 Z-0.0065
G1 X-15.1992 Y1.5552 Z-0.0038
G0 Z0.2
G0 X-15.1864 Y1.5338
G1 Z0.0394 F30.
G1 Z-0.02
G1 X-15.1861 Y1.5339 Z-0.0228 F6.1
G1 X-15.1853 Y1.5344 Z-0.0254
G1 X-15.184 Y1.5352 Z-0.0278
G1 X-15.1823 Y1.5362 Z-0.0298
G1 X-15.1803 Y1.5374 Z-0.0313
G1 X-15.178 Y1.5387 Z-0.0322
G1 X-15.1756 Y1.5402 Z-0.0325
G1 X-15.1649 Y1.5466
G3 X-15.1592 Y1.5542 I-0.0064 J0.0107
G3 X-15.1606 Y1.5637 I-0.0121 J0.0031
G1 X-15.3213 Y1.8335
G3 X-15.407 Y1.8553 I-0.0537 J-0.032
G3 X-15.4375 Y1.8016 I0.032 J-0.0537
G1 Y0.625
G3 X-15.3878 Y0.5638 I0.0625 J0
G3 X-15.3623 Y0.6289 I-0.0355 J0.0514
G2 X-15.1366 Y1.4336 I0.8623 J0.1921
G3 X-15.1279 Y1.5089 I-0.045 J0.0433
G1 X-15.1606 Y1.5637
G3 X-15.1777 Y1.568 I-0.0107 J-0.0064
G1 X-15.1884 Y1.5616
G1 X-15.1908 Y1.5602 Z-0.0322
G1 X-15.1931 Y1.5589 Z-0.0313
G1 X-15.1951 Y1.5576 Z-0.0298
G1 X-15.1968 Y1.5566 Z-0.0278
G1 X-15.1981 Y1.5559 Z-0.0254
G1 X-15.1989 Y1.5554 Z-0.0228
G1 X-15.1992 Y1.5552 Z-0.02
G0 Z0.2
G0 X-15.1864 Y1.5338
G1 Z0.0231 F30.
G1 Z-0.0363
G1 X-15.1861 Y1.5339 Z-0.039 F6.1
G1 X-15.1853 Y1.5344 Z-0.0417
G1 X-15.184 Y1.5352 Z-0.044
G1 X-15.1823 Y1.5362 Z-0.046
G1 X-15.1803 Y1.5374 Z-0.0475
G1 X-15.178 Y1.5387 Z-0.0484
G1 X-15.1756 Y1.5402 Z-0.0488
G1 X-15.1649 Y1.5466
G3 X-15.1592 Y1.5542 I-0.0064 J0.0107
G3 X-15.1606 Y1.5637 I-0.0121 J0.0031
G1 X-15.3213 Y1.8335
G3 X-15.407 Y1.8553 I-0.0537 J-0.032
G3 X-15.4375 Y1.8016 I0.032 J-0.0537
G1 Y0.625
G3 X-15.3878 Y0.5638 I0.0625 J0
G3 X-15.3623 Y0.6289 I-0.0355 J0.0514
G2 X-15.1366 Y1.4336 I0.8623 J0.1921
G3 X-15.1279 Y1.5089 I-0.045 J0.0433
G1 X-15.1606 Y1.5637
G3 X-15.1777 Y1.568 I-0.0107 J-0.0064
G1 X-15.1884 Y1.5616
G1 X-15.1908 Y1.5602 Z-0.0484
G1 X-15.1931 Y1.5589 Z-0.0475
G1 X-15.1951 Y1.5576 Z-0.046
G1 X-15.1968 Y1.5566 Z-0.044
G1 X-15.1981 Y1.5559 Z-0.0417
G1 X-15.1989 Y1.5554 Z-0.039
G1 X-15.1992 Y1.5552 Z-0.0363
G0 Z0.2
G0 X-15.1864 Y1.5338
G1 Z0.0069 F30.
G1 Z-0.0525
G1 X-15.1861 Y1.5339 Z-0.0553 F6.1
G1 X-15.1853 Y1.5344 Z-0.0579
G1 X-15.184 Y1.5352 Z-0.0603
G1 X-15.1823 Y1.5362 Z-0.0623
G1 X-15.1803 Y1.5374 Z-0.0638
G1 X-15.178 Y1.5387 Z-0.0647
G1 X-15.1756 Y1.5402 Z-0.065
G1 X-15.1649 Y1.5466
G3 X-15.1592 Y1.5542 I-0.0064 J0.0107
G3 X-15.1606 Y1.5637 I-0.0121 J0.0031
G1 X-15.3213 Y1.8335
G3 X-15.407 Y1.8553 I-0.0537 J-0.032
G3 X-15.4375 Y1.8016 I0.032 J-0.0537
G1 Y0.625
G3 X-15.3878 Y0.5638 I0.0625 J0
G3 X-15.3623 Y0.6289 I-0.0355 J0.0514
G2 X-15.1366 Y1.4336 I0.8623 J0.1921
G3 X-15.1279 Y1.5089 I-0.045 J0.0433
G1 X-15.1606 Y1.5637
G3 X-15.1777 Y1.568 I-0.0107 J-0.0064
G1 X-15.1884 Y1.5616
G1 X-15.1908 Y1.5602 Z-0.0647
G1 X-15.1931 Y1.5589 Z-0.0638
G1 X-15.1951 Y1.5576 Z-0.0623
G1 X-15.1968 Y1.5566 Z-0.0603
G1 X-15.1981 Y1.5559 Z-0.0579
G1 X-15.1989 Y1.5554 Z-0.0553
G1 X-15.1992 Y1.5552 Z-0.0525
G0 Z0.2
G0 X-15.1864 Y1.5338
G1 Z-0.0094 F30.
G1 Z-0.0688
G1 X-15.1861 Y1.5339 Z-0.0715 F6.1
G1 X-15.1853 Y1.5344 Z-0.0742
G1 X-15.184 Y1.5352 Z-0.0765
G1 X-15.1823 Y1.5362 Z-0.0785
G1 X-15.1803 Y1.5374 Z-0.08
G1 X-15.178 Y1.5387 Z-0.0809
G1 X-15.1756 Y1.5402 Z-0.0813
G1 X-15.1649 Y1.5466
G3 X-15.1592 Y1.5542 I-0.0064 J0.0107
G3 X-15.1606 Y1.5637 I-0.0121 J0.0031
G1 X-15.3213 Y1.8335
G3 X-15.407 Y1.8553 I-0.0537 J-0.032
G3 X-15.4375 Y1.8016 I0.032 J-0.0537
G1 Y0.625
G3 X-15.3878 Y0.5638 I0.0625 J0
G3 X-15.3623 Y0.6289 I-0.0355 J0.0514
G2 X-15.1366 Y1.4336 I0.8623 J0.1921
G3 X-15.1279 Y1.5089 I-0.045 J0.0433
G1 X-15.1606 Y1.5637
G3 X-15.1777 Y1.568 I-0.0107 J-0.0064
G1 X-15.1884 Y1.5616
G1 X-15.1908 Y1.5602 Z-0.0809
G1 X-15.1931 Y1.5589 Z-0.08
G1 X-15.1951 Y1.5576 Z-0.0785
G1 X-15.1968 Y1.5566 Z-0.0765
G1 X-15.1981 Y1.5559 Z-0.0742
G1 X-15.1989 Y1.5554 Z-0.0715
G1 X-15.1992 Y1.5552 Z-0.0688
G0 Z0.2
G0 X-15.1864 Y1.5338
G1 Z-0.0256 F30.
G1 Z-0.085
G1 X-15.1861 Y1.5339 Z-0.0878 F6.1
G1 X-15.1853 Y1.5344 Z-0.0904
G1 X-15.184 Y1.5352 Z-0.0928
G1 X-15.1823 Y1.5362 Z-0.0948
G1 X-15.1803 Y1.5374 Z-0.0963
G1 X-15.178 Y1.5387 Z-0.0972
G1 X-15.1756 Y1.5402 Z-0.0975
G1 X-15.1649 Y1.5466
G3 X-15.1592 Y1.5542 I-0.0064 J0.0107
G3 X-15.1606 Y1.5637 I-0.0121 J0.0031
G1 X-15.3213 Y1.8335
G3 X-15.407 Y1.8553 I-0.0537 J-0.032
G3 X-15.4375 Y1.8016 I0.032 J-0.0537
G1 Y0.625
G3 X-15.3878 Y0.5638 I0.0625 J0
G3 X-15.3623 Y0.6289 I-0.0355 J0.0514
G2 X-15.1366 Y1.4336 I0.8623 J0.1921
G3 X-15.1279 Y1.5089 I-0.045 J0.0433
G1 X-15.1606 Y1.5637
G3 X-15.1777 Y1.568 I-0.0107 J-0.0064
G1 X-15.1884 Y1.5616
G1 X-15.1908 Y1.5602 Z-0.0972
G1 X-15.1931 Y1.5589 Z-0.0963
G1 X-15.1951 Y1.5576 Z-0.0948
G1 X-15.1968 Y1.5566 Z-0.0928
G1 X-15.1981 Y1.5559 Z-0.0904
G1 X-15.1989 Y1.5554 Z-0.0878
G1 X-15.1992 Y1.5552 Z-0.085
G0 Z0.2
G0 X-15.1864 Y1.5338
G1 Z-0.0419 F30.
G1 Z-0.1013
G1 X-15.1861 Y1.5339 Z-0.104 F6.1
G1 X-15.1853 Y1.5344 Z-0.1067
G1 X-15.184 Y1.5352 Z-0.109
G1 X-15.1823 Y1.5362 Z-0.111
G1 X-15.1803 Y1.5374 Z-0.1125
G1 X-15.178 Y1.5387 Z-0.1134
G1 X-15.1756 Y1.5402 Z-0.1138
G1 X-15.1649 Y1.5466
G3 X-15.1592 Y1.5542 I-0.0064 J0.0107
G3 X-15.1606 Y1.5637 I-0.0121 J0.0031
G1 X-15.3213 Y1.8335
G3 X-15.407 Y1.8553 I-0.0537 J-0.032
G3 X-15.4375 Y1.8016 I0.032 J-0.0537
G1 Y0.625
G3 X-15.3878 Y0.5638 I0.0625 J0
G3 X-15.3623 Y0.6289 I-0.0355 J0.0514
G2 X-15.1366 Y1.4336 I0.8623 J0.1921
G3 X-15.1279 Y1.5089 I-0.045 J0.0433
G1 X-15.1606 Y1.5637
G3 X-15.1777 Y1.568 I-0.0107 J-0.0064
G1 X-15.1884 Y1.5616
G1 X-15.1908 Y1.5602 Z-0.1134
G1 X-15.1931 Y1.5589 Z-0.1125
G1 X-15.1951 Y1.5576 Z-0.111
G1 X-15.1968 Y1.5566 Z-0.109
G1 X-15.1981 Y1.5559 Z-0.1067
G1 X-15.1989 Y1.5554 Z-0.104
G1 X-15.1992 Y1.5552 Z-0.1013
G0 Z0.2
G0 X-15.1864 Y1.5338
G1 Z-0.0581 F30.
G1 Z-0.1175
G1 X-15.1861 Y1.5339 Z-0.1203 F6.1
G1 X-15.1853 Y1.5344 Z-0.1229
G1 X-15.184 Y1.5352 Z-0.1253
G1 X-15.1823 Y1.5362 Z-0.1273
G1 X-15.1803 Y1.5374 Z-0.1288
G1 X-15.178 Y1.5387 Z-0.1297
G1 X-15.1756 Y1.5402 Z-0.13
G1 X-15.1649 Y1.5466
G3 X-15.1592 Y1.5542 I-0.0064 J0.0107
G3 X-15.1606 Y1.5637 I-0.0121 J0.0031
G1 X-15.3213 Y1.8335
G3 X-15.407 Y1.8553 I-0.0537 J-0.032
G3 X-15.4375 Y1.8016 I0.032 J-0.0537
G1 Y0.625
G3 X-15.3878 Y0.5638 I0.0625 J0
G3 X-15.3623 Y0.6289 I-0.0355 J0.0514
G2 X-15.1366 Y1.4336 I0.8623 J0.1921
G3 X-15.1279 Y1.5089 I-0.045 J0.0433
G1 X-15.1606 Y1.5637
G3 X-15.1777 Y1.568 I-0.0107 J-0.0064
G1 X-15.1884 Y1.5616
G1 X-15.1908 Y1.5602 Z-0.1297
G1 X-15.1931 Y1.5589 Z-0.1288
G1 X-15.1951 Y1.5576 Z-0.1273
G1 X-15.1968 Y1.5566 Z-0.1253
G1 X-15.1981 Y1.5559 Z-0.1229
G1 X-15.1989 Y1.5554 Z-0.1203
G1 X-15.1992 Y1.5552 Z-0.1175
G0 Z0.2
G0 X-15.1864 Y1.5338
G1 Z-0.0744 F30.
G1 Z-0.1338
G1 X-15.1861 Y1.5339 Z-0.1365 F6.1
G1 X-15.1853 Y1.5344 Z-0.1392
G1 X-15.184 Y1.5352 Z-0.1415
G1 X-15.1823 Y1.5362 Z-0.1435
G1 X-15.1803 Y1.5374 Z-0.145
G1 X-15.178 Y1.5387 Z-0.1459
G1 X-15.1756 Y1.5402 Z-0.1463
G1 X-15.1649 Y1.5466
G3 X-15.1592 Y1.5542 I-0.0064 J0.0107
G3 X-15.1606 Y1.5637 I-0.0121 J0.0031
G1 X-15.3213 Y1.8335
G3 X-15.407 Y1.8553 I-0.0537 J-0.032
G3 X-15.4375 Y1.8016 I0.032 J-0.0537
G1 Y0.625
G3 X-15.3878 Y0.5638 I0.0625 J0
G3 X-15.3623 Y0.6289 I-0.0355 J0.0514
G2 X-15.1366 Y1.4336 I0.8623 J0.1921
G3 X-15.1279 Y1.5089 I-0.045 J0.0433
G1 X-15.1606 Y1.5637
G3 X-15.1777 Y1.568 I-0.0107 J-0.0064
G1 X-15.1884 Y1.5616
G1 X-15.1908 Y1.5602 Z-0.1459
G1 X-15.1931 Y1.5589 Z-0.145
G1 X-15.1951 Y1.5576 Z-0.1435
G1 X-15.1968 Y1.5566 Z-0.1415
G1 X-15.1981 Y1.5559 Z-0.1392
G1 X-15.1989 Y1.5554 Z-0.1365
G1 X-15.1992 Y1.5552 Z-0.1338
G0 Z0.2
G0 X-15.1864 Y1.5338
G1 Z-0.0906 F30.
G1 Z-0.1438
G1 X-15.1861 Y1.5339 Z-0.1465 F6.1
G1 X-15.1853 Y1.5344 Z-0.1492
G1 X-15.184 Y1.5352 Z-0.1515
G1 X-15.1823 Y1.5362 Z-0.1535
G1 X-15.1803 Y1.5374 Z-0.155
G1 X-15.178 Y1.5387 Z-0.1559
G1 X-15.1756 Y1.5402 Z-0.1563
G1 X-15.1649 Y1.5466
G3 X-15.1592 Y1.5542 I-0.0064 J0.0107
G3 X-15.1606 Y1.5637 I-0.0121 J0.0031
G1 X-15.3213 Y1.8335
G3 X-15.407 Y1.8553 I-0.0537 J-0.032
G3 X-15.4375 Y1.8016 I0.032 J-0.0537
G1 Y0.625
G3 X-15.3878 Y0.5638 I0.0625 J0
G3 X-15.3623 Y0.6289 I-0.0355 J0.0514
G2 X-15.1366 Y1.4336 I0.8623 J0.1921
G3 X-15.1279 Y1.5089 I-0.045 J0.0433
G1 X-15.1606 Y1.5637
G3 X-15.1777 Y1.568 I-0.0107 J-0.0064
G1 X-15.1884 Y1.5616
G1 X-15.1908 Y1.5602 Z-0.1559
G1 X-15.1931 Y1.5589 Z-0.155
G1 X-15.1951 Y1.5576 Z-0.1535
G1 X-15.1968 Y1.5566 Z-0.1515
G1 X-15.1981 Y1.5559 Z-0.1492
G1 X-15.1989 Y1.5554 Z-0.1465
G1 X-15.1992 Y1.5552 Z-0.1438
G0 Z0.6

M5
M30
