(1001)
(T1  D=0.125 CR=0 - ZMIN=-0.1563 - FLAT END MILL)
G0 G40 G90 G17
G20

(2D CONTOUR3)
T1 M6
M3 S2440
G0 X7.7698 Y0.7362
G0 Z0.6
G0 Z0.2
G1 Z0.0556 F30.
G1 Z-0.0038
G1 X7.7699 Y0.7359 Z-0.0065 F6.1
G1 X7.7703 Y0.7351 Z-0.0092
G1 X7.7708 Y0.7337 Z-0.0115
G1 X7.7716 Y0.7318 Z-0.0135
G1 X7.7725 Y0.7297 Z-0.015
G1 X7.7735 Y0.7272 Z-0.0159
G1 X7.7745 Y0.7246 Z-0.0163
G1 X7.7793 Y0.7131
G3 X7.786 Y0.7063 I0.0116 J0.0048
G3 X7.7956 I0.0048 J0.0115
G1 X9.9683 Y1.5991
G3 X10.0023 Y1.6806 I-0.0238 J0.0578
G3 X9.937 Y1.7189 I-0.0578 J-0.0238
G1 X7.3977 Y1.4132
G3 X7.3437 Y1.3623 I0.0075 J-0.062
G2 X7.1302 Y0.9508 I-0.7735 J0.1402
G3 X7.1309 Y0.8624 I0.0445 J-0.0439
G3 X7.1401 Y0.855 I0.0439 J0.0445
G2 X7.4057 Y0.5981 I-0.5699 J-0.855
G3 X7.4802 Y0.5767 I0.0508 J0.0364
G1 X7.7956 Y0.7063
G3 X7.8024 Y0.7226 I-0.0048 J0.0116
G1 X7.7977 Y0.7341
G1 X7.7966 Y0.7367 Z-0.0159
G1 X7.7956 Y0.7392 Z-0.015
G1 X7.7947 Y0.7413 Z-0.0135
G1 X7.7939 Y0.7432 Z-0.0115
G1 X7.7934 Y0.7446 Z-0.0092
G1 X7.793 Y0.7454 Z-0.0065
G1 X7.7929 Y0.7457 Z-0.0038
G0 Z0.2
G0 X7.7698 Y0.7362
G1 Z0.0394 F30.
G1 Z-0.02
G1 X7.7699 Y0.7359 Z-0.0228 F6.1
G1 X7.7703 Y0.7351 Z-0.0254
G1 X7.7708 Y0.7337 Z-0.0278
G1 X7.7716 Y0.7318 Z-0.0298
G1 X7.7725 Y0.7297 Z-0.0313
G1 X7.7735 Y0.7272 Z-0.0322
G1 X7.7745 Y0.7246 Z-0.0325
G1 X7.7793 Y0.7131
G3 X7.786 Y0.7063 I0.0116 J0.0048
G3 X7.7956 I0.0048 J0.0115
G1 X9.9683 Y1.5991
G3 X10.0023 Y1.6806 I-0.0238 J0.0578
G3 X9.937 Y1.7189 I-0.0578 J-0.0238
G1 X7.3977 Y1.4132
G3 X7.3437 Y1.3623 I0.0075 J-0.062
G2 X7.1302 Y0.9508 I-0.7735 J0.1402
G3 X7.1309 Y0.8624 I0.0445 J-0.0439
G3 X7.1401 Y0.855 I0.0439 J0.0445
G2 X7.4057 Y0.5981 I-0.5699 J-0.855
G3 X7.4802 Y0.5767 I0.0508 J0.0364
G1 X7.7956 Y0.7063
G3 X7.8024 Y0.7226 I-0.0048 J0.0116
G1 X7.7977 Y0.7341
G1 X7.7966 Y0.7367 Z-0.0322
G1 X7.7956 Y0.7392 Z-0.0313
G1 X7.7947 Y0.7413 Z-0.0298
G1 X7.7939 Y0.7432 Z-0.0278
G1 X7.7934 Y0.7446 Z-0.0254
G1 X7.793 Y0.7454 Z-0.0228
G1 X7.7929 Y0.7457 Z-0.02
G0 Z0.2
G0 X7.7698 Y0.7362
G1 Z0.0231 F30.
G1 Z-0.0363
G1 X7.7699 Y0.7359 Z-0.039 F6.1
G1 X7.7703 Y0.7351 Z-0.0417
G1 X7.7708 Y0.7337 Z-0.044
G1 X7.7716 Y0.7318 Z-0.046
G1 X7.7725 Y0.7297 Z-0.0475
G1 X7.7735 Y0.7272 Z-0.0484
G1 X7.7745 Y0.7246 Z-0.0488
G1 X7.7793 Y0.7131
G3 X7.786 Y0.7063 I0.0116 J0.0048
G3 X7.7956 I0.0048 J0.0115
G1 X9.9683 Y1.5991
G3 X10.0023 Y1.6806 I-0.0238 J0.0578
G3 X9.937 Y1.7189 I-0.0578 J-0.0238
G1 X7.3977 Y1.4132
G3 X7.3437 Y1.3623 I0.0075 J-0.062
G2 X7.1302 Y0.9508 I-0.7735 J0.1402
G3 X7.1309 Y0.8624 I0.0445 J-0.0439
G3 X7.1401 Y0.855 I0.0439 J0.0445
G2 X7.4057 Y0.5981 I-0.5699 J-0.855
G3 X7.4802 Y0.5767 I0.0508 J0.0364
G1 X7.7956 Y0.7063
G3 X7.8024 Y0.7226 I-0.0048 J0.0116
G1 X7.7977 Y0.7341
G1 X7.7966 Y0.7367 Z-0.0484
G1 X7.7956 Y0.7392 Z-0.0475
G1 X7.7947 Y0.7413 Z-0.046
G1 X7.7939 Y0.7432 Z-0.044
G1 X7.7934 Y0.7446 Z-0.0417
G1 X7.793 Y0.7454 Z-0.039
G1 X7.7929 Y0.7457 Z-0.0363
G0 Z0.2
G0 X7.7698 Y0.7362
G1 Z0.0069 F30.
G1 Z-0.0525
G1 X7.7699 Y0.7359 Z-0.0553 F6.1
G1 X7.7703 Y0.7351 Z-0.0579
G1 X7.7708 Y0.7337 Z-0.0603
G1 X7.7716 Y0.7318 Z-0.0623
G1 X7.7725 Y0.7297 Z-0.0638
G1 X7.7735 Y0.7272 Z-0.0647
G1 X7.7745 Y0.7246 Z-0.065
G1 X7.7793 Y0.7131
G3 X7.786 Y0.7063 I0.0116 J0.0048
G3 X7.7956 I0.0048 J0.0115
G1 X9.9683 Y1.5991
G3 X10.0023 Y1.6806 I-0.0238 J0.0578
G3 X9.937 Y1.7189 I-0.0578 J-0.0238
G1 X7.3977 Y1.4132
G3 X7.3437 Y1.3623 I0.0075 J-0.062
G2 X7.1302 Y0.9508 I-0.7735 J0.1402
G3 X7.1309 Y0.8624 I0.0445 J-0.0439
G3 X7.1401 Y0.855 I0.0439 J0.0445
G2 X7.4057 Y0.5981 I-0.5699 J-0.855
G3 X7.4802 Y0.5767 I0.0508 J0.0364
G1 X7.7956 Y0.7063
G3 X7.8024 Y0.7226 I-0.0048 J0.0116
G1 X7.7977 Y0.7341
G1 X7.7966 Y0.7367 Z-0.0647
G1 X7.7956 Y0.7392 Z-0.0638
G1 X7.7947 Y0.7413 Z-0.0623
G1 X7.7939 Y0.7432 Z-0.0603
G1 X7.7934 Y0.7446 Z-0.0579
G1 X7.793 Y0.7454 Z-0.0553
G1 X7.7929 Y0.7457 Z-0.0525
G0 Z0.2
G0 X7.7698 Y0.7362
G1 Z-0.0094 F30.
G1 Z-0.0688
G1 X7.7699 Y0.7359 Z-0.0715 F6.1
G1 X7.7703 Y0.7351 Z-0.0742
G1 X7.7708 Y0.7337 Z-0.0765
G1 X7.7716 Y0.7318 Z-0.0785
G1 X7.7725 Y0.7297 Z-0.08
G1 X7.7735 Y0.7272 Z-0.0809
G1 X7.7745 Y0.7246 Z-0.0813
G1 X7.7793 Y0.7131
G3 X7.786 Y0.7063 I0.0116 J0.0048
G3 X7.7956 I0.0048 J0.0115
G1 X9.9683 Y1.5991
G3 X10.0023 Y1.6806 I-0.0238 J0.0578
G3 X9.937 Y1.7189 I-0.0578 J-0.0238
G1 X7.3977 Y1.4132
G3 X7.3437 Y1.3623 I0.0075 J-0.062
G2 X7.1302 Y0.9508 I-0.7735 J0.1402
G3 X7.1309 Y0.8624 I0.0445 J-0.0439
G3 X7.1401 Y0.855 I0.0439 J0.0445
G2 X7.4057 Y0.5981 I-0.5699 J-0.855
G3 X7.4802 Y0.5767 I0.0508 J0.0364
G1 X7.7956 Y0.7063
G3 X7.8024 Y0.7226 I-0.0048 J0.0116
G1 X7.7977 Y0.7341
G1 X7.7966 Y0.7367 Z-0.0809
G1 X7.7956 Y0.7392 Z-0.08
G1 X7.7947 Y0.7413 Z-0.0785
G1 X7.7939 Y0.7432 Z-0.0765
G1 X7.7934 Y0.7446 Z-0.0742
G1 X7.793 Y0.7454 Z-0.0715
G1 X7.7929 Y0.7457 Z-0.0688
G0 Z0.2
G0 X7.7698 Y0.7362
G1 Z-0.0256 F30.
G1 Z-0.085
G1 X7.7699 Y0.7359 Z-0.0878 F6.1
G1 X7.7703 Y0.7351 Z-0.0904
G1 X7.7708 Y0.7337 Z-0.0928
G1 X7.7716 Y0.7318 Z-0.0948
G1 X7.7725 Y0.7297 Z-0.0963
G1 X7.7735 Y0.7272 Z-0.0972
G1 X7.7745 Y0.7246 Z-0.0975
G1 X7.7793 Y0.7131
G3 X7.786 Y0.7063 I0.0116 J0.0048
G3 X7.7956 I0.0048 J0.0115
G1 X9.9683 Y1.5991
G3 X10.0023 Y1.6806 I-0.0238 J0.0578
G3 X9.937 Y1.7189 I-0.0578 J-0.0238
G1 X7.3977 Y1.4132
G3 X7.3437 Y1.3623 I0.0075 J-0.062
G2 X7.1302 Y0.9508 I-0.7735 J0.1402
G3 X7.1309 Y0.8624 I0.0445 J-0.0439
G3 X7.1401 Y0.855 I0.0439 J0.0445
G2 X7.4057 Y0.5981 I-0.5699 J-0.855
G3 X7.4802 Y0.5767 I0.0508 J0.0364
G1 X7.7956 Y0.7063
G3 X7.8024 Y0.7226 I-0.0048 J0.0116
G1 X7.7977 Y0.7341
G1 X7.7966 Y0.7367 Z-0.0972
G1 X7.7956 Y0.7392 Z-0.0963
G1 X7.7947 Y0.7413 Z-0.0948
G1 X7.7939 Y0.7432 Z-0.0928
G1 X7.7934 Y0.7446 Z-0.0904
G1 X7.793 Y0.7454 Z-0.0878
G1 X7.7929 Y0.7457 Z-0.085
G0 Z0.2
G0 X7.7698 Y0.7362
G1 Z-0.0419 F30.
G1 Z-0.1013
G1 X7.7699 Y0.7359 Z-0.104 F6.1
G1 X7.7703 Y0.7351 Z-0.1067
G1 X7.7708 Y0.7337 Z-0.109
G1 X7.7716 Y0.7318 Z-0.111
G1 X7.7725 Y0.7297 Z-0.1125
G1 X7.7735 Y0.7272 Z-0.1134
G1 X7.7745 Y0.7246 Z-0.1138
G1 X7.7793 Y0.7131
G3 X7.786 Y0.7063 I0.0116 J0.0048
G3 X7.7956 I0.0048 J0.0115
G1 X9.9683 Y1.5991
G3 X10.0023 Y1.6806 I-0.0238 J0.0578
G3 X9.937 Y1.7189 I-0.0578 J-0.0238
G1 X7.3977 Y1.4132
G3 X7.3437 Y1.3623 I0.0075 J-0.062
G2 X7.1302 Y0.9508 I-0.7735 J0.1402
G3 X7.1309 Y0.8624 I0.0445 J-0.0439
G3 X7.1401 Y0.855 I0.0439 J0.0445
G2 X7.4057 Y0.5981 I-0.5699 J-0.855
G3 X7.4802 Y0.5767 I0.0508 J0.0364
G1 X7.7956 Y0.7063
G3 X7.8024 Y0.7226 I-0.0048 J0.0116
G1 X7.7977 Y0.7341
G1 X7.7966 Y0.7367 Z-0.1134
G1 X7.7956 Y0.7392 Z-0.1125
G1 X7.7947 Y0.7413 Z-0.111
G1 X7.7939 Y0.7432 Z-0.109
G1 X7.7934 Y0.7446 Z-0.1067
G1 X7.793 Y0.7454 Z-0.104
G1 X7.7929 Y0.7457 Z-0.1013
G0 Z0.2
G0 X7.7698 Y0.7362
G1 Z-0.0581 F30.
G1 Z-0.1175
G1 X7.7699 Y0.7359 Z-0.1203 F6.1
G1 X7.7703 Y0.7351 Z-0.1229
G1 X7.7708 Y0.7337 Z-0.1253
G1 X7.7716 Y0.7318 Z-0.1273
G1 X7.7725 Y0.7297 Z-0.1288
G1 X7.7735 Y0.7272 Z-0.1297
G1 X7.7745 Y0.7246 Z-0.13
G1 X7.7793 Y0.7131
G3 X7.786 Y0.7063 I0.0116 J0.0048
G3 X7.7956 I0.0048 J0.0115
G1 X9.9683 Y1.5991
G3 X10.0023 Y1.6806 I-0.0238 J0.0578
G3 X9.937 Y1.7189 I-0.0578 J-0.0238
G1 X7.3977 Y1.4132
G3 X7.3437 Y1.3623 I0.0075 J-0.062
G2 X7.1302 Y0.9508 I-0.7735 J0.1402
G3 X7.1309 Y0.8624 I0.0445 J-0.0439
G3 X7.1401 Y0.855 I0.0439 J0.0445
G2 X7.4057 Y0.5981 I-0.5699 J-0.855
G3 X7.4802 Y0.5767 I0.0508 J0.0364
G1 X7.7956 Y0.7063
G3 X7.8024 Y0.7226 I-0.0048 J0.0116
G1 X7.7977 Y0.7341
G1 X7.7966 Y0.7367 Z-0.1297
G1 X7.7956 Y0.7392 Z-0.1288
G1 X7.7947 Y0.7413 Z-0.1273
G1 X7.7939 Y0.7432 Z-0.1253
G1 X7.7934 Y0.7446 Z-0.1229
G1 X7.793 Y0.7454 Z-0.1203
G1 X7.7929 Y0.7457 Z-0.1175
G0 Z0.2
G0 X7.7698 Y0.7362
G1 Z-0.0744 F30.
G1 Z-0.1338
G1 X7.7699 Y0.7359 Z-0.1365 F6.1
G1 X7.7703 Y0.7351 Z-0.1392
G1 X7.7708 Y0.7337 Z-0.1415
G1 X7.7716 Y0.7318 Z-0.1435
G1 X7.7725 Y0.7297 Z-0.145
G1 X7.7735 Y0.7272 Z-0.1459
G1 X7.7745 Y0.7246 Z-0.1463
G1 X7.7793 Y0.7131
G3 X7.786 Y0.7063 I0.0116 J0.0048
G3 X7.7956 I0.0048 J0.0115
G1 X9.9683 Y1.5991
G3 X10.0023 Y1.6806 I-0.0238 J0.0578
G3 X9.937 Y1.7189 I-0.0578 J-0.0238
G1 X7.3977 Y1.4132
G3 X7.3437 Y1.3623 I0.0075 J-0.062
G2 X7.1302 Y0.9508 I-0.7735 J0.1402
G3 X7.1309 Y0.8624 I0.0445 J-0.0439
G3 X7.1401 Y0.855 I0.0439 J0.0445
G2 X7.4057 Y0.5981 I-0.5699 J-0.855
G3 X7.4802 Y0.5767 I0.0508 J0.0364
G1 X7.7956 Y0.7063
G3 X7.8024 Y0.7226 I-0.0048 J0.0116
G1 X7.7977 Y0.7341
G1 X7.7966 Y0.7367 Z-0.1459
G1 X7.7956 Y0.7392 Z-0.145
G1 X7.7947 Y0.7413 Z-0.1435
G1 X7.7939 Y0.7432 Z-0.1415
G1 X7.7934 Y0.7446 Z-0.1392
G1 X7.793 Y0.7454 Z-0.1365
G1 X7.7929 Y0.7457 Z-0.1338
G0 Z0.2
G0 X7.7698 Y0.7362
G1 Z-0.0906 F30.
G1 Z-0.1438
G1 X7.7699 Y0.7359 Z-0.1465 F6.1
G1 X7.7703 Y0.7351 Z-0.1492
G1 X7.7708 Y0.7337 Z-0.1515
G1 X7.7716 Y0.7318 Z-0.1535
G1 X7.7725 Y0.7297 Z-0.155
G1 X7.7735 Y0.7272 Z-0.1559
G1 X7.7745 Y0.7246 Z-0.1563
G1 X7.7793 Y0.7131
G3 X7.786 Y0.7063 I0.0116 J0.0048
G3 X7.7956 I0.0048 J0.0115
G1 X9.9683 Y1.5991
G3 X10.0023 Y1.6806 I-0.0238 J0.0578
G3 X9.937 Y1.7189 I-0.0578 J-0.0238
G1 X7.3977 Y1.4132
G3 X7.3437 Y1.3623 I0.0075 J-0.062
G2 X7.1302 Y0.9508 I-0.7735 J0.1402
G3 X7.1309 Y0.8624 I0.0445 J-0.0439
G3 X7.1401 Y0.855 I0.0439 J0.0445
G2 X7.4057 Y0.5981 I-0.5699 J-0.855
G3 X7.4802 Y0.5767 I0.0508 J0.0364
G1 X7.7956 Y0.7063
G3 X7.8024 Y0.7226 I-0.0048 J0.0116
G1 X7.7977 Y0.7341
G1 X7.7966 Y0.7367 Z-0.1559
G1 X7.7956 Y0.7392 Z-0.155
G1 X7.7947 Y0.7413 Z-0.1535
G1 X7.7939 Y0.7432 Z-0.1515
G1 X7.7934 Y0.7446 Z-0.1492
G1 X7.793 Y0.7454 Z-0.1465
G1 X7.7929 Y0.7457 Z-0.1438
G0 Z0.2
G0 X11.2579 Y0.7115
G1 Z0.0556 F30.
G1 Z-0.0038
G1 Y0.7112 Z-0.0065 F6.1
G1 X11.258 Y0.7103 Z-0.0092
G1 X11.2582 Y0.7088 Z-0.0115
G1 X11.2584 Y0.7069 Z-0.0135
G1 X11.2586 Y0.7045 Z-0.015
G1 X11.2589 Y0.7019 Z-0.0159
G1 X11.2592 Y0.6991 Z-0.0163
G1 X11.2605 Y0.6867
G3 X11.2742 Y0.6755 I0.0124 J0.0013
G1 X11.8813 Y0.7384
G1 X13.3897 Y0.8945
G3 X13.4452 Y0.9492 I-0.0065 J0.0621
G2 X13.4625 Y1.0503 I1.0548 J-0.1282
G3 X13.4282 Y1.1203 I-0.061 J0.0135
G1 X12.1652 Y1.7173
G2 X11.7263 Y1.5372 I-0.4237 J0.4077
G2 X11.2973 Y1.7398 I0.0152 J0.5878
G1 X8.7251 Y0.6828
G3 X8.6911 Y0.6012 I0.0238 J-0.0578
G3 X8.7489 Y0.5625 I0.0578 J0.0238
G1 X10.1793
G1 X10.1825 Y0.5626
G1 X10.1857 Y0.5628
G1 X11.2742 Y0.6755
G3 X11.2826 Y0.6801 I-0.0013 J0.0124
G3 X11.2853 Y0.6892 I-0.0097 J0.0079
G1 X11.2841 Y0.7017
G1 X11.2838 Y0.7044 Z-0.0159
G1 X11.2835 Y0.7071 Z-0.015
G1 X11.2833 Y0.7094 Z-0.0135
G1 X11.2831 Y0.7114 Z-0.0115
G1 X11.2829 Y0.7129 Z-0.0092
G1 X11.2828 Y0.7138 Z-0.0065
G1 Y0.7141 Z-0.0038
G0 Z0.2
G0 X11.2579 Y0.7115
G1 Z0.0394 F30.
G1 Z-0.02
G1 Y0.7112 Z-0.0228 F6.1
G1 X11.258 Y0.7103 Z-0.0254
G1 X11.2582 Y0.7088 Z-0.0278
G1 X11.2584 Y0.7069 Z-0.0298
G1 X11.2586 Y0.7045 Z-0.0313
G1 X11.2589 Y0.7019 Z-0.0322
G1 X11.2592 Y0.6991 Z-0.0325
G1 X11.2605 Y0.6867
G3 X11.2742 Y0.6755 I0.0124 J0.0013
G1 X11.8813 Y0.7384
G1 X13.3897 Y0.8945
G3 X13.4452 Y0.9492 I-0.0065 J0.0621
G2 X13.4625 Y1.0503 I1.0548 J-0.1282
G3 X13.4282 Y1.1203 I-0.061 J0.0135
G1 X12.1652 Y1.7173
G2 X11.7263 Y1.5372 I-0.4237 J0.4077
G2 X11.2973 Y1.7398 I0.0152 J0.5878
G1 X8.7251 Y0.6828
G3 X8.6911 Y0.6012 I0.0238 J-0.0578
G3 X8.7489 Y0.5625 I0.0578 J0.0238
G1 X10.1793
G1 X10.1825 Y0.5626
G1 X10.1857 Y0.5628
G1 X11.2742 Y0.6755
G3 X11.2826 Y0.6801 I-0.0013 J0.0124
G3 X11.2853 Y0.6892 I-0.0097 J0.0079
G1 X11.2841 Y0.7017
G1 X11.2838 Y0.7044 Z-0.0322
G1 X11.2835 Y0.7071 Z-0.0313
G1 X11.2833 Y0.7094 Z-0.0298
G1 X11.2831 Y0.7114 Z-0.0278
G1 X11.2829 Y0.7129 Z-0.0254
G1 X11.2828 Y0.7138 Z-0.0228
G1 Y0.7141 Z-0.02
G0 Z0.2
G0 X11.2579 Y0.7115
G1 Z0.0231 F30.
G1 Z-0.0363
G1 Y0.7112 Z-0.039 F6.1
G1 X11.258 Y0.7103 Z-0.0417
G1 X11.2582 Y0.7088 Z-0.044
G1 X11.2584 Y0.7069 Z-0.046
G1 X11.2586 Y0.7045 Z-0.0475
G1 X11.2589 Y0.7019 Z-0.0484
G1 X11.2592 Y0.6991 Z-0.0488
G1 X11.2605 Y0.6867
G3 X11.2742 Y0.6755 I0.0124 J0.0013
G1 X11.8813 Y0.7384
G1 X13.3897 Y0.8945
G3 X13.4452 Y0.9492 I-0.0065 J0.0621
G2 X13.4625 Y1.0503 I1.0548 J-0.1282
G3 X13.4282 Y1.1203 I-0.061 J0.0135
G1 X12.1652 Y1.7173
G2 X11.7263 Y1.5372 I-0.4237 J0.4077
G2 X11.2973 Y1.7398 I0.0152 J0.5878
G1 X8.7251 Y0.6828
G3 X8.6911 Y0.6012 I0.0238 J-0.0578
G3 X8.7489 Y0.5625 I0.0578 J0.0238
G1 X10.1793
G1 X10.1825 Y0.5626
G1 X10.1857 Y0.5628
G1 X11.2742 Y0.6755
G3 X11.2826 Y0.6801 I-0.0013 J0.0124
G3 X11.2853 Y0.6892 I-0.0097 J0.0079
G1 X11.2841 Y0.7017
G1 X11.2838 Y0.7044 Z-0.0484
G1 X11.2835 Y0.7071 Z-0.0475
G1 X11.2833 Y0.7094 Z-0.046
G1 X11.2831 Y0.7114 Z-0.044
G1 X11.2829 Y0.7129 Z-0.0417
G1 X11.2828 Y0.7138 Z-0.039
G1 Y0.7141 Z-0.0363
G0 Z0.2
G0 X11.2579 Y0.7115
G1 Z0.0069 F30.
G1 Z-0.0525
G1 Y0.7112 Z-0.0553 F6.1
G1 X11.258 Y0.7103 Z-0.0579
G1 X11.2582 Y0.7088 Z-0.0603
G1 X11.2584 Y0.7069 Z-0.0623
G1 X11.2586 Y0.7045 Z-0.0638
G1 X11.2589 Y0.7019 Z-0.0647
G1 X11.2592 Y0.6991 Z-0.065
G1 X11.2605 Y0.6867
G3 X11.2742 Y0.6755 I0.0124 J0.0013
G1 X11.8813 Y0.7384
G1 X13.3897 Y0.8945
G3 X13.4452 Y0.9492 I-0.0065 J0.0621
G2 X13.4625 Y1.0503 I1.0548 J-0.1282
G3 X13.4282 Y1.1203 I-0.061 J0.0135
G1 X12.1652 Y1.7173
G2 X11.7263 Y1.5372 I-0.4237 J0.4077
G2 X11.2973 Y1.7398 I0.0152 J0.5878
G1 X8.7251 Y0.6828
G3 X8.6911 Y0.6012 I0.0238 J-0.0578
G3 X8.7489 Y0.5625 I0.0578 J0.0238
G1 X10.1793
G1 X10.1825 Y0.5626
G1 X10.1857 Y0.5628
G1 X11.2742 Y0.6755
G3 X11.2826 Y0.6801 I-0.0013 J0.0124
G3 X11.2853 Y0.6892 I-0.0097 J0.0079
G1 X11.2841 Y0.7017
G1 X11.2838 Y0.7044 Z-0.0647
G1 X11.2835 Y0.7071 Z-0.0638
G1 X11.2833 Y0.7094 Z-0.0623
G1 X11.2831 Y0.7114 Z-0.0603
G1 X11.2829 Y0.7129 Z-0.0579
G1 X11.2828 Y0.7138 Z-0.0553
G1 Y0.7141 Z-0.0525
G0 Z0.2
G0 X11.2579 Y0.7115
G1 Z-0.0094 F30.
G1 Z-0.0688
G1 Y0.7112 Z-0.0715 F6.1
G1 X11.258 Y0.7103 Z-0.0742
G1 X11.2582 Y0.7088 Z-0.0765
G1 X11.2584 Y0.7069 Z-0.0785
G1 X11.2586 Y0.7045 Z-0.08
G1 X11.2589 Y0.7019 Z-0.0809
G1 X11.2592 Y0.6991 Z-0.0813
G1 X11.2605 Y0.6867
G3 X11.2742 Y0.6755 I0.0124 J0.0013
G1 X11.8813 Y0.7384
G1 X13.3897 Y0.8945
G3 X13.4452 Y0.9492 I-0.0065 J0.0621
G2 X13.4625 Y1.0503 I1.0548 J-0.1282
G3 X13.4282 Y1.1203 I-0.061 J0.0135
G1 X12.1652 Y1.7173
G2 X11.7263 Y1.5372 I-0.4237 J0.4077
G2 X11.2973 Y1.7398 I0.0152 J0.5878
G1 X8.7251 Y0.6828
G3 X8.6911 Y0.6012 I0.0238 J-0.0578
G3 X8.7489 Y0.5625 I0.0578 J0.0238
G1 X10.1793
G1 X10.1825 Y0.5626
G1 X10.1857 Y0.5628
G1 X11.2742 Y0.6755
G3 X11.2826 Y0.6801 I-0.0013 J0.0124
G3 X11.2853 Y0.6892 I-0.0097 J0.0079
G1 X11.2841 Y0.7017
G1 X11.2838 Y0.7044 Z-0.0809
G1 X11.2835 Y0.7071 Z-0.08
G1 X11.2833 Y0.7094 Z-0.0785
G1 X11.2831 Y0.7114 Z-0.0765
G1 X11.2829 Y0.7129 Z-0.0742
G1 X11.2828 Y0.7138 Z-0.0715
G1 Y0.7141 Z-0.0688
G0 Z0.2
G0 X11.2579 Y0.7115
G1 Z-0.0256 F30.
G1 Z-0.085
G1 Y0.7112 Z-0.0878 F6.1
G1 X11.258 Y0.7103 Z-0.0904
G1 X11.2582 Y0.7088 Z-0.0928
G1 X11.2584 Y0.7069 Z-0.0948
G1 X11.2586 Y0.7045 Z-0.0963
G1 X11.2589 Y0.7019 Z-0.0972
G1 X11.2592 Y0.6991 Z-0.0975
G1 X11.2605 Y0.6867
G3 X11.2742 Y0.6755 I0.0124 J0.0013
G1 X11.8813 Y0.7384
G1 X13.3897 Y0.8945
G3 X13.4452 Y0.9492 I-0.0065 J0.0621
G2 X13.4625 Y1.0503 I1.0548 J-0.1282
G3 X13.4282 Y1.1203 I-0.061 J0.0135
G1 X12.1652 Y1.7173
G2 X11.7263 Y1.5372 I-0.4237 J0.4077
G2 X11.2973 Y1.7398 I0.0152 J0.5878
G1 X8.7251 Y0.6828
G3 X8.6911 Y0.6012 I0.0238 J-0.0578
G3 X8.7489 Y0.5625 I0.0578 J0.0238
G1 X10.1793
G1 X10.1825 Y0.5626
G1 X10.1857 Y0.5628
G1 X11.2742 Y0.6755
G3 X11.2826 Y0.6801 I-0.0013 J0.0124
G3 X11.2853 Y0.6892 I-0.0097 J0.0079
G1 X11.2841 Y0.7017
G1 X11.2838 Y0.7044 Z-0.0972
G1 X11.2835 Y0.7071 Z-0.0963
G1 X11.2833 Y0.7094 Z-0.0948
G1 X11.2831 Y0.7114 Z-0.0928
G1 X11.2829 Y0.7129 Z-0.0904
G1 X11.2828 Y0.7138 Z-0.0878
G1 Y0.7141 Z-0.085
G0 Z0.2
G0 X11.2579 Y0.7115
G1 Z-0.0419 F30.
G1 Z-0.1013
G1 Y0.7112 Z-0.104 F6.1
G1 X11.258 Y0.7103 Z-0.1067
G1 X11.2582 Y0.7088 Z-0.109
G1 X11.2584 Y0.7069 Z-0.111
G1 X11.2586 Y0.7045 Z-0.1125
G1 X11.2589 Y0.7019 Z-0.1134
G1 X11.2592 Y0.6991 Z-0.1138
G1 X11.2605 Y0.6867
G3 X11.2742 Y0.6755 I0.0124 J0.0013
G1 X11.8813 Y0.7384
G1 X13.3897 Y0.8945
G3 X13.4452 Y0.9492 I-0.0065 J0.0621
G2 X13.4625 Y1.0503 I1.0548 J-0.1282
G3 X13.4282 Y1.1203 I-0.061 J0.0135
G1 X12.1652 Y1.7173
G2 X11.7263 Y1.5372 I-0.4237 J0.4077
G2 X11.2973 Y1.7398 I0.0152 J0.5878
G1 X8.7251 Y0.6828
G3 X8.6911 Y0.6012 I0.0238 J-0.0578
G3 X8.7489 Y0.5625 I0.0578 J0.0238
G1 X10.1793
G1 X10.1825 Y0.5626
G1 X10.1857 Y0.5628
G1 X11.2742 Y0.6755
G3 X11.2826 Y0.6801 I-0.0013 J0.0124
G3 X11.2853 Y0.6892 I-0.0097 J0.0079
G1 X11.2841 Y0.7017
G1 X11.2838 Y0.7044 Z-0.1134
G1 X11.2835 Y0.7071 Z-0.1125
G1 X11.2833 Y0.7094 Z-0.111
G1 X11.2831 Y0.7114 Z-0.109
G1 X11.2829 Y0.7129 Z-0.1067
G1 X11.2828 Y0.7138 Z-0.104
G1 Y0.7141 Z-0.1013
G0 Z0.2
G0 X11.2579 Y0.7115
G1 Z-0.0581 F30.
G1 Z-0.1175
G1 Y0.7112 Z-0.1203 F6.1
G1 X11.258 Y0.7103 Z-0.1229
G1 X11.2582 Y0.7088 Z-0.1253
G1 X11.2584 Y0.7069 Z-0.1273
G1 X11.2586 Y0.7045 Z-0.1288
G1 X11.2589 Y0.7019 Z-0.1297
G1 X11.2592 Y0.6991 Z-0.13
G1 X11.2605 Y0.6867
G3 X11.2742 Y0.6755 I0.0124 J0.0013
G1 X11.8813 Y0.7384
G1 X13.3897 Y0.8945
G3 X13.4452 Y0.9492 I-0.0065 J0.0621
G2 X13.4625 Y1.0503 I1.0548 J-0.1282
G3 X13.4282 Y1.1203 I-0.061 J0.0135
G1 X12.1652 Y1.7173
G2 X11.7263 Y1.5372 I-0.4237 J0.4077
G2 X11.2973 Y1.7398 I0.0152 J0.5878
G1 X8.7251 Y0.6828
G3 X8.6911 Y0.6012 I0.0238 J-0.0578
G3 X8.7489 Y0.5625 I0.0578 J0.0238
G1 X10.1793
G1 X10.1825 Y0.5626
G1 X10.1857 Y0.5628
G1 X11.2742 Y0.6755
G3 X11.2826 Y0.6801 I-0.0013 J0.0124
G3 X11.2853 Y0.6892 I-0.0097 J0.0079
G1 X11.2841 Y0.7017
G1 X11.2838 Y0.7044 Z-0.1297
G1 X11.2835 Y0.7071 Z-0.1288
G1 X11.2833 Y0.7094 Z-0.1273
G1 X11.2831 Y0.7114 Z-0.1253
G1 X11.2829 Y0.7129 Z-0.1229
G1 X11.2828 Y0.7138 Z-0.1203
G1 Y0.7141 Z-0.1175
G0 Z0.2
G0 X11.2579 Y0.7115
G1 Z-0.0744 F30.
G1 Z-0.1338
G1 Y0.7112 Z-0.1365 F6.1
G1 X11.258 Y0.7103 Z-0.1392
G1 X11.2582 Y0.7088 Z-0.1415
G1 X11.2584 Y0.7069 Z-0.1435
G1 X11.2586 Y0.7045 Z-0.145
G1 X11.2589 Y0.7019 Z-0.1459
G1 X11.2592 Y0.6991 Z-0.1463
G1 X11.2605 Y0.6867
G3 X11.2742 Y0.6755 I0.0124 J0.0013
G1 X11.8813 Y0.7384
G1 X13.3897 Y0.8945
G3 X13.4452 Y0.9492 I-0.0065 J0.0621
G2 X13.4625 Y1.0503 I1.0548 J-0.1282
G3 X13.4282 Y1.1203 I-0.061 J0.0135
G1 X12.1652 Y1.7173
G2 X11.7263 Y1.5372 I-0.4237 J0.4077
G2 X11.2973 Y1.7398 I0.0152 J0.5878
G1 X8.7251 Y0.6828
G3 X8.6911 Y0.6012 I0.0238 J-0.0578
G3 X8.7489 Y0.5625 I0.0578 J0.0238
G1 X10.1793
G1 X10.1825 Y0.5626
G1 X10.1857 Y0.5628
G1 X11.2742 Y0.6755
G3 X11.2826 Y0.6801 I-0.0013 J0.0124
G3 X11.2853 Y0.6892 I-0.0097 J0.0079
G1 X11.2841 Y0.7017
G1 X11.2838 Y0.7044 Z-0.1459
G1 X11.2835 Y0.7071 Z-0.145
G1 X11.2833 Y0.7094 Z-0.1435
G1 X11.2831 Y0.7114 Z-0.1415
G1 X11.2829 Y0.7129 Z-0.1392
G1 X11.2828 Y0.7138 Z-0.1365
G1 Y0.7141 Z-0.1338
G0 Z0.2
G0 X11.2579 Y0.7115
G1 Z-0.0906 F30.
G1 Z-0.1438
G1 Y0.7112 Z-0.1465 F6.1
G1 X11.258 Y0.7103 Z-0.1492
G1 X11.2582 Y0.7088 Z-0.1515
G1 X11.2584 Y0.7069 Z-0.1535
G1 X11.2586 Y0.7045 Z-0.155
G1 X11.2589 Y0.7019 Z-0.1559
G1 X11.2592 Y0.6991 Z-0.1563
G1 X11.2605 Y0.6867
G3 X11.2742 Y0.6755 I0.0124 J0.0013
G1 X11.8813 Y0.7384
G1 X13.3897 Y0.8945
G3 X13.4452 Y0.9492 I-0.0065 J0.0621
G2 X13.4625 Y1.0503 I1.0548 J-0.1282
G3 X13.4282 Y1.1203 I-0.061 J0.0135
G1 X12.1652 Y1.7173
G2 X11.7263 Y1.5372 I-0.4237 J0.4077
G2 X11.2973 Y1.7398 I0.0152 J0.5878
G1 X8.7251 Y0.6828
G3 X8.6911 Y0.6012 I0.0238 J-0.0578
G3 X8.7489 Y0.5625 I0.0578 J0.0238
G1 X10.1793
G1 X10.1825 Y0.5626
G1 X10.1857 Y0.5628
G1 X11.2742 Y0.6755
G3 X11.2826 Y0.6801 I-0.0013 J0.0124
G3 X11.2853 Y0.6892 I-0.0097 J0.0079
G1 X11.2841 Y0.7017
G1 X11.2838 Y0.7044 Z-0.1559
G1 X11.2835 Y0.7071 Z-0.155
G1 X11.2833 Y0.7094 Z-0.1535
G1 X11.2831 Y0.7114 Z-0.1515
G1 X11.2829 Y0.7129 Z-0.1492
G1 X11.2828 Y0.7138 Z-0.1465
G1 Y0.7141 Z-0.1438
G0 Z0.2
G0 X11.927 Y2.1125
G1 Z0.0556 F30.
G1 Z-0.0038
G1 X11.9273 Z-0.0065 F6.1
G1 X11.9282 Z-0.0092
G1 X11.9297 Z-0.0115
G1 X11.9317 Z-0.0135
G1 X11.9341 Z-0.015
G1 X11.9367 Z-0.0159
G1 X11.9395 Z-0.0163
G1 X11.952
G3 X11.9645 Y2.125 I0 J0.0125
G3 X11.7415 Y2.348 I-0.223 J0
G3 X11.5185 Y2.125 I0 J-0.223
G3 X11.7415 Y1.902 I0.223 J0
G3 X11.9645 Y2.125 I0 J0.223
G3 X11.952 Y2.1375 I-0.0125 J0
G1 X11.9395
G1 X11.9367 Z-0.0159
G1 X11.9341 Z-0.015
G1 X11.9317 Z-0.0135
G1 X11.9297 Z-0.0115
G1 X11.9282 Z-0.0092
G1 X11.9273 Z-0.0065
G1 X11.927 Z-0.0038
G0 Z0.2
G0 Y2.1125
G1 Z0.0394 F30.
G1 Z-0.02
G1 X11.9273 Z-0.0228 F6.1
G1 X11.9282 Z-0.0254
G1 X11.9297 Z-0.0278
G1 X11.9317 Z-0.0298
G1 X11.9341 Z-0.0313
G1 X11.9367 Z-0.0322
G1 X11.9395 Z-0.0325
G1 X11.952
G3 X11.9645 Y2.125 I0 J0.0125
G3 X11.7415 Y2.348 I-0.223 J0
G3 X11.5185 Y2.125 I0 J-0.223
G3 X11.7415 Y1.902 I0.223 J0
G3 X11.9645 Y2.125 I0 J0.223
G3 X11.952 Y2.1375 I-0.0125 J0
G1 X11.9395
G1 X11.9367 Z-0.0322
G1 X11.9341 Z-0.0313
G1 X11.9317 Z-0.0298
G1 X11.9297 Z-0.0278
G1 X11.9282 Z-0.0254
G1 X11.9273 Z-0.0228
G1 X11.927 Z-0.02
G0 Z0.2
G0 Y2.1125
G1 Z0.0231 F30.
G1 Z-0.0363
G1 X11.9273 Z-0.039 F6.1
G1 X11.9282 Z-0.0417
G1 X11.9297 Z-0.044
G1 X11.9317 Z-0.046
G1 X11.9341 Z-0.0475
G1 X11.9367 Z-0.0484
G1 X11.9395 Z-0.0488
G1 X11.952
G3 X11.9645 Y2.125 I0 J0.0125
G3 X11.7415 Y2.348 I-0.223 J0
G3 X11.5185 Y2.125 I0 J-0.223
G3 X11.7415 Y1.902 I0.223 J0
G3 X11.9645 Y2.125 I0 J0.223
G3 X11.952 Y2.1375 I-0.0125 J0
G1 X11.9395
G1 X11.9367 Z-0.0484
G1 X11.9341 Z-0.0475
G1 X11.9317 Z-0.046
G1 X11.9297 Z-0.044
G1 X11.9282 Z-0.0417
G1 X11.9273 Z-0.039
G1 X11.927 Z-0.0363
G0 Z0.2
G0 Y2.1125
G1 Z0.0069 F30.
G1 Z-0.0525
G1 X11.9273 Z-0.0553 F6.1
G1 X11.9282 Z-0.0579
G1 X11.9297 Z-0.0603
G1 X11.9317 Z-0.0623
G1 X11.9341 Z-0.0638
G1 X11.9367 Z-0.0647
G1 X11.9395 Z-0.065
G1 X11.952
G3 X11.9645 Y2.125 I0 J0.0125
G3 X11.7415 Y2.348 I-0.223 J0
G3 X11.5185 Y2.125 I0 J-0.223
G3 X11.7415 Y1.902 I0.223 J0
G3 X11.9645 Y2.125 I0 J0.223
G3 X11.952 Y2.1375 I-0.0125 J0
G1 X11.9395
G1 X11.9367 Z-0.0647
G1 X11.9341 Z-0.0638
G1 X11.9317 Z-0.0623
G1 X11.9297 Z-0.0603
G1 X11.9282 Z-0.0579
G1 X11.9273 Z-0.0553
G1 X11.927 Z-0.0525
G0 Z0.2
G0 Y2.1125
G1 Z-0.0094 F30.
G1 Z-0.0688
G1 X11.9273 Z-0.0715 F6.1
G1 X11.9282 Z-0.0742
G1 X11.9297 Z-0.0765
G1 X11.9317 Z-0.0785
G1 X11.9341 Z-0.08
G1 X11.9367 Z-0.0809
G1 X11.9395 Z-0.0813
G1 X11.952
G3 X11.9645 Y2.125 I0 J0.0125
G3 X11.7415 Y2.348 I-0.223 J0
G3 X11.5185 Y2.125 I0 J-0.223
G3 X11.7415 Y1.902 I0.223 J0
G3 X11.9645 Y2.125 I0 J0.223
G3 X11.952 Y2.1375 I-0.0125 J0
G1 X11.9395
G1 X11.9367 Z-0.0809
G1 X11.9341 Z-0.08
G1 X11.9317 Z-0.0785
G1 X11.9297 Z-0.0765
G1 X11.9282 Z-0.0742
G1 X11.9273 Z-0.0715
G1 X11.927 Z-0.0688
G0 Z0.2
G0 Y2.1125
G1 Z-0.0256 F30.
G1 Z-0.085
G1 X11.9273 Z-0.0878 F6.1
G1 X11.9282 Z-0.0904
G1 X11.9297 Z-0.0928
G1 X11.9317 Z-0.0948
G1 X11.9341 Z-0.0963
G1 X11.9367 Z-0.0972
G1 X11.9395 Z-0.0975
G1 X11.952
G3 X11.9645 Y2.125 I0 J0.0125
G3 X11.7415 Y2.348 I-0.223 J0
G3 X11.5185 Y2.125 I0 J-0.223
G3 X11.7415 Y1.902 I0.223 J0
G3 X11.9645 Y2.125 I0 J0.223
G3 X11.952 Y2.1375 I-0.0125 J0
G1 X11.9395
G1 X11.9367 Z-0.0972
G1 X11.9341 Z-0.0963
G1 X11.9317 Z-0.0948
G1 X11.9297 Z-0.0928
G1 X11.9282 Z-0.0904
G1 X11.9273 Z-0.0878
G1 X11.927 Z-0.085
G0 Z0.2
G0 Y2.1125
G1 Z-0.0419 F30.
G1 Z-0.1013
G1 X11.9273 Z-0.104 F6.1
G1 X11.9282 Z-0.1067
G1 X11.9297 Z-0.109
G1 X11.9317 Z-0.111
G1 X11.9341 Z-0.1125
G1 X11.9367 Z-0.1134
G1 X11.9395 Z-0.1138
G1 X11.952
G3 X11.9645 Y2.125 I0 J0.0125
G3 X11.7415 Y2.348 I-0.223 J0
G3 X11.5185 Y2.125 I0 J-0.223
G3 X11.7415 Y1.902 I0.223 J0
G3 X11.9645 Y2.125 I0 J0.223
G3 X11.952 Y2.1375 I-0.0125 J0
G1 X11.9395
G1 X11.9367 Z-0.1134
G1 X11.9341 Z-0.1125
G1 X11.9317 Z-0.111
G1 X11.9297 Z-0.109
G1 X11.9282 Z-0.1067
G1 X11.9273 Z-0.104
G1 X11.927 Z-0.1013
G0 Z0.2
G0 Y2.1125
G1 Z-0.0581 F30.
G1 Z-0.1175
G1 X11.9273 Z-0.1203 F6.1
G1 X11.9282 Z-0.1229
G1 X11.9297 Z-0.1253
G1 X11.9317 Z-0.1273
G1 X11.9341 Z-0.1288
G1 X11.9367 Z-0.1297
G1 X11.9395 Z-0.13
G1 X11.952
G3 X11.9645 Y2.125 I0 J0.0125
G3 X11.7415 Y2.348 I-0.223 J0
G3 X11.5185 Y2.125 I0 J-0.223
G3 X11.7415 Y1.902 I0.223 J0
G3 X11.9645 Y2.125 I0 J0.223
G3 X11.952 Y2.1375 I-0.0125 J0
G1 X11.9395
G1 X11.9367 Z-0.1297
G1 X11.9341 Z-0.1288
G1 X11.9317 Z-0.1273
G1 X11.9297 Z-0.1253
G1 X11.9282 Z-0.1229
G1 X11.9273 Z-0.1203
G1 X11.927 Z-0.1175
G0 Z0.2
G0 Y2.1125
G1 Z-0.0744 F30.
G1 Z-0.1338
G1 X11.9273 Z-0.1365 F6.1
G1 X11.9282 Z-0.1392
G1 X11.9297 Z-0.1415
G1 X11.9317 Z-0.1435
G1 X11.9341 Z-0.145
G1 X11.9367 Z-0.1459
G1 X11.9395 Z-0.1463
G1 X11.952
G3 X11.9645 Y2.125 I0 J0.0125
G3 X11.7415 Y2.348 I-0.223 J0
G3 X11.5185 Y2.125 I0 J-0.223
G3 X11.7415 Y1.902 I0.223 J0
G3 X11.9645 Y2.125 I0 J0.223
G3 X11.952 Y2.1375 I-0.0125 J0
G1 X11.9395
G1 X11.9367 Z-0.1459
G1 X11.9341 Z-0.145
G1 X11.9317 Z-0.1435
G1 X11.9297 Z-0.1415
G1 X11.9282 Z-0.1392
G1 X11.9273 Z-0.1365
G1 X11.927 Z-0.1338
G0 Z0.2
G0 Y2.1125
G1 Z-0.0906 F30.
G1 Z-0.1438
G1 X11.9273 Z-0.1465 F6.1
G1 X11.9282 Z-0.1492
G1 X11.9297 Z-0.1515
G1 X11.9317 Z-0.1535
G1 X11.9341 Z-0.155
G1 X11.9367 Z-0.1559
G1 X11.9395 Z-0.1563
G1 X11.952
G3 X11.9645 Y2.125 I0 J0.0125
G3 X11.7415 Y2.348 I-0.223 J0
G3 X11.5185 Y2.125 I0 J-0.223
G3 X11.7415 Y1.902 I0.223 J0
G3 X11.9645 Y2.125 I0 J0.223
G3 X11.952 Y2.1375 I-0.0125 J0
G1 X11.9395
G1 X11.9367 Z-0.1559
G1 X11.9341 Z-0.155
G1 X11.9317 Z-0.1535
G1 X11.9297 Z-0.1515
G1 X11.9282 Z-0.1492
G1 X11.9273 Z-0.1465
G1 X11.927 Z-0.1438
G0 Z0.2
G0 X13.5447 Y2.4
G1 Z0.0556 F30.
G1 Z-0.0038
G1 Y2.4003 Z-0.0065 F6.1
G1 Y2.4012 Z-0.0092
G1 Y2.4027 Z-0.0115
G1 Y2.4047 Z-0.0135
G1 Y2.4071 Z-0.015
G1 Y2.4097 Z-0.0159
G1 Y2.4125 Z-0.0163
G1 Y2.425
G3 X13.5322 Y2.4375 I-0.0125 J0
G1 X12.342
G3 X12.2796 Y2.375 I0 J-0.0625
G3 X12.2844 Y2.351 I0.0625 J0
G2 X12.3288 Y2.0973 I-0.5429 J-0.226
G3 X12.3646 Y2.0379 I0.0624 J-0.0029
G1 X13.5885 Y1.4593
G3 X13.6643 Y1.4772 I0.0267 J0.0565
G2 X15.1562 Y1.6567 I0.8357 J-0.6562
G2 X15.3264 Y1.4888 I-0.6562 J-0.8357
G3 X15.4143 Y1.4795 I0.0486 J0.0393
G3 X15.4375 Y1.5281 I-0.0393 J0.0486
G1 Y2.375
G3 X15.375 Y2.4375 I-0.0625 J0
G1 X13.5322
G3 X13.5197 Y2.425 I0 J-0.0125
G1 Y2.4125
G1 Y2.4097 Z-0.0159
G1 Y2.4071 Z-0.015
G1 Y2.4047 Z-0.0135
G1 Y2.4027 Z-0.0115
G1 Y2.4012 Z-0.0092
G1 Y2.4003 Z-0.0065
G1 Y2.4 Z-0.0038
G0 Z0.2
G0 X13.5447
G1 Z0.0394 F30.
G1 Z-0.02
G1 Y2.4003 Z-0.0228 F6.1
G1 Y2.4012 Z-0.0254
G1 Y2.4027 Z-0.0278
G1 Y2.4047 Z-0.0298
G1 Y2.4071 Z-0.0313
G1 Y2.4097 Z-0.0322
G1 Y2.4125 Z-0.0325
G1 Y2.425
G3 X13.5322 Y2.4375 I-0.0125 J0
G1 X12.342
G3 X12.2796 Y2.375 I0 J-0.0625
G3 X12.2844 Y2.351 I0.0625 J0
G2 X12.3288 Y2.0973 I-0.5429 J-0.226
G3 X12.3646 Y2.0379 I0.0624 J-0.0029
G1 X13.5885 Y1.4593
G3 X13.6643 Y1.4772 I0.0267 J0.0565
G2 X15.1562 Y1.6567 I0.8357 J-0.6562
G2 X15.3264 Y1.4888 I-0.6562 J-0.8357
G3 X15.4143 Y1.4795 I0.0486 J0.0393
G3 X15.4375 Y1.5281 I-0.0393 J0.0486
G1 Y2.375
G3 X15.375 Y2.4375 I-0.0625 J0
G1 X13.5322
G3 X13.5197 Y2.425 I0 J-0.0125
G1 Y2.4125
G1 Y2.4097 Z-0.0322
G1 Y2.4071 Z-0.0313
G1 Y2.4047 Z-0.0298
G1 Y2.4027 Z-0.0278
G1 Y2.4012 Z-0.0254
G1 Y2.4003 Z-0.0228
G1 Y2.4 Z-0.02
G0 Z0.2
G0 X13.5447
G1 Z0.0231 F30.
G1 Z-0.0363
G1 Y2.4003 Z-0.039 F6.1
G1 Y2.4012 Z-0.0417
G1 Y2.4027 Z-0.044
G1 Y2.4047 Z-0.046
G1 Y2.4071 Z-0.0475
G1 Y2.4097 Z-0.0484
G1 Y2.4125 Z-0.0488
G1 Y2.425
G3 X13.5322 Y2.4375 I-0.0125 J0
G1 X12.342
G3 X12.2796 Y2.375 I0 J-0.0625
G3 X12.2844 Y2.351 I0.0625 J0
G2 X12.3288 Y2.0973 I-0.5429 J-0.226
G3 X12.3646 Y2.0379 I0.0624 J-0.0029
G1 X13.5885 Y1.4593
G3 X13.6643 Y1.4772 I0.0267 J0.0565
G2 X15.1562 Y1.6567 I0.8357 J-0.6562
G2 X15.3264 Y1.4888 I-0.6562 J-0.8357
G3 X15.4143 Y1.4795 I0.0486 J0.0393
G3 X15.4375 Y1.5281 I-0.0393 J0.0486
G1 Y2.375
G3 X15.375 Y2.4375 I-0.0625 J0
G1 X13.5322
G3 X13.5197 Y2.425 I0 J-0.0125
G1 Y2.4125
G1 Y2.4097 Z-0.0484
G1 Y2.4071 Z-0.0475
G1 Y2.4047 Z-0.046
G1 Y2.4027 Z-0.044
G1 Y2.4012 Z-0.0417
G1 Y2.4003 Z-0.039
G1 Y2.4 Z-0.0363
G0 Z0.2
G0 X13.5447
G1 Z0.0069 F30.
G1 Z-0.0525
G1 Y2.4003 Z-0.0553 F6.1
G1 Y2.4012 Z-0.0579
G1 Y2.4027 Z-0.0603
G1 Y2.4047 Z-0.0623
G1 Y2.4071 Z-0.0638
G1 Y2.4097 Z-0.0647
G1 Y2.4125 Z-0.065
G1 Y2.425
G3 X13.5322 Y2.4375 I-0.0125 J0
G1 X12.342
G3 X12.2796 Y2.375 I0 J-0.0625
G3 X12.2844 Y2.351 I0.0625 J0
G2 X12.3288 Y2.0973 I-0.5429 J-0.226
G3 X12.3646 Y2.0379 I0.0624 J-0.0029
G1 X13.5885 Y1.4593
G3 X13.6643 Y1.4772 I0.0267 J0.0565
G2 X15.1562 Y1.6567 I0.8357 J-0.6562
G2 X15.3264 Y1.4888 I-0.6562 J-0.8357
G3 X15.4143 Y1.4795 I0.0486 J0.0393
G3 X15.4375 Y1.5281 I-0.0393 J0.0486
G1 Y2.375
G3 X15.375 Y2.4375 I-0.0625 J0
G1 X13.5322
G3 X13.5197 Y2.425 I0 J-0.0125
G1 Y2.4125
G1 Y2.4097 Z-0.0647
G1 Y2.4071 Z-0.0638
G1 Y2.4047 Z-0.0623
G1 Y2.4027 Z-0.0603
G1 Y2.4012 Z-0.0579
G1 Y2.4003 Z-0.0553
G1 Y2.4 Z-0.0525
G0 Z0.2
G0 X13.5447
G1 Z-0.0094 F30.
G1 Z-0.0688
G1 Y2.4003 Z-0.0715 F6.1
G1 Y2.4012 Z-0.0742
G1 Y2.4027 Z-0.0765
G1 Y2.4047 Z-0.0785
G1 Y2.4071 Z-0.08
G1 Y2.4097 Z-0.0809
G1 Y2.4125 Z-0.0813
G1 Y2.425
G3 X13.5322 Y2.4375 I-0.0125 J0
G1 X12.342
G3 X12.2796 Y2.375 I0 J-0.0625
G3 X12.2844 Y2.351 I0.0625 J0
G2 X12.3288 Y2.0973 I-0.5429 J-0.226
G3 X12.3646 Y2.0379 I0.0624 J-0.0029
G1 X13.5885 Y1.4593
G3 X13.6643 Y1.4772 I0.0267 J0.0565
G2 X15.1562 Y1.6567 I0.8357 J-0.6562
G2 X15.3264 Y1.4888 I-0.6562 J-0.8357
G3 X15.4143 Y1.4795 I0.0486 J0.0393
G3 X15.4375 Y1.5281 I-0.0393 J0.0486
G1 Y2.375
G3 X15.375 Y2.4375 I-0.0625 J0
G1 X13.5322
G3 X13.5197 Y2.425 I0 J-0.0125
G1 Y2.4125
G1 Y2.4097 Z-0.0809
G1 Y2.4071 Z-0.08
G1 Y2.4047 Z-0.0785
G1 Y2.4027 Z-0.0765
G1 Y2.4012 Z-0.0742
G1 Y2.4003 Z-0.0715
G1 Y2.4 Z-0.0688
G0 Z0.2
G0 X13.5447
G1 Z-0.0256 F30.
G1 Z-0.085
G1 Y2.4003 Z-0.0878 F6.1
G1 Y2.4012 Z-0.0904
G1 Y2.4027 Z-0.0928
G1 Y2.4047 Z-0.0948
G1 Y2.4071 Z-0.0963
G1 Y2.4097 Z-0.0972
G1 Y2.4125 Z-0.0975
G1 Y2.425
G3 X13.5322 Y2.4375 I-0.0125 J0
G1 X12.342
G3 X12.2796 Y2.375 I0 J-0.0625
G3 X12.2844 Y2.351 I0.0625 J0
G2 X12.3288 Y2.0973 I-0.5429 J-0.226
G3 X12.3646 Y2.0379 I0.0624 J-0.0029
G1 X13.5885 Y1.4593
G3 X13.6643 Y1.4772 I0.0267 J0.0565
G2 X15.1562 Y1.6567 I0.8357 J-0.6562
G2 X15.3264 Y1.4888 I-0.6562 J-0.8357
G3 X15.4143 Y1.4795 I0.0486 J0.0393
G3 X15.4375 Y1.5281 I-0.0393 J0.0486
G1 Y2.375
G3 X15.375 Y2.4375 I-0.0625 J0
G1 X13.5322
G3 X13.5197 Y2.425 I0 J-0.0125
G1 Y2.4125
G1 Y2.4097 Z-0.0972
G1 Y2.4071 Z-0.0963
G1 Y2.4047 Z-0.0948
G1 Y2.4027 Z-0.0928
G1 Y2.4012 Z-0.0904
G1 Y2.4003 Z-0.0878
G1 Y2.4 Z-0.085
G0 Z0.2
G0 X13.5447
G1 Z-0.0419 F30.
G1 Z-0.1013
G1 Y2.4003 Z-0.104 F6.1
G1 Y2.4012 Z-0.1067
G1 Y2.4027 Z-0.109
G1 Y2.4047 Z-0.111
G1 Y2.4071 Z-0.1125
G1 Y2.4097 Z-0.1134
G1 Y2.4125 Z-0.1138
G1 Y2.425
G3 X13.5322 Y2.4375 I-0.0125 J0
G1 X12.342
G3 X12.2796 Y2.375 I0 J-0.0625
G3 X12.2844 Y2.351 I0.0625 J0
G2 X12.3288 Y2.0973 I-0.5429 J-0.226
G3 X12.3646 Y2.0379 I0.0624 J-0.0029
G1 X13.5885 Y1.4593
G3 X13.6643 Y1.4772 I0.0267 J0.0565
G2 X15.1562 Y1.6567 I0.8357 J-0.6562
G2 X15.3264 Y1.4888 I-0.6562 J-0.8357
G3 X15.4143 Y1.4795 I0.0486 J0.0393
G3 X15.4375 Y1.5281 I-0.0393 J0.0486
G1 Y2.375
G3 X15.375 Y2.4375 I-0.0625 J0
G1 X13.5322
G3 X13.5197 Y2.425 I0 J-0.0125
G1 Y2.4125
G1 Y2.4097 Z-0.1134
G1 Y2.4071 Z-0.1125
G1 Y2.4047 Z-0.111
G1 Y2.4027 Z-0.109
G1 Y2.4012 Z-0.1067
G1 Y2.4003 Z-0.104
G1 Y2.4 Z-0.1013
G0 Z0.2
G0 X13.5447
G1 Z-0.0581 F30.
G1 Z-0.1175
G1 Y2.4003 Z-0.1203 F6.1
G1 Y2.4012 Z-0.1229
G1 Y2.4027 Z-0.1253
G1 Y2.4047 Z-0.1273
G1 Y2.4071 Z-0.1288
G1 Y2.4097 Z-0.1297
G1 Y2.4125 Z-0.13
G1 Y2.425
G3 X13.5322 Y2.4375 I-0.0125 J0
G1 X12.342
G3 X12.2796 Y2.375 I0 J-0.0625
G3 X12.2844 Y2.351 I0.0625 J0
G2 X12.3288 Y2.0973 I-0.5429 J-0.226
G3 X12.3646 Y2.0379 I0.0624 J-0.0029
G1 X13.5885 Y1.4593
G3 X13.6643 Y1.4772 I0.0267 J0.0565
G2 X15.1562 Y1.6567 I0.8357 J-0.6562
G2 X15.3264 Y1.4888 I-0.6562 J-0.8357
G3 X15.4143 Y1.4795 I0.0486 J0.0393
G3 X15.4375 Y1.5281 I-0.0393 J0.0486
G1 Y2.375
G3 X15.375 Y2.4375 I-0.0625 J0
G1 X13.5322
G3 X13.5197 Y2.425 I0 J-0.0125
G1 Y2.4125
G1 Y2.4097 Z-0.1297
G1 Y2.4071 Z-0.1288
G1 Y2.4047 Z-0.1273
G1 Y2.4027 Z-0.1253
G1 Y2.4012 Z-0.1229
G1 Y2.4003 Z-0.1203
G1 Y2.4 Z-0.1175
G0 Z0.2
G0 X13.5447
G1 Z-0.0744 F30.
G1 Z-0.1338
G1 Y2.4003 Z-0.1365 F6.1
G1 Y2.4012 Z-0.1392
G1 Y2.4027 Z-0.1415
G1 Y2.4047 Z-0.1435
G1 Y2.4071 Z-0.145
G1 Y2.4097 Z-0.1459
G1 Y2.4125 Z-0.1463
G1 Y2.425
G3 X13.5322 Y2.4375 I-0.0125 J0
G1 X12.342
G3 X12.2796 Y2.375 I0 J-0.0625
G3 X12.2844 Y2.351 I0.0625 J0
G2 X12.3288 Y2.0973 I-0.5429 J-0.226
G3 X12.3646 Y2.0379 I0.0624 J-0.0029
G1 X13.5885 Y1.4593
G3 X13.6643 Y1.4772 I0.0267 J0.0565
G2 X15.1562 Y1.6567 I0.8357 J-0.6562
G2 X15.3264 Y1.4888 I-0.6562 J-0.8357
G3 X15.4143 Y1.4795 I0.0486 J0.0393
G3 X15.4375 Y1.5281 I-0.0393 J0.0486
G1 Y2.375
G3 X15.375 Y2.4375 I-0.0625 J0
G1 X13.5322
G3 X13.5197 Y2.425 I0 J-0.0125
G1 Y2.4125
G1 Y2.4097 Z-0.1459
G1 Y2.4071 Z-0.145
G1 Y2.4047 Z-0.1435
G1 Y2.4027 Z-0.1415
G1 Y2.4012 Z-0.1392
G1 Y2.4003 Z-0.1365
G1 Y2.4 Z-0.1338
G0 Z0.2
G0 X13.5447
G1 Z-0.0906 F30.
G1 Z-0.1438
G1 Y2.4003 Z-0.1465 F6.1
G1 Y2.4012 Z-0.1492
G1 Y2.4027 Z-0.1515
G1 Y2.4047 Z-0.1535
G1 Y2.4071 Z-0.155
G1 Y2.4097 Z-0.1559
G1 Y2.4125 Z-0.1563
G1 Y2.425
G3 X13.5322 Y2.4375 I-0.0125 J0
G1 X12.342
G3 X12.2796 Y2.375 I0 J-0.0625
G3 X12.2844 Y2.351 I0.0625 J0
G2 X12.3288 Y2.0973 I-0.5429 J-0.226
G3 X12.3646 Y2.0379 I0.0624 J-0.0029
G1 X13.5885 Y1.4593
G3 X13.6643 Y1.4772 I0.0267 J0.0565
G2 X15.1562 Y1.6567 I0.8357 J-0.6562
G2 X15.3264 Y1.4888 I-0.6562 J-0.8357
G3 X15.4143 Y1.4795 I0.0486 J0.0393
G3 X15.4375 Y1.5281 I-0.0393 J0.0486
G1 Y2.375
G3 X15.375 Y2.4375 I-0.0625 J0
G1 X13.5322
G3 X13.5197 Y2.425 I0 J-0.0125
G1 Y2.4125
G1 Y2.4097 Z-0.1559
G1 Y2.4071 Z-0.155
G1 Y2.4047 Z-0.1535
G1 Y2.4027 Z-0.1515
G1 Y2.4012 Z-0.1492
G1 Y2.4003 Z-0.1465
G1 Y2.4 Z-0.1438
G0 Z0.2
G0 X14.971 Y0.8085
G1 Z0.0556 F30.
G1 Z-0.0038
G1 X14.9713 Z-0.0065 F6.1
G1 X14.9722 Z-0.0092
G1 X14.9737 Z-0.0115
G1 X14.9757 Z-0.0135
G1 X14.9781 Z-0.015
G1 X14.9807 Z-0.0159
G1 X14.9835 Z-0.0163
G1 X14.996
G3 X15.0085 Y0.821 I0 J0.0125
G3 X14.5 Y1.3295 I-0.5085 J0
G3 X13.9915 Y0.821 I0 J-0.5085
G3 X14.5 Y0.3125 I0.5085 J0
G3 X15.0085 Y0.821 I0 J0.5085
G3 X14.996 Y0.8335 I-0.0125 J0
G1 X14.9835
G1 X14.9807 Z-0.0159
G1 X14.9781 Z-0.015
G1 X14.9757 Z-0.0135
G1 X14.9737 Z-0.0115
G1 X14.9722 Z-0.0092
G1 X14.9713 Z-0.0065
G1 X14.971 Z-0.0038
G0 Z0.2
G0 Y0.8085
G1 Z0.0394 F30.
G1 Z-0.02
G1 X14.9713 Z-0.0228 F6.1
G1 X14.9722 Z-0.0254
G1 X14.9737 Z-0.0278
G1 X14.9757 Z-0.0298
G1 X14.9781 Z-0.0313
G1 X14.9807 Z-0.0322
G1 X14.9835 Z-0.0325
G1 X14.996
G3 X15.0085 Y0.821 I0 J0.0125
G3 X14.5 Y1.3295 I-0.5085 J0
G3 X13.9915 Y0.821 I0 J-0.5085
G3 X14.5 Y0.3125 I0.5085 J0
G3 X15.0085 Y0.821 I0 J0.5085
G3 X14.996 Y0.8335 I-0.0125 J0
G1 X14.9835
G1 X14.9807 Z-0.0322
G1 X14.9781 Z-0.0313
G1 X14.9757 Z-0.0298
G1 X14.9737 Z-0.0278
G1 X14.9722 Z-0.0254
G1 X14.9713 Z-0.0228
G1 X14.971 Z-0.02
G0 Z0.2
G0 Y0.8085
G1 Z0.0231 F30.
G1 Z-0.0363
G1 X14.9713 Z-0.039 F6.1
G1 X14.9722 Z-0.0417
G1 X14.9737 Z-0.044
G1 X14.9757 Z-0.046
G1 X14.9781 Z-0.0475
G1 X14.9807 Z-0.0484
G1 X14.9835 Z-0.0488
G1 X14.996
G3 X15.0085 Y0.821 I0 J0.0125
G3 X14.5 Y1.3295 I-0.5085 J0
G3 X13.9915 Y0.821 I0 J-0.5085
G3 X14.5 Y0.3125 I0.5085 J0
G3 X15.0085 Y0.821 I0 J0.5085
G3 X14.996 Y0.8335 I-0.0125 J0
G1 X14.9835
G1 X14.9807 Z-0.0484
G1 X14.9781 Z-0.0475
G1 X14.9757 Z-0.046
G1 X14.9737 Z-0.044
G1 X14.9722 Z-0.0417
G1 X14.9713 Z-0.039
G1 X14.971 Z-0.0363
G0 Z0.2
G0 Y0.8085
G1 Z0.0069 F30.
G1 Z-0.0525
G1 X14.9713 Z-0.0553 F6.1
G1 X14.9722 Z-0.0579
G1 X14.9737 Z-0.0603
G1 X14.9757 Z-0.0623
G1 X14.9781 Z-0.0638
G1 X14.9807 Z-0.0647
G1 X14.9835 Z-0.065
G1 X14.996
G3 X15.0085 Y0.821 I0 J0.0125
G3 X14.5 Y1.3295 I-0.5085 J0
G3 X13.9915 Y0.821 I0 J-0.5085
G3 X14.5 Y0.3125 I0.5085 J0
G3 X15.0085 Y0.821 I0 J0.5085
G3 X14.996 Y0.8335 I-0.0125 J0
G1 X14.9835
G1 X14.9807 Z-0.0647
G1 X14.9781 Z-0.0638
G1 X14.9757 Z-0.0623
G1 X14.9737 Z-0.0603
G1 X14.9722 Z-0.0579
G1 X14.9713 Z-0.0553
G1 X14.971 Z-0.0525
G0 Z0.2
G0 Y0.8085
G1 Z-0.0094 F30.
G1 Z-0.0688
G1 X14.9713 Z-0.0715 F6.1
G1 X14.9722 Z-0.0742
G1 X14.9737 Z-0.0765
G1 X14.9757 Z-0.0785
G1 X14.9781 Z-0.08
G1 X14.9807 Z-0.0809
G1 X14.9835 Z-0.0813
G1 X14.996
G3 X15.0085 Y0.821 I0 J0.0125
G3 X14.5 Y1.3295 I-0.5085 J0
G3 X13.9915 Y0.821 I0 J-0.5085
G3 X14.5 Y0.3125 I0.5085 J0
G3 X15.0085 Y0.821 I0 J0.5085
G3 X14.996 Y0.8335 I-0.0125 J0
G1 X14.9835
G1 X14.9807 Z-0.0809
G1 X14.9781 Z-0.08
G1 X14.9757 Z-0.0785
G1 X14.9737 Z-0.0765
G1 X14.9722 Z-0.0742
G1 X14.9713 Z-0.0715
G1 X14.971 Z-0.0688
G0 Z0.2
G0 Y0.8085
G1 Z-0.0256 F30.
G1 Z-0.085
G1 X14.9713 Z-0.0878 F6.1
G1 X14.9722 Z-0.0904
G1 X14.9737 Z-0.0928
G1 X14.9757 Z-0.0948
G1 X14.9781 Z-0.0963
G1 X14.9807 Z-0.0972
G1 X14.9835 Z-0.0975
G1 X14.996
G3 X15.0085 Y0.821 I0 J0.0125
G3 X14.5 Y1.3295 I-0.5085 J0
G3 X13.9915 Y0.821 I0 J-0.5085
G3 X14.5 Y0.3125 I0.5085 J0
G3 X15.0085 Y0.821 I0 J0.5085
G3 X14.996 Y0.8335 I-0.0125 J0
G1 X14.9835
G1 X14.9807 Z-0.0972
G1 X14.9781 Z-0.0963
G1 X14.9757 Z-0.0948
G1 X14.9737 Z-0.0928
G1 X14.9722 Z-0.0904
G1 X14.9713 Z-0.0878
G1 X14.971 Z-0.085
G0 Z0.2
G0 Y0.8085
G1 Z-0.0419 F30.
G1 Z-0.1013
G1 X14.9713 Z-0.104 F6.1
G1 X14.9722 Z-0.1067
G1 X14.9737 Z-0.109
G1 X14.9757 Z-0.111
G1 X14.9781 Z-0.1125
G1 X14.9807 Z-0.1134
G1 X14.9835 Z-0.1138
G1 X14.996
G3 X15.0085 Y0.821 I0 J0.0125
G3 X14.5 Y1.3295 I-0.5085 J0
G3 X13.9915 Y0.821 I0 J-0.5085
G3 X14.5 Y0.3125 I0.5085 J0
G3 X15.0085 Y0.821 I0 J0.5085
G3 X14.996 Y0.8335 I-0.0125 J0
G1 X14.9835
G1 X14.9807 Z-0.1134
G1 X14.9781 Z-0.1125
G1 X14.9757 Z-0.111
G1 X14.9737 Z-0.109
G1 X14.9722 Z-0.1067
G1 X14.9713 Z-0.104
G1 X14.971 Z-0.1013
G0 Z0.2
G0 Y0.8085
G1 Z-0.0581 F30.
G1 Z-0.1175
G1 X14.9713 Z-0.1203 F6.1
G1 X14.9722 Z-0.1229
G1 X14.9737 Z-0.1253
G1 X14.9757 Z-0.1273
G1 X14.9781 Z-0.1288
G1 X14.9807 Z-0.1297
G1 X14.9835 Z-0.13
G1 X14.996
G3 X15.0085 Y0.821 I0 J0.0125
G3 X14.5 Y1.3295 I-0.5085 J0
G3 X13.9915 Y0.821 I0 J-0.5085
G3 X14.5 Y0.3125 I0.5085 J0
G3 X15.0085 Y0.821 I0 J0.5085
G3 X14.996 Y0.8335 I-0.0125 J0
G1 X14.9835
G1 X14.9807 Z-0.1297
G1 X14.9781 Z-0.1288
G1 X14.9757 Z-0.1273
G1 X14.9737 Z-0.1253
G1 X14.9722 Z-0.1229
G1 X14.9713 Z-0.1203
G1 X14.971 Z-0.1175
G0 Z0.2
G0 Y0.8085
G1 Z-0.0744 F30.
G1 Z-0.1338
G1 X14.9713 Z-0.1365 F6.1
G1 X14.9722 Z-0.1392
G1 X14.9737 Z-0.1415
G1 X14.9757 Z-0.1435
G1 X14.9781 Z-0.145
G1 X14.9807 Z-0.1459
G1 X14.9835 Z-0.1463
G1 X14.996
G3 X15.0085 Y0.821 I0 J0.0125
G3 X14.5 Y1.3295 I-0.5085 J0
G3 X13.9915 Y0.821 I0 J-0.5085
G3 X14.5 Y0.3125 I0.5085 J0
G3 X15.0085 Y0.821 I0 J0.5085
G3 X14.996 Y0.8335 I-0.0125 J0
G1 X14.9835
G1 X14.9807 Z-0.1459
G1 X14.9781 Z-0.145
G1 X14.9757 Z-0.1435
G1 X14.9737 Z-0.1415
G1 X14.9722 Z-0.1392
G1 X14.9713 Z-0.1365
G1 X14.971 Z-0.1338
G0 Z0.2
G0 Y0.8085
G1 Z-0.0906 F30.
G1 Z-0.1438
G1 X14.9713 Z-0.1465 F6.1
G1 X14.9722 Z-0.1492
G1 X14.9737 Z-0.1515
G1 X14.9757 Z-0.1535
G1 X14.9781 Z-0.155
G1 X14.9807 Z-0.1559
G1 X14.9835 Z-0.1563
G1 X14.996
G3 X15.0085 Y0.821 I0 J0.0125
G3 X14.5 Y1.3295 I-0.5085 J0
G3 X13.9915 Y0.821 I0 J-0.5085
G3 X14.5 Y0.3125 I0.5085 J0
G3 X15.0085 Y0.821 I0 J0.5085
G3 X14.996 Y0.8335 I-0.0125 J0
G1 X14.9835
G1 X14.9807 Z-0.1559
G1 X14.9781 Z-0.155
G1 X14.9757 Z-0.1535
G1 X14.9737 Z-0.1515
G1 X14.9722 Z-0.1492
G1 X14.9713 Z-0.1465
G1 X14.971 Z-0.1438
G0 Z0.2
G0 X7.5048 Y1.8416
G1 Z0.0556 F30.
G1 Z-0.0038
G1 Y1.8413 Z-0.0065 F6.1
G1 X7.5049 Y1.8404 Z-0.0092
G1 X7.5051 Y1.8389 Z-0.0115
G1 X7.5053 Y1.8369 Z-0.0135
G1 X7.5056 Y1.8346 Z-0.015
G1 X7.5059 Y1.8319 Z-0.0159
G1 X7.5063 Y1.8292 Z-0.0163
G1 X7.5078 Y1.8168
G3 X7.5125 Y1.8084 I0.0124 J0.0015
G3 X7.5217 Y1.8059 I0.0077 J0.0098
G1 X11.1228 Y2.2394
G3 X11.1756 Y2.2845 I-0.0075 J0.0621
G2 X11.1987 Y2.351 I0.5659 J-0.1595
G3 X11.165 Y2.4327 I-0.0577 J0.024
G3 X11.141 Y2.4375 I-0.024 J-0.0577
G1 X2.8023
G3 X2.7398 Y2.375 I0 J-0.0625
G3 X2.7922 Y2.3133 I0.0625 J0
G1 X5.8004 Y1.819
G3 X5.8665 Y1.8528 I0.0101 J0.0617
G2 X6.9205 Y2.2062 I0.7037 J-0.3503
G2 X7.2883 Y1.8222 I-0.3503 J-0.7037
G3 X7.3529 Y1.7855 I0.0571 J0.0254
G1 X7.5217 Y1.8059
G3 X7.5326 Y1.8198 I-0.0015 J0.0124
G1 X7.5311 Y1.8322
G1 X7.5308 Y1.8349 Z-0.0159
G1 X7.5305 Y1.8376 Z-0.015
G1 X7.5302 Y1.8399 Z-0.0135
G1 X7.5299 Y1.8419 Z-0.0115
G1 X7.5298 Y1.8434 Z-0.0092
G1 X7.5296 Y1.8443 Z-0.0065
G1 Y1.8446 Z-0.0038
G0 Z0.2
G0 X7.5048 Y1.8416
G1 Z0.0394 F30.
G1 Z-0.02
G1 Y1.8413 Z-0.0228 F6.1
G1 X7.5049 Y1.8404 Z-0.0254
G1 X7.5051 Y1.8389 Z-0.0278
G1 X7.5053 Y1.8369 Z-0.0298
G1 X7.5056 Y1.8346 Z-0.0313
G1 X7.5059 Y1.8319 Z-0.0322
G1 X7.5063 Y1.8292 Z-0.0325
G1 X7.5078 Y1.8168
G3 X7.5125 Y1.8084 I0.0124 J0.0015
G3 X7.5217 Y1.8059 I0.0077 J0.0098
G1 X11.1228 Y2.2394
G3 X11.1756 Y2.2845 I-0.0075 J0.0621
G2 X11.1987 Y2.351 I0.5659 J-0.1595
G3 X11.165 Y2.4327 I-0.0577 J0.024
G3 X11.141 Y2.4375 I-0.024 J-0.0577
G1 X2.8023
G3 X2.7398 Y2.375 I0 J-0.0625
G3 X2.7922 Y2.3133 I0.0625 J0
G1 X5.8004 Y1.819
G3 X5.8665 Y1.8528 I0.0101 J0.0617
G2 X6.9205 Y2.2062 I0.7037 J-0.3503
G2 X7.2883 Y1.8222 I-0.3503 J-0.7037
G3 X7.3529 Y1.7855 I0.0571 J0.0254
G1 X7.5217 Y1.8059
G3 X7.5326 Y1.8198 I-0.0015 J0.0124
G1 X7.5311 Y1.8322
G1 X7.5308 Y1.8349 Z-0.0322
G1 X7.5305 Y1.8376 Z-0.0313
G1 X7.5302 Y1.8399 Z-0.0298
G1 X7.5299 Y1.8419 Z-0.0278
G1 X7.5298 Y1.8434 Z-0.0254
G1 X7.5296 Y1.8443 Z-0.0228
G1 Y1.8446 Z-0.02
G0 Z0.2
G0 X7.5048 Y1.8416
G1 Z0.0231 F30.
G1 Z-0.0363
G1 Y1.8413 Z-0.039 F6.1
G1 X7.5049 Y1.8404 Z-0.0417
G1 X7.5051 Y1.8389 Z-0.044
G1 X7.5053 Y1.8369 Z-0.046
G1 X7.5056 Y1.8346 Z-0.0475
G1 X7.5059 Y1.8319 Z-0.0484
G1 X7.5063 Y1.8292 Z-0.0488
G1 X7.5078 Y1.8168
G3 X7.5125 Y1.8084 I0.0124 J0.0015
G3 X7.5217 Y1.8059 I0.0077 J0.0098
G1 X11.1228 Y2.2394
G3 X11.1756 Y2.2845 I-0.0075 J0.0621
G2 X11.1987 Y2.351 I0.5659 J-0.1595
G3 X11.165 Y2.4327 I-0.0577 J0.024
G3 X11.141 Y2.4375 I-0.024 J-0.0577
G1 X2.8023
G3 X2.7398 Y2.375 I0 J-0.0625
G3 X2.7922 Y2.3133 I0.0625 J0
G1 X5.8004 Y1.819
G3 X5.8665 Y1.8528 I0.0101 J0.0617
G2 X6.9205 Y2.2062 I0.7037 J-0.3503
G2 X7.2883 Y1.8222 I-0.3503 J-0.7037
G3 X7.3529 Y1.7855 I0.0571 J0.0254
G1 X7.5217 Y1.8059
G3 X7.5326 Y1.8198 I-0.0015 J0.0124
G1 X7.5311 Y1.8322
G1 X7.5308 Y1.8349 Z-0.0484
G1 X7.5305 Y1.8376 Z-0.0475
G1 X7.5302 Y1.8399 Z-0.046
G1 X7.5299 Y1.8419 Z-0.044
G1 X7.5298 Y1.8434 Z-0.0417
G1 X7.5296 Y1.8443 Z-0.039
G1 Y1.8446 Z-0.0363
G0 Z0.2
G0 X7.5048 Y1.8416
G1 Z0.0069 F30.
G1 Z-0.0525
G1 Y1.8413 Z-0.0553 F6.1
G1 X7.5049 Y1.8404 Z-0.0579
G1 X7.5051 Y1.8389 Z-0.0603
G1 X7.5053 Y1.8369 Z-0.0623
G1 X7.5056 Y1.8346 Z-0.0638
G1 X7.5059 Y1.8319 Z-0.0647
G1 X7.5063 Y1.8292 Z-0.065
G1 X7.5078 Y1.8168
G3 X7.5125 Y1.8084 I0.0124 J0.0015
G3 X7.5217 Y1.8059 I0.0077 J0.0098
G1 X11.1228 Y2.2394
G3 X11.1756 Y2.2845 I-0.0075 J0.0621
G2 X11.1987 Y2.351 I0.5659 J-0.1595
G3 X11.165 Y2.4327 I-0.0577 J0.024
G3 X11.141 Y2.4375 I-0.024 J-0.0577
G1 X2.8023
G3 X2.7398 Y2.375 I0 J-0.0625
G3 X2.7922 Y2.3133 I0.0625 J0
G1 X5.8004 Y1.819
G3 X5.8665 Y1.8528 I0.0101 J0.0617
G2 X6.9205 Y2.2062 I0.7037 J-0.3503
G2 X7.2883 Y1.8222 I-0.3503 J-0.7037
G3 X7.3529 Y1.7855 I0.0571 J0.0254
G1 X7.5217 Y1.8059
G3 X7.5326 Y1.8198 I-0.0015 J0.0124
G1 X7.5311 Y1.8322
G1 X7.5308 Y1.8349 Z-0.0647
G1 X7.5305 Y1.8376 Z-0.0638
G1 X7.5302 Y1.8399 Z-0.0623
G1 X7.5299 Y1.8419 Z-0.0603
G1 X7.5298 Y1.8434 Z-0.0579
G1 X7.5296 Y1.8443 Z-0.0553
G1 Y1.8446 Z-0.0525
G0 Z0.2
G0 X7.5048 Y1.8416
G1 Z-0.0094 F30.
G1 Z-0.0688
G1 Y1.8413 Z-0.0715 F6.1
G1 X7.5049 Y1.8404 Z-0.0742
G1 X7.5051 Y1.8389 Z-0.0765
G1 X7.5053 Y1.8369 Z-0.0785
G1 X7.5056 Y1.8346 Z-0.08
G1 X7.5059 Y1.8319 Z-0.0809
G1 X7.5063 Y1.8292 Z-0.0813
G1 X7.5078 Y1.8168
G3 X7.5125 Y1.8084 I0.0124 J0.0015
G3 X7.5217 Y1.8059 I0.0077 J0.0098
G1 X11.1228 Y2.2394
G3 X11.1756 Y2.2845 I-0.0075 J0.0621
G2 X11.1987 Y2.351 I0.5659 J-0.1595
G3 X11.165 Y2.4327 I-0.0577 J0.024
G3 X11.141 Y2.4375 I-0.024 J-0.0577
G1 X2.8023
G3 X2.7398 Y2.375 I0 J-0.0625
G3 X2.7922 Y2.3133 I0.0625 J0
G1 X5.8004 Y1.819
G3 X5.8665 Y1.8528 I0.0101 J0.0617
G2 X6.9205 Y2.2062 I0.7037 J-0.3503
G2 X7.2883 Y1.8222 I-0.3503 J-0.7037
G3 X7.3529 Y1.7855 I0.0571 J0.0254
G1 X7.5217 Y1.8059
G3 X7.5326 Y1.8198 I-0.0015 J0.0124
G1 X7.5311 Y1.8322
G1 X7.5308 Y1.8349 Z-0.0809
G1 X7.5305 Y1.8376 Z-0.08
G1 X7.5302 Y1.8399 Z-0.0785
G1 X7.5299 Y1.8419 Z-0.0765
G1 X7.5298 Y1.8434 Z-0.0742
G1 X7.5296 Y1.8443 Z-0.0715
G1 Y1.8446 Z-0.0688
G0 Z0.2
G0 X7.5048 Y1.8416
G1 Z-0.0256 F30.
G1 Z-0.085
G1 Y1.8413 Z-0.0878 F6.1
G1 X7.5049 Y1.8404 Z-0.0904
G1 X7.5051 Y1.8389 Z-0.0928
G1 X7.5053 Y1.8369 Z-0.0948
G1 X7.5056 Y1.8346 Z-0.0963
G1 X7.5059 Y1.8319 Z-0.0972
G1 X7.5063 Y1.8292 Z-0.0975
G1 X7.5078 Y1.8168
G3 X7.5125 Y1.8084 I0.0124 J0.0015
G3 X7.5217 Y1.8059 I0.0077 J0.0098
G1 X11.1228 Y2.2394
G3 X11.1756 Y2.2845 I-0.0075 J0.0621
G2 X11.1987 Y2.351 I0.5659 J-0.1595
G3 X11.165 Y2.4327 I-0.0577 J0.024
G3 X11.141 Y2.4375 I-0.024 J-0.0577
G1 X2.8023
G3 X2.7398 Y2.375 I0 J-0.0625
G3 X2.7922 Y2.3133 I0.0625 J0
G1 X5.8004 Y1.819
G3 X5.8665 Y1.8528 I0.0101 J0.0617
G2 X6.9205 Y2.2062 I0.7037 J-0.3503
G2 X7.2883 Y1.8222 I-0.3503 J-0.7037
G3 X7.3529 Y1.7855 I0.0571 J0.0254
G1 X7.5217 Y1.8059
G3 X7.5326 Y1.8198 I-0.0015 J0.0124
G1 X7.5311 Y1.8322
G1 X7.5308 Y1.8349 Z-0.0972
G1 X7.5305 Y1.8376 Z-0.0963
G1 X7.5302 Y1.8399 Z-0.0948
G1 X7.5299 Y1.8419 Z-0.0928
G1 X7.5298 Y1.8434 Z-0.0904
G1 X7.5296 Y1.8443 Z-0.0878
G1 Y1.8446 Z-0.085
G0 Z0.2
G0 X7.5048 Y1.8416
G1 Z-0.0419 F30.
G1 Z-0.1013
G1 Y1.8413 Z-0.104 F6.1
G1 X7.5049 Y1.8404 Z-0.1067
G1 X7.5051 Y1.8389 Z-0.109
G1 X7.5053 Y1.8369 Z-0.111
G1 X7.5056 Y1.8346 Z-0.1125
G1 X7.5059 Y1.8319 Z-0.1134
G1 X7.5063 Y1.8292 Z-0.1138
G1 X7.5078 Y1.8168
G3 X7.5125 Y1.8084 I0.0124 J0.0015
G3 X7.5217 Y1.8059 I0.0077 J0.0098
G1 X11.1228 Y2.2394
G3 X11.1756 Y2.2845 I-0.0075 J0.0621
G2 X11.1987 Y2.351 I0.5659 J-0.1595
G3 X11.165 Y2.4327 I-0.0577 J0.024
G3 X11.141 Y2.4375 I-0.024 J-0.0577
G1 X2.8023
G3 X2.7398 Y2.375 I0 J-0.0625
G3 X2.7922 Y2.3133 I0.0625 J0
G1 X5.8004 Y1.819
G3 X5.8665 Y1.8528 I0.0101 J0.0617
G2 X6.9205 Y2.2062 I0.7037 J-0.3503
G2 X7.2883 Y1.8222 I-0.3503 J-0.7037
G3 X7.3529 Y1.7855 I0.0571 J0.0254
G1 X7.5217 Y1.8059
G3 X7.5326 Y1.8198 I-0.0015 J0.0124
G1 X7.5311 Y1.8322
G1 X7.5308 Y1.8349 Z-0.1134
G1 X7.5305 Y1.8376 Z-0.1125
G1 X7.5302 Y1.8399 Z-0.111
G1 X7.5299 Y1.8419 Z-0.109
G1 X7.5298 Y1.8434 Z-0.1067
G1 X7.5296 Y1.8443 Z-0.104
G1 Y1.8446 Z-0.1013
G0 Z0.2
G0 X7.5048 Y1.8416
G1 Z-0.0581 F30.
G1 Z-0.1175
G1 Y1.8413 Z-0.1203 F6.1
G1 X7.5049 Y1.8404 Z-0.1229
G1 X7.5051 Y1.8389 Z-0.1253
G1 X7.5053 Y1.8369 Z-0.1273
G1 X7.5056 Y1.8346 Z-0.1288
G1 X7.5059 Y1.8319 Z-0.1297
G1 X7.5063 Y1.8292 Z-0.13
G1 X7.5078 Y1.8168
G3 X7.5125 Y1.8084 I0.0124 J0.0015
G3 X7.5217 Y1.8059 I0.0077 J0.0098
G1 X11.1228 Y2.2394
G3 X11.1756 Y2.2845 I-0.0075 J0.0621
G2 X11.1987 Y2.351 I0.5659 J-0.1595
G3 X11.165 Y2.4327 I-0.0577 J0.024
G3 X11.141 Y2.4375 I-0.024 J-0.0577
G1 X2.8023
G3 X2.7398 Y2.375 I0 J-0.0625
G3 X2.7922 Y2.3133 I0.0625 J0
G1 X5.8004 Y1.819
G3 X5.8665 Y1.8528 I0.0101 J0.0617
G2 X6.9205 Y2.2062 I0.7037 J-0.3503
G2 X7.2883 Y1.8222 I-0.3503 J-0.7037
G3 X7.3529 Y1.7855 I0.0571 J0.0254
G1 X7.5217 Y1.8059
G3 X7.5326 Y1.8198 I-0.0015 J0.0124
G1 X7.5311 Y1.8322
G1 X7.5308 Y1.8349 Z-0.1297
G1 X7.5305 Y1.8376 Z-0.1288
G1 X7.5302 Y1.8399 Z-0.1273
G1 X7.5299 Y1.8419 Z-0.1253
G1 X7.5298 Y1.8434 Z-0.1229
G1 X7.5296 Y1.8443 Z-0.1203
G1 Y1.8446 Z-0.1175
G0 Z0.2
G0 X7.5048 Y1.8416
G1 Z-0.0744 F30.
G1 Z-0.1338
G1 Y1.8413 Z-0.1365 F6.1
G1 X7.5049 Y1.8404 Z-0.1392
G1 X7.5051 Y1.8389 Z-0.1415
G1 X7.5053 Y1.8369 Z-0.1435
G1 X7.5056 Y1.8346 Z-0.145
G1 X7.5059 Y1.8319 Z-0.1459
G1 X7.5063 Y1.8292 Z-0.1463
G1 X7.5078 Y1.8168
G3 X7.5125 Y1.8084 I0.0124 J0.0015
G3 X7.5217 Y1.8059 I0.0077 J0.0098
G1 X11.1228 Y2.2394
G3 X11.1756 Y2.2845 I-0.0075 J0.0621
G2 X11.1987 Y2.351 I0.5659 J-0.1595
G3 X11.165 Y2.4327 I-0.0577 J0.024
G3 X11.141 Y2.4375 I-0.024 J-0.0577
G1 X2.8023
G3 X2.7398 Y2.375 I0 J-0.0625
G3 X2.7922 Y2.3133 I0.0625 J0
G1 X5.8004 Y1.819
G3 X5.8665 Y1.8528 I0.0101 J0.0617
G2 X6.9205 Y2.2062 I0.7037 J-0.3503
G2 X7.2883 Y1.8222 I-0.3503 J-0.7037
G3 X7.3529 Y1.7855 I0.0571 J0.0254
G1 X7.5217 Y1.8059
G3 X7.5326 Y1.8198 I-0.0015 J0.0124
G1 X7.5311 Y1.8322
G1 X7.5308 Y1.8349 Z-0.1459
G1 X7.5305 Y1.8376 Z-0.145
G1 X7.5302 Y1.8399 Z-0.1435
G1 X7.5299 Y1.8419 Z-0.1415
G1 X7.5298 Y1.8434 Z-0.1392
G1 X7.5296 Y1.8443 Z-0.1365
G1 Y1.8446 Z-0.1338
G0 Z0.2
G0 X7.5048 Y1.8416
G1 Z-0.0906 F30.
G1 Z-0.1438
G1 Y1.8413 Z-0.1465 F6.1
G1 X7.5049 Y1.8404 Z-0.1492
G1 X7.5051 Y1.8389 Z-0.1515
G1 X7.5053 Y1.8369 Z-0.1535
G1 X7.5056 Y1.8346 Z-0.155
G1 X7.5059 Y1.8319 Z-0.1559
G1 X7.5063 Y1.8292 Z-0.1563
G1 X7.5078 Y1.8168
G3 X7.5125 Y1.8084 I0.0124 J0.0015
G3 X7.5217 Y1.8059 I0.0077 J0.0098
G1 X11.1228 Y2.2394
G3 X11.1756 Y2.2845 I-0.0075 J0.0621
G2 X11.1987 Y2.351 I0.5659 J-0.1595
G3 X11.165 Y2.4327 I-0.0577 J0.024
G3 X11.141 Y2.4375 I-0.024 J-0.0577
G1 X2.8023
G3 X2.7398 Y2.375 I0 J-0.0625
G3 X2.7922 Y2.3133 I0.0625 J0
G1 X5.8004 Y1.819
G3 X5.8665 Y1.8528 I0.0101 J0.0617
G2 X6.9205 Y2.2062 I0.7037 J-0.3503
G2 X7.2883 Y1.8222 I-0.3503 J-0.7037
G3 X7.3529 Y1.7855 I0.0571 J0.0254
G1 X7.5217 Y1.8059
G3 X7.5326 Y1.8198 I-0.0015 J0.0124
G1 X7.5311 Y1.8322
G1 X7.5308 Y1.8349 Z-0.1559
G1 X7.5305 Y1.8376 Z-0.155
G1 X7.5302 Y1.8399 Z-0.1535
G1 X7.5299 Y1.8419 Z-0.1515
G1 X7.5298 Y1.8434 Z-0.1492
G1 X7.5296 Y1.8443 Z-0.1465
G1 Y1.8446 Z-0.1438
G0 Z0.2
G0 X5.6303 Y0.5999
G1 Z0.0556 F30.
G1 Z-0.0038
G1 Y0.5996 Z-0.0065 F6.1
G1 Y0.5987 Z-0.0092
G1 Y0.5972 Z-0.0115
G1 Y0.5952 Z-0.0135
G1 Y0.5929 Z-0.015
G1 Y0.5902 Z-0.0159
G1 Y0.5874 Z-0.0163
G1 Y0.5749
G3 X5.6428 Y0.5624 I0.0125 J0
G1 X5.6772 Y0.5625
G3 X5.7283 Y0.5891 I-0.0001 J0.0625
G2 X6.0003 Y0.855 I0.8418 J-0.5891
G3 X6.0176 Y0.9416 I-0.0347 J0.052
G3 X6.0101 Y0.9508 I-0.052 J-0.0347
G2 X5.9985 Y0.9629 I0.5601 J0.5516
G3 X5.9255 Y0.976 I-0.0454 J-0.0429
G1 X5.326 Y0.6809
G3 X5.2976 Y0.5972 I0.0276 J-0.0561
G3 X5.3537 Y0.5623 I0.0561 J0.0276
G1 X5.6428 Y0.5624
G3 X5.6516 Y0.5661 I0 J0.0125
G3 X5.6553 Y0.575 I-0.0088 J0.0088
G1 Y0.5875
G1 Y0.5902 Z-0.0159
G1 Y0.5929 Z-0.015
G1 Y0.5952 Z-0.0135
G1 Y0.5972 Z-0.0115
G1 Y0.5987 Z-0.0092
G1 Y0.5996 Z-0.0065
G1 Y0.6 Z-0.0038
G0 Z0.2
G0 X5.6303 Y0.5999
G1 Z0.0394 F30.
G1 Z-0.02
G1 Y0.5996 Z-0.0228 F6.1
G1 Y0.5987 Z-0.0254
G1 Y0.5972 Z-0.0278
G1 Y0.5952 Z-0.0298
G1 Y0.5929 Z-0.0313
G1 Y0.5902 Z-0.0322
G1 Y0.5874 Z-0.0325
G1 Y0.5749
G3 X5.6428 Y0.5624 I0.0125 J0
G1 X5.6772 Y0.5625
G3 X5.7283 Y0.5891 I-0.0001 J0.0625
G2 X6.0003 Y0.855 I0.8418 J-0.5891
G3 X6.0176 Y0.9416 I-0.0347 J0.052
G3 X6.0101 Y0.9508 I-0.052 J-0.0347
G2 X5.9985 Y0.9629 I0.5601 J0.5516
G3 X5.9255 Y0.976 I-0.0454 J-0.0429
G1 X5.326 Y0.6809
G3 X5.2976 Y0.5972 I0.0276 J-0.0561
G3 X5.3537 Y0.5623 I0.0561 J0.0276
G1 X5.6428 Y0.5624
G3 X5.6516 Y0.5661 I0 J0.0125
G3 X5.6553 Y0.575 I-0.0088 J0.0088
G1 Y0.5875
G1 Y0.5902 Z-0.0322
G1 Y0.5929 Z-0.0313
G1 Y0.5952 Z-0.0298
G1 Y0.5972 Z-0.0278
G1 Y0.5987 Z-0.0254
G1 Y0.5996 Z-0.0228
G1 Y0.6 Z-0.02
G0 Z0.2
G0 X5.6303 Y0.5999
G1 Z0.0231 F30.
G1 Z-0.0363
G1 Y0.5996 Z-0.039 F6.1
G1 Y0.5987 Z-0.0417
G1 Y0.5972 Z-0.044
G1 Y0.5952 Z-0.046
G1 Y0.5929 Z-0.0475
G1 Y0.5902 Z-0.0484
G1 Y0.5874 Z-0.0488
G1 Y0.5749
G3 X5.6428 Y0.5624 I0.0125 J0
G1 X5.6772 Y0.5625
G3 X5.7283 Y0.5891 I-0.0001 J0.0625
G2 X6.0003 Y0.855 I0.8418 J-0.5891
G3 X6.0176 Y0.9416 I-0.0347 J0.052
G3 X6.0101 Y0.9508 I-0.052 J-0.0347
G2 X5.9985 Y0.9629 I0.5601 J0.5516
G3 X5.9255 Y0.976 I-0.0454 J-0.0429
G1 X5.326 Y0.6809
G3 X5.2976 Y0.5972 I0.0276 J-0.0561
G3 X5.3537 Y0.5623 I0.0561 J0.0276
G1 X5.6428 Y0.5624
G3 X5.6516 Y0.5661 I0 J0.0125
G3 X5.6553 Y0.575 I-0.0088 J0.0088
G1 Y0.5875
G1 Y0.5902 Z-0.0484
G1 Y0.5929 Z-0.0475
G1 Y0.5952 Z-0.046
G1 Y0.5972 Z-0.044
G1 Y0.5987 Z-0.0417
G1 Y0.5996 Z-0.039
G1 Y0.6 Z-0.0363
G0 Z0.2
G0 X5.6303 Y0.5999
G1 Z0.0069 F30.
G1 Z-0.0525
G1 Y0.5996 Z-0.0553 F6.1
G1 Y0.5987 Z-0.0579
G1 Y0.5972 Z-0.0603
G1 Y0.5952 Z-0.0623
G1 Y0.5929 Z-0.0638
G1 Y0.5902 Z-0.0647
G1 Y0.5874 Z-0.065
G1 Y0.5749
G3 X5.6428 Y0.5624 I0.0125 J0
G1 X5.6772 Y0.5625
G3 X5.7283 Y0.5891 I-0.0001 J0.0625
G2 X6.0003 Y0.855 I0.8418 J-0.5891
G3 X6.0176 Y0.9416 I-0.0347 J0.052
G3 X6.0101 Y0.9508 I-0.052 J-0.0347
G2 X5.9985 Y0.9629 I0.5601 J0.5516
G3 X5.9255 Y0.976 I-0.0454 J-0.0429
G1 X5.326 Y0.6809
G3 X5.2976 Y0.5972 I0.0276 J-0.0561
G3 X5.3537 Y0.5623 I0.0561 J0.0276
G1 X5.6428 Y0.5624
G3 X5.6516 Y0.5661 I0 J0.0125
G3 X5.6553 Y0.575 I-0.0088 J0.0088
G1 Y0.5875
G1 Y0.5902 Z-0.0647
G1 Y0.5929 Z-0.0638
G1 Y0.5952 Z-0.0623
G1 Y0.5972 Z-0.0603
G1 Y0.5987 Z-0.0579
G1 Y0.5996 Z-0.0553
G1 Y0.6 Z-0.0525
G0 Z0.2
G0 X5.6303 Y0.5999
G1 Z-0.0094 F30.
G1 Z-0.0688
G1 Y0.5996 Z-0.0715 F6.1
G1 Y0.5987 Z-0.0742
G1 Y0.5972 Z-0.0765
G1 Y0.5952 Z-0.0785
G1 Y0.5929 Z-0.08
G1 Y0.5902 Z-0.0809
G1 Y0.5874 Z-0.0813
G1 Y0.5749
G3 X5.6428 Y0.5624 I0.0125 J0
G1 X5.6772 Y0.5625
G3 X5.7283 Y0.5891 I-0.0001 J0.0625
G2 X6.0003 Y0.855 I0.8418 J-0.5891
G3 X6.0176 Y0.9416 I-0.0347 J0.052
G3 X6.0101 Y0.9508 I-0.052 J-0.0347
G2 X5.9985 Y0.9629 I0.5601 J0.5516
G3 X5.9255 Y0.976 I-0.0454 J-0.0429
G1 X5.326 Y0.6809
G3 X5.2976 Y0.5972 I0.0276 J-0.0561
G3 X5.3537 Y0.5623 I0.0561 J0.0276
G1 X5.6428 Y0.5624
G3 X5.6516 Y0.5661 I0 J0.0125
G3 X5.6553 Y0.575 I-0.0088 J0.0088
G1 Y0.5875
G1 Y0.5902 Z-0.0809
G1 Y0.5929 Z-0.08
G1 Y0.5952 Z-0.0785
G1 Y0.5972 Z-0.0765
G1 Y0.5987 Z-0.0742
G1 Y0.5996 Z-0.0715
G1 Y0.6 Z-0.0688
G0 Z0.2
G0 X5.6303 Y0.5999
G1 Z-0.0256 F30.
G1 Z-0.085
G1 Y0.5996 Z-0.0878 F6.1
G1 Y0.5987 Z-0.0904
G1 Y0.5972 Z-0.0928
G1 Y0.5952 Z-0.0948
G1 Y0.5929 Z-0.0963
G1 Y0.5902 Z-0.0972
G1 Y0.5874 Z-0.0975
G1 Y0.5749
G3 X5.6428 Y0.5624 I0.0125 J0
G1 X5.6772 Y0.5625
G3 X5.7283 Y0.5891 I-0.0001 J0.0625
G2 X6.0003 Y0.855 I0.8418 J-0.5891
G3 X6.0176 Y0.9416 I-0.0347 J0.052
G3 X6.0101 Y0.9508 I-0.052 J-0.0347
G2 X5.9985 Y0.9629 I0.5601 J0.5516
G3 X5.9255 Y0.976 I-0.0454 J-0.0429
G1 X5.326 Y0.6809
G3 X5.2976 Y0.5972 I0.0276 J-0.0561
G3 X5.3537 Y0.5623 I0.0561 J0.0276
G1 X5.6428 Y0.5624
G3 X5.6516 Y0.5661 I0 J0.0125
G3 X5.6553 Y0.575 I-0.0088 J0.0088
G1 Y0.5875
G1 Y0.5902 Z-0.0972
G1 Y0.5929 Z-0.0963
G1 Y0.5952 Z-0.0948
G1 Y0.5972 Z-0.0928
G1 Y0.5987 Z-0.0904
G1 Y0.5996 Z-0.0878
G1 Y0.6 Z-0.085
G0 Z0.2
G0 X5.6303 Y0.5999
G1 Z-0.0419 F30.
G1 Z-0.1013
G1 Y0.5996 Z-0.104 F6.1
G1 Y0.5987 Z-0.1067
G1 Y0.5972 Z-0.109
G1 Y0.5952 Z-0.111
G1 Y0.5929 Z-0.1125
G1 Y0.5902 Z-0.1134
G1 Y0.5874 Z-0.1138
G1 Y0.5749
G3 X5.6428 Y0.5624 I0.0125 J0
G1 X5.6772 Y0.5625
G3 X5.7283 Y0.5891 I-0.0001 J0.0625
G2 X6.0003 Y0.855 I0.8418 J-0.5891
G3 X6.0176 Y0.9416 I-0.0347 J0.052
G3 X6.0101 Y0.9508 I-0.052 J-0.0347
G2 X5.9985 Y0.9629 I0.5601 J0.5516
G3 X5.9255 Y0.976 I-0.0454 J-0.0429
G1 X5.326 Y0.6809
G3 X5.2976 Y0.5972 I0.0276 J-0.0561
G3 X5.3537 Y0.5623 I0.0561 J0.0276
G1 X5.6428 Y0.5624
G3 X5.6516 Y0.5661 I0 J0.0125
G3 X5.6553 Y0.575 I-0.0088 J0.0088
G1 Y0.5875
G1 Y0.5902 Z-0.1134
G1 Y0.5929 Z-0.1125
G1 Y0.5952 Z-0.111
G1 Y0.5972 Z-0.109
G1 Y0.5987 Z-0.1067
G1 Y0.5996 Z-0.104
G1 Y0.6 Z-0.1013
G0 Z0.2
G0 X5.6303 Y0.5999
G1 Z-0.0581 F30.
G1 Z-0.1175
G1 Y0.5996 Z-0.1203 F6.1
G1 Y0.5987 Z-0.1229
G1 Y0.5972 Z-0.1253
G1 Y0.5952 Z-0.1273
G1 Y0.5929 Z-0.1288
G1 Y0.5902 Z-0.1297
G1 Y0.5874 Z-0.13
G1 Y0.5749
G3 X5.6428 Y0.5624 I0.0125 J0
G1 X5.6772 Y0.5625
G3 X5.7283 Y0.5891 I-0.0001 J0.0625
G2 X6.0003 Y0.855 I0.8418 J-0.5891
G3 X6.0176 Y0.9416 I-0.0347 J0.052
G3 X6.0101 Y0.9508 I-0.052 J-0.0347
G2 X5.9985 Y0.9629 I0.5601 J0.5516
G3 X5.9255 Y0.976 I-0.0454 J-0.0429
G1 X5.326 Y0.6809
G3 X5.2976 Y0.5972 I0.0276 J-0.0561
G3 X5.3537 Y0.5623 I0.0561 J0.0276
G1 X5.6428 Y0.5624
G3 X5.6516 Y0.5661 I0 J0.0125
G3 X5.6553 Y0.575 I-0.0088 J0.0088
G1 Y0.5875
G1 Y0.5902 Z-0.1297
G1 Y0.5929 Z-0.1288
G1 Y0.5952 Z-0.1273
G1 Y0.5972 Z-0.1253
G1 Y0.5987 Z-0.1229
G1 Y0.5996 Z-0.1203
G1 Y0.6 Z-0.1175
G0 Z0.2
G0 X5.6303 Y0.5999
G1 Z-0.0744 F30.
G1 Z-0.1338
G1 Y0.5996 Z-0.1365 F6.1
G1 Y0.5987 Z-0.1392
G1 Y0.5972 Z-0.1415
G1 Y0.5952 Z-0.1435
G1 Y0.5929 Z-0.145
G1 Y0.5902 Z-0.1459
G1 Y0.5874 Z-0.1463
G1 Y0.5749
G3 X5.6428 Y0.5624 I0.0125 J0
G1 X5.6772 Y0.5625
G3 X5.7283 Y0.5891 I-0.0001 J0.0625
G2 X6.0003 Y0.855 I0.8418 J-0.5891
G3 X6.0176 Y0.9416 I-0.0347 J0.052
G3 X6.0101 Y0.9508 I-0.052 J-0.0347
G2 X5.9985 Y0.9629 I0.5601 J0.5516
G3 X5.9255 Y0.976 I-0.0454 J-0.0429
G1 X5.326 Y0.6809
G3 X5.2976 Y0.5972 I0.0276 J-0.0561
G3 X5.3537 Y0.5623 I0.0561 J0.0276
G1 X5.6428 Y0.5624
G3 X5.6516 Y0.5661 I0 J0.0125
G3 X5.6553 Y0.575 I-0.0088 J0.0088
G1 Y0.5875
G1 Y0.5902 Z-0.1459
G1 Y0.5929 Z-0.145
G1 Y0.5952 Z-0.1435
G1 Y0.5972 Z-0.1415
G1 Y0.5987 Z-0.1392
G1 Y0.5996 Z-0.1365
G1 Y0.6 Z-0.1338
G0 Z0.2
G0 X5.6303 Y0.5999
G1 Z-0.0906 F30.
G1 Z-0.1438
G1 Y0.5996 Z-0.1465 F6.1
G1 Y0.5987 Z-0.1492
G1 Y0.5972 Z-0.1515
G1 Y0.5952 Z-0.1535
G1 Y0.5929 Z-0.155
G1 Y0.5902 Z-0.1559
G1 Y0.5874 Z-0.1563
G1 Y0.5749
G3 X5.6428 Y0.5624 I0.0125 J0
G1 X5.6772 Y0.5625
G3 X5.7283 Y0.5891 I-0.0001 J0.0625
G2 X6.0003 Y0.855 I0.8418 J-0.5891
G3 X6.0176 Y0.9416 I-0.0347 J0.052
G3 X6.0101 Y0.9508 I-0.052 J-0.0347
G2 X5.9985 Y0.9629 I0.5601 J0.5516
G3 X5.9255 Y0.976 I-0.0454 J-0.0429
G1 X5.326 Y0.6809
G3 X5.2976 Y0.5972 I0.0276 J-0.0561
G3 X5.3537 Y0.5623 I0.0561 J0.0276
G1 X5.6428 Y0.5624
G3 X5.6516 Y0.5661 I0 J0.0125
G3 X5.6553 Y0.575 I-0.0088 J0.0088
G1 Y0.5875
G1 Y0.5902 Z-0.1559
G1 Y0.5929 Z-0.155
G1 Y0.5952 Z-0.1535
G1 Y0.5972 Z-0.1515
G1 Y0.5987 Z-0.1492
G1 Y0.5996 Z-0.1465
G1 Y0.6 Z-0.1438
G0 Z0.2
G0 X3.9706 Y1.7016
G1 Z0.0556 F30.
G1 Z-0.0038
G1 Y1.702 Z-0.0065 F6.1
G1 X3.9708 Y1.7029 Z-0.0092
G1 X3.971 Y1.7043 Z-0.0115
G1 X3.9713 Y1.7063 Z-0.0135
G1 X3.9717 Y1.7086 Z-0.015
G1 X3.9722 Y1.7112 Z-0.0159
G1 X3.9726 Y1.714 Z-0.0163
G1 X3.9746 Y1.7263
G3 X3.9725 Y1.7356 I-0.0123 J0.002
G3 X3.9643 Y1.7407 I-0.0102 J-0.0073
G1 X1 Y2.2278
G3 X0.9281 Y2.1763 I-0.0101 J-0.0617
G3 X0.9361 Y2.1342 I0.0617 J-0.0101
G1 X1.1942 Y1.7008
G3 X1.2646 Y1.6726 I0.0537 J0.032
G2 X1.9695 Y1.5694 I0.2354 J-0.8516
G2 X2.3691 Y0.9797 I-0.4695 J-0.7484
G3 X2.4418 Y0.9295 I0.0615 J0.0112
G3 X2.4772 Y0.9493 I-0.0112 J0.0615
G2 X3.5618 Y1.0103 I0.5728 J-0.5118
G2 X3.7721 Y0.6993 I-0.5118 J-0.5728
G3 X3.8335 Y0.6582 I0.0588 J0.0213
G1 X3.9263 Y0.6621
G3 X3.9824 Y0.7029 I-0.0026 J0.0624
G2 X4.7372 Y1.0519 I0.5519 J-0.2029
G2 X4.9214 Y0.9425 I-0.2029 J-0.5519
G3 X4.9902 Y0.9335 I0.0412 J0.047
G1 X5.7598 Y1.3125
G3 X5.7939 Y1.3784 I-0.0276 J0.0561
G2 X5.7913 Y1.3958 I0.7763 J0.1236
G3 X5.7396 Y1.4489 I-0.0619 J-0.0085
G1 X3.9643 Y1.7407
G3 X3.955 Y1.7385 I-0.002 J-0.0123
G3 X3.95 Y1.7304 I0.0073 J-0.0102
G1 X3.9479 Y1.718
G1 X3.9475 Y1.7153 Z-0.0159
G1 X3.9471 Y1.7127 Z-0.015
G1 X3.9467 Y1.7103 Z-0.0135
G1 X3.9464 Y1.7084 Z-0.0115
G1 X3.9461 Y1.7069 Z-0.0092
G1 X3.946 Y1.706 Z-0.0065
G1 X3.9459 Y1.7057 Z-0.0038
G0 Z0.2
G0 X3.9706 Y1.7016
G1 Z0.0394 F30.
G1 Z-0.02
G1 Y1.702 Z-0.0228 F6.1
G1 X3.9708 Y1.7029 Z-0.0254
G1 X3.971 Y1.7043 Z-0.0278
G1 X3.9713 Y1.7063 Z-0.0298
G1 X3.9717 Y1.7086 Z-0.0313
G1 X3.9722 Y1.7112 Z-0.0322
G1 X3.9726 Y1.714 Z-0.0325
G1 X3.9746 Y1.7263
G3 X3.9725 Y1.7356 I-0.0123 J0.002
G3 X3.9643 Y1.7407 I-0.0102 J-0.0073
G1 X1 Y2.2278
G3 X0.9281 Y2.1763 I-0.0101 J-0.0617
G3 X0.9361 Y2.1342 I0.0617 J-0.0101
G1 X1.1942 Y1.7008
G3 X1.2646 Y1.6726 I0.0537 J0.032
G2 X1.9695 Y1.5694 I0.2354 J-0.8516
G2 X2.3691 Y0.9797 I-0.4695 J-0.7484
G3 X2.4418 Y0.9295 I0.0615 J0.0112
G3 X2.4772 Y0.9493 I-0.0112 J0.0615
G2 X3.5618 Y1.0103 I0.5728 J-0.5118
G2 X3.7721 Y0.6993 I-0.5118 J-0.5728
G3 X3.8335 Y0.6582 I0.0588 J0.0213
G1 X3.9263 Y0.6621
G3 X3.9824 Y0.7029 I-0.0026 J0.0624
G2 X4.7372 Y1.0519 I0.5519 J-0.2029
G2 X4.9214 Y0.9425 I-0.2029 J-0.5519
G3 X4.9902 Y0.9335 I0.0412 J0.047
G1 X5.7598 Y1.3125
G3 X5.7939 Y1.3784 I-0.0276 J0.0561
G2 X5.7913 Y1.3958 I0.7763 J0.1236
G3 X5.7396 Y1.4489 I-0.0619 J-0.0085
G1 X3.9643 Y1.7407
G3 X3.955 Y1.7385 I-0.002 J-0.0123
G3 X3.95 Y1.7304 I0.0073 J-0.0102
G1 X3.9479 Y1.718
G1 X3.9475 Y1.7153 Z-0.0322
G1 X3.9471 Y1.7127 Z-0.0313
G1 X3.9467 Y1.7103 Z-0.0298
G1 X3.9464 Y1.7084 Z-0.0278
G1 X3.9461 Y1.7069 Z-0.0254
G1 X3.946 Y1.706 Z-0.0228
G1 X3.9459 Y1.7057 Z-0.02
G0 Z0.2
G0 X3.9706 Y1.7016
G1 Z0.0231 F30.
G1 Z-0.0363
G1 Y1.702 Z-0.039 F6.1
G1 X3.9708 Y1.7029 Z-0.0417
G1 X3.971 Y1.7043 Z-0.044
G1 X3.9713 Y1.7063 Z-0.046
G1 X3.9717 Y1.7086 Z-0.0475
G1 X3.9722 Y1.7112 Z-0.0484
G1 X3.9726 Y1.714 Z-0.0488
G1 X3.9746 Y1.7263
G3 X3.9725 Y1.7356 I-0.0123 J0.002
G3 X3.9643 Y1.7407 I-0.0102 J-0.0073
G1 X1 Y2.2278
G3 X0.9281 Y2.1763 I-0.0101 J-0.0617
G3 X0.9361 Y2.1342 I0.0617 J-0.0101
G1 X1.1942 Y1.7008
G3 X1.2646 Y1.6726 I0.0537 J0.032
G2 X1.9695 Y1.5694 I0.2354 J-0.8516
G2 X2.3691 Y0.9797 I-0.4695 J-0.7484
G3 X2.4418 Y0.9295 I0.0615 J0.0112
G3 X2.4772 Y0.9493 I-0.0112 J0.0615
G2 X3.5618 Y1.0103 I0.5728 J-0.5118
G2 X3.7721 Y0.6993 I-0.5118 J-0.5728
G3 X3.8335 Y0.6582 I0.0588 J0.0213
G1 X3.9263 Y0.6621
G3 X3.9824 Y0.7029 I-0.0026 J0.0624
G2 X4.7372 Y1.0519 I0.5519 J-0.2029
G2 X4.9214 Y0.9425 I-0.2029 J-0.5519
G3 X4.9902 Y0.9335 I0.0412 J0.047
G1 X5.7598 Y1.3125
G3 X5.7939 Y1.3784 I-0.0276 J0.0561
G2 X5.7913 Y1.3958 I0.7763 J0.1236
G3 X5.7396 Y1.4489 I-0.0619 J-0.0085
G1 X3.9643 Y1.7407
G3 X3.955 Y1.7385 I-0.002 J-0.0123
G3 X3.95 Y1.7304 I0.0073 J-0.0102
G1 X3.9479 Y1.718
G1 X3.9475 Y1.7153 Z-0.0484
G1 X3.9471 Y1.7127 Z-0.0475
G1 X3.9467 Y1.7103 Z-0.046
G1 X3.9464 Y1.7084 Z-0.044
G1 X3.9461 Y1.7069 Z-0.0417
G1 X3.946 Y1.706 Z-0.039
G1 X3.9459 Y1.7057 Z-0.0363
G0 Z0.2
G0 X3.9706 Y1.7016
G1 Z0.0069 F30.
G1 Z-0.0525
G1 Y1.702 Z-0.0553 F6.1
G1 X3.9708 Y1.7029 Z-0.0579
G1 X3.971 Y1.7043 Z-0.0603
G1 X3.9713 Y1.7063 Z-0.0623
G1 X3.9717 Y1.7086 Z-0.0638
G1 X3.9722 Y1.7112 Z-0.0647
G1 X3.9726 Y1.714 Z-0.065
G1 X3.9746 Y1.7263
G3 X3.9725 Y1.7356 I-0.0123 J0.002
G3 X3.9643 Y1.7407 I-0.0102 J-0.0073
G1 X1 Y2.2278
G3 X0.9281 Y2.1763 I-0.0101 J-0.0617
G3 X0.9361 Y2.1342 I0.0617 J-0.0101
G1 X1.1942 Y1.7008
G3 X1.2646 Y1.6726 I0.0537 J0.032
G2 X1.9695 Y1.5694 I0.2354 J-0.8516
G2 X2.3691 Y0.9797 I-0.4695 J-0.7484
G3 X2.4418 Y0.9295 I0.0615 J0.0112
G3 X2.4772 Y0.9493 I-0.0112 J0.0615
G2 X3.5618 Y1.0103 I0.5728 J-0.5118
G2 X3.7721 Y0.6993 I-0.5118 J-0.5728
G3 X3.8335 Y0.6582 I0.0588 J0.0213
G1 X3.9263 Y0.6621
G3 X3.9824 Y0.7029 I-0.0026 J0.0624
G2 X4.7372 Y1.0519 I0.5519 J-0.2029
G2 X4.9214 Y0.9425 I-0.2029 J-0.5519
G3 X4.9902 Y0.9335 I0.0412 J0.047
G1 X5.7598 Y1.3125
G3 X5.7939 Y1.3784 I-0.0276 J0.0561
G2 X5.7913 Y1.3958 I0.7763 J0.1236
G3 X5.7396 Y1.4489 I-0.0619 J-0.0085
G1 X3.9643 Y1.7407
G3 X3.955 Y1.7385 I-0.002 J-0.0123
G3 X3.95 Y1.7304 I0.0073 J-0.0102
G1 X3.9479 Y1.718
G1 X3.9475 Y1.7153 Z-0.0647
G1 X3.9471 Y1.7127 Z-0.0638
G1 X3.9467 Y1.7103 Z-0.0623
G1 X3.9464 Y1.7084 Z-0.0603
G1 X3.9461 Y1.7069 Z-0.0579
G1 X3.946 Y1.706 Z-0.0553
G1 X3.9459 Y1.7057 Z-0.0525
G0 Z0.2
G0 X3.9706 Y1.7016
G1 Z-0.0094 F30.
G1 Z-0.0688
G1 Y1.702 Z-0.0715 F6.1
G1 X3.9708 Y1.7029 Z-0.0742
G1 X3.971 Y1.7043 Z-0.0765
G1 X3.9713 Y1.7063 Z-0.0785
G1 X3.9717 Y1.7086 Z-0.08
G1 X3.9722 Y1.7112 Z-0.0809
G1 X3.9726 Y1.714 Z-0.0813
G1 X3.9746 Y1.7263
G3 X3.9725 Y1.7356 I-0.0123 J0.002
G3 X3.9643 Y1.7407 I-0.0102 J-0.0073
G1 X1 Y2.2278
G3 X0.9281 Y2.1763 I-0.0101 J-0.0617
G3 X0.9361 Y2.1342 I0.0617 J-0.0101
G1 X1.1942 Y1.7008
G3 X1.2646 Y1.6726 I0.0537 J0.032
G2 X1.9695 Y1.5694 I0.2354 J-0.8516
G2 X2.3691 Y0.9797 I-0.4695 J-0.7484
G3 X2.4418 Y0.9295 I0.0615 J0.0112
G3 X2.4772 Y0.9493 I-0.0112 J0.0615
G2 X3.5618 Y1.0103 I0.5728 J-0.5118
G2 X3.7721 Y0.6993 I-0.5118 J-0.5728
G3 X3.8335 Y0.6582 I0.0588 J0.0213
G1 X3.9263 Y0.6621
G3 X3.9824 Y0.7029 I-0.0026 J0.0624
G2 X4.7372 Y1.0519 I0.5519 J-0.2029
G2 X4.9214 Y0.9425 I-0.2029 J-0.5519
G3 X4.9902 Y0.9335 I0.0412 J0.047
G1 X5.7598 Y1.3125
G3 X5.7939 Y1.3784 I-0.0276 J0.0561
G2 X5.7913 Y1.3958 I0.7763 J0.1236
G3 X5.7396 Y1.4489 I-0.0619 J-0.0085
G1 X3.9643 Y1.7407
G3 X3.955 Y1.7385 I-0.002 J-0.0123
G3 X3.95 Y1.7304 I0.0073 J-0.0102
G1 X3.9479 Y1.718
G1 X3.9475 Y1.7153 Z-0.0809
G1 X3.9471 Y1.7127 Z-0.08
G1 X3.9467 Y1.7103 Z-0.0785
G1 X3.9464 Y1.7084 Z-0.0765
G1 X3.9461 Y1.7069 Z-0.0742
G1 X3.946 Y1.706 Z-0.0715
G1 X3.9459 Y1.7057 Z-0.0688
G0 Z0.2
G0 X3.9706 Y1.7016
G1 Z-0.0256 F30.
G1 Z-0.085
G1 Y1.702 Z-0.0878 F6.1
G1 X3.9708 Y1.7029 Z-0.0904
G1 X3.971 Y1.7043 Z-0.0928
G1 X3.9713 Y1.7063 Z-0.0948
G1 X3.9717 Y1.7086 Z-0.0963
G1 X3.9722 Y1.7112 Z-0.0972
G1 X3.9726 Y1.714 Z-0.0975
G1 X3.9746 Y1.7263
G3 X3.9725 Y1.7356 I-0.0123 J0.002
G3 X3.9643 Y1.7407 I-0.0102 J-0.0073
G1 X1 Y2.2278
G3 X0.9281 Y2.1763 I-0.0101 J-0.0617
G3 X0.9361 Y2.1342 I0.0617 J-0.0101
G1 X1.1942 Y1.7008
G3 X1.2646 Y1.6726 I0.0537 J0.032
G2 X1.9695 Y1.5694 I0.2354 J-0.8516
G2 X2.3691 Y0.9797 I-0.4695 J-0.7484
G3 X2.4418 Y0.9295 I0.0615 J0.0112
G3 X2.4772 Y0.9493 I-0.0112 J0.0615
G2 X3.5618 Y1.0103 I0.5728 J-0.5118
G2 X3.7721 Y0.6993 I-0.5118 J-0.5728
G3 X3.8335 Y0.6582 I0.0588 J0.0213
G1 X3.9263 Y0.6621
G3 X3.9824 Y0.7029 I-0.0026 J0.0624
G2 X4.7372 Y1.0519 I0.5519 J-0.2029
G2 X4.9214 Y0.9425 I-0.2029 J-0.5519
G3 X4.9902 Y0.9335 I0.0412 J0.047
G1 X5.7598 Y1.3125
G3 X5.7939 Y1.3784 I-0.0276 J0.0561
G2 X5.7913 Y1.3958 I0.7763 J0.1236
G3 X5.7396 Y1.4489 I-0.0619 J-0.0085
G1 X3.9643 Y1.7407
G3 X3.955 Y1.7385 I-0.002 J-0.0123
G3 X3.95 Y1.7304 I0.0073 J-0.0102
G1 X3.9479 Y1.718
G1 X3.9475 Y1.7153 Z-0.0972
G1 X3.9471 Y1.7127 Z-0.0963
G1 X3.9467 Y1.7103 Z-0.0948
G1 X3.9464 Y1.7084 Z-0.0928
G1 X3.9461 Y1.7069 Z-0.0904
G1 X3.946 Y1.706 Z-0.0878
G1 X3.9459 Y1.7057 Z-0.085
G0 Z0.2
G0 X3.9706 Y1.7016
G1 Z-0.0419 F30.
G1 Z-0.1013
G1 Y1.702 Z-0.104 F6.1
G1 X3.9708 Y1.7029 Z-0.1067
G1 X3.971 Y1.7043 Z-0.109
G1 X3.9713 Y1.7063 Z-0.111
G1 X3.9717 Y1.7086 Z-0.1125
G1 X3.9722 Y1.7112 Z-0.1134
G1 X3.9726 Y1.714 Z-0.1138
G1 X3.9746 Y1.7263
G3 X3.9725 Y1.7356 I-0.0123 J0.002
G3 X3.9643 Y1.7407 I-0.0102 J-0.0073
G1 X1 Y2.2278
G3 X0.9281 Y2.1763 I-0.0101 J-0.0617
G3 X0.9361 Y2.1342 I0.0617 J-0.0101
G1 X1.1942 Y1.7008
G3 X1.2646 Y1.6726 I0.0537 J0.032
G2 X1.9695 Y1.5694 I0.2354 J-0.8516
G2 X2.3691 Y0.9797 I-0.4695 J-0.7484
G3 X2.4418 Y0.9295 I0.0615 J0.0112
G3 X2.4772 Y0.9493 I-0.0112 J0.0615
G2 X3.5618 Y1.0103 I0.5728 J-0.5118
G2 X3.7721 Y0.6993 I-0.5118 J-0.5728
G3 X3.8335 Y0.6582 I0.0588 J0.0213
G1 X3.9263 Y0.6621
G3 X3.9824 Y0.7029 I-0.0026 J0.0624
G2 X4.7372 Y1.0519 I0.5519 J-0.2029
G2 X4.9214 Y0.9425 I-0.2029 J-0.5519
G3 X4.9902 Y0.9335 I0.0412 J0.047
G1 X5.7598 Y1.3125
G3 X5.7939 Y1.3784 I-0.0276 J0.0561
G2 X5.7913 Y1.3958 I0.7763 J0.1236
G3 X5.7396 Y1.4489 I-0.0619 J-0.0085
G1 X3.9643 Y1.7407
G3 X3.955 Y1.7385 I-0.002 J-0.0123
G3 X3.95 Y1.7304 I0.0073 J-0.0102
G1 X3.9479 Y1.718
G1 X3.9475 Y1.7153 Z-0.1134
G1 X3.9471 Y1.7127 Z-0.1125
G1 X3.9467 Y1.7103 Z-0.111
G1 X3.9464 Y1.7084 Z-0.109
G1 X3.9461 Y1.7069 Z-0.1067
G1 X3.946 Y1.706 Z-0.104
G1 X3.9459 Y1.7057 Z-0.1013
G0 Z0.2
G0 X3.9706 Y1.7016
G1 Z-0.0581 F30.
G1 Z-0.1175
G1 Y1.702 Z-0.1203 F6.1
G1 X3.9708 Y1.7029 Z-0.1229
G1 X3.971 Y1.7043 Z-0.1253
G1 X3.9713 Y1.7063 Z-0.1273
G1 X3.9717 Y1.7086 Z-0.1288
G1 X3.9722 Y1.7112 Z-0.1297
G1 X3.9726 Y1.714 Z-0.13
G1 X3.9746 Y1.7263
G3 X3.9725 Y1.7356 I-0.0123 J0.002
G3 X3.9643 Y1.7407 I-0.0102 J-0.0073
G1 X1 Y2.2278
G3 X0.9281 Y2.1763 I-0.0101 J-0.0617
G3 X0.9361 Y2.1342 I0.0617 J-0.0101
G1 X1.1942 Y1.7008
G3 X1.2646 Y1.6726 I0.0537 J0.032
G2 X1.9695 Y1.5694 I0.2354 J-0.8516
G2 X2.3691 Y0.9797 I-0.4695 J-0.7484
G3 X2.4418 Y0.9295 I0.0615 J0.0112
G3 X2.4772 Y0.9493 I-0.0112 J0.0615
G2 X3.5618 Y1.0103 I0.5728 J-0.5118
G2 X3.7721 Y0.6993 I-0.5118 J-0.5728
G3 X3.8335 Y0.6582 I0.0588 J0.0213
G1 X3.9263 Y0.6621
G3 X3.9824 Y0.7029 I-0.0026 J0.0624
G2 X4.7372 Y1.0519 I0.5519 J-0.2029
G2 X4.9214 Y0.9425 I-0.2029 J-0.5519
G3 X4.9902 Y0.9335 I0.0412 J0.047
G1 X5.7598 Y1.3125
G3 X5.7939 Y1.3784 I-0.0276 J0.0561
G2 X5.7913 Y1.3958 I0.7763 J0.1236
G3 X5.7396 Y1.4489 I-0.0619 J-0.0085
G1 X3.9643 Y1.7407
G3 X3.955 Y1.7385 I-0.002 J-0.0123
G3 X3.95 Y1.7304 I0.0073 J-0.0102
G1 X3.9479 Y1.718
G1 X3.9475 Y1.7153 Z-0.1297
G1 X3.9471 Y1.7127 Z-0.1288
G1 X3.9467 Y1.7103 Z-0.1273
G1 X3.9464 Y1.7084 Z-0.1253
G1 X3.9461 Y1.7069 Z-0.1229
G1 X3.946 Y1.706 Z-0.1203
G1 X3.9459 Y1.7057 Z-0.1175
G0 Z0.2
G0 X3.9706 Y1.7016
G1 Z-0.0744 F30.
G1 Z-0.1338
G1 Y1.702 Z-0.1365 F6.1
G1 X3.9708 Y1.7029 Z-0.1392
G1 X3.971 Y1.7043 Z-0.1415
G1 X3.9713 Y1.7063 Z-0.1435
G1 X3.9717 Y1.7086 Z-0.145
G1 X3.9722 Y1.7112 Z-0.1459
G1 X3.9726 Y1.714 Z-0.1463
G1 X3.9746 Y1.7263
G3 X3.9725 Y1.7356 I-0.0123 J0.002
G3 X3.9643 Y1.7407 I-0.0102 J-0.0073
G1 X1 Y2.2278
G3 X0.9281 Y2.1763 I-0.0101 J-0.0617
G3 X0.9361 Y2.1342 I0.0617 J-0.0101
G1 X1.1942 Y1.7008
G3 X1.2646 Y1.6726 I0.0537 J0.032
G2 X1.9695 Y1.5694 I0.2354 J-0.8516
G2 X2.3691 Y0.9797 I-0.4695 J-0.7484
G3 X2.4418 Y0.9295 I0.0615 J0.0112
G3 X2.4772 Y0.9493 I-0.0112 J0.0615
G2 X3.5618 Y1.0103 I0.5728 J-0.5118
G2 X3.7721 Y0.6993 I-0.5118 J-0.5728
G3 X3.8335 Y0.6582 I0.0588 J0.0213
G1 X3.9263 Y0.6621
G3 X3.9824 Y0.7029 I-0.0026 J0.0624
G2 X4.7372 Y1.0519 I0.5519 J-0.2029
G2 X4.9214 Y0.9425 I-0.2029 J-0.5519
G3 X4.9902 Y0.9335 I0.0412 J0.047
G1 X5.7598 Y1.3125
G3 X5.7939 Y1.3784 I-0.0276 J0.0561
G2 X5.7913 Y1.3958 I0.7763 J0.1236
G3 X5.7396 Y1.4489 I-0.0619 J-0.0085
G1 X3.9643 Y1.7407
G3 X3.955 Y1.7385 I-0.002 J-0.0123
G3 X3.95 Y1.7304 I0.0073 J-0.0102
G1 X3.9479 Y1.718
G1 X3.9475 Y1.7153 Z-0.1459
G1 X3.9471 Y1.7127 Z-0.145
G1 X3.9467 Y1.7103 Z-0.1435
G1 X3.9464 Y1.7084 Z-0.1415
G1 X3.9461 Y1.7069 Z-0.1392
G1 X3.946 Y1.706 Z-0.1365
G1 X3.9459 Y1.7057 Z-0.1338
G0 Z0.2
G0 X3.9706 Y1.7016
G1 Z-0.0906 F30.
G1 Z-0.1438
G1 Y1.702 Z-0.1465 F6.1
G1 X3.9708 Y1.7029 Z-0.1492
G1 X3.971 Y1.7043 Z-0.1515
G1 X3.9713 Y1.7063 Z-0.1535
G1 X3.9717 Y1.7086 Z-0.155
G1 X3.9722 Y1.7112 Z-0.1559
G1 X3.9726 Y1.714 Z-0.1563
G1 X3.9746 Y1.7263
G3 X3.9725 Y1.7356 I-0.0123 J0.002
G3 X3.9643 Y1.7407 I-0.0102 J-0.0073
G1 X1 Y2.2278
G3 X0.9281 Y2.1763 I-0.0101 J-0.0617
G3 X0.9361 Y2.1342 I0.0617 J-0.0101
G1 X1.1942 Y1.7008
G3 X1.2646 Y1.6726 I0.0537 J0.032
G2 X1.9695 Y1.5694 I0.2354 J-0.8516
G2 X2.3691 Y0.9797 I-0.4695 J-0.7484
G3 X2.4418 Y0.9295 I0.0615 J0.0112
G3 X2.4772 Y0.9493 I-0.0112 J0.0615
G2 X3.5618 Y1.0103 I0.5728 J-0.5118
G2 X3.7721 Y0.6993 I-0.5118 J-0.5728
G3 X3.8335 Y0.6582 I0.0588 J0.0213
G1 X3.9263 Y0.6621
G3 X3.9824 Y0.7029 I-0.0026 J0.0624
G2 X4.7372 Y1.0519 I0.5519 J-0.2029
G2 X4.9214 Y0.9425 I-0.2029 J-0.5519
G3 X4.9902 Y0.9335 I0.0412 J0.047
G1 X5.7598 Y1.3125
G3 X5.7939 Y1.3784 I-0.0276 J0.0561
G2 X5.7913 Y1.3958 I0.7763 J0.1236
G3 X5.7396 Y1.4489 I-0.0619 J-0.0085
G1 X3.9643 Y1.7407
G3 X3.955 Y1.7385 I-0.002 J-0.0123
G3 X3.95 Y1.7304 I0.0073 J-0.0102
G1 X3.9479 Y1.718
G1 X3.9475 Y1.7153 Z-0.1559
G1 X3.9471 Y1.7127 Z-0.155
G1 X3.9467 Y1.7103 Z-0.1535
G1 X3.9464 Y1.7084 Z-0.1515
G1 X3.9461 Y1.7069 Z-0.1492
G1 X3.946 Y1.706 Z-0.1465
G1 X3.9459 Y1.7057 Z-0.1438
G0 Z0.2
G0 X4.7198 Y0.4875
G1 Z0.0556 F30.
G1 Z-0.0038
G1 X4.7201 Z-0.0065 F6.1
G1 X4.721 Z-0.0092
G1 X4.7225 Z-0.0115
G1 X4.7245 Z-0.0135
G1 X4.7268 Z-0.015
G1 X4.7295 Z-0.0159
G1 X4.7323 Z-0.0163
G1 X4.7448
G3 X4.7573 Y0.5 I0 J0.0125
G3 X4.5343 Y0.723 I-0.223 J0
G3 X4.3113 Y0.5 I0 J-0.223
G3 X4.5343 Y0.277 I0.223 J0
G3 X4.7573 Y0.5 I0 J0.223
G3 X4.7448 Y0.5125 I-0.0125 J0
G1 X4.7323
G1 X4.7295 Z-0.0159
G1 X4.7268 Z-0.015
G1 X4.7245 Z-0.0135
G1 X4.7225 Z-0.0115
G1 X4.721 Z-0.0092
G1 X4.7201 Z-0.0065
G1 X4.7198 Z-0.0038
G0 Z0.2
G0 Y0.4875
G1 Z0.0394 F30.
G1 Z-0.02
G1 X4.7201 Z-0.0228 F6.1
G1 X4.721 Z-0.0254
G1 X4.7225 Z-0.0278
G1 X4.7245 Z-0.0298
G1 X4.7268 Z-0.0313
G1 X4.7295 Z-0.0322
G1 X4.7323 Z-0.0325
G1 X4.7448
G3 X4.7573 Y0.5 I0 J0.0125
G3 X4.5343 Y0.723 I-0.223 J0
G3 X4.3113 Y0.5 I0 J-0.223
G3 X4.5343 Y0.277 I0.223 J0
G3 X4.7573 Y0.5 I0 J0.223
G3 X4.7448 Y0.5125 I-0.0125 J0
G1 X4.7323
G1 X4.7295 Z-0.0322
G1 X4.7268 Z-0.0313
G1 X4.7245 Z-0.0298
G1 X4.7225 Z-0.0278
G1 X4.721 Z-0.0254
G1 X4.7201 Z-0.0228
G1 X4.7198 Z-0.02
G0 Z0.2
G0 Y0.4875
G1 Z0.0231 F30.
G1 Z-0.0363
G1 X4.7201 Z-0.039 F6.1
G1 X4.721 Z-0.0417
G1 X4.7225 Z-0.044
G1 X4.7245 Z-0.046
G1 X4.7268 Z-0.0475
G1 X4.7295 Z-0.0484
G1 X4.7323 Z-0.0488
G1 X4.7448
G3 X4.7573 Y0.5 I0 J0.0125
G3 X4.5343 Y0.723 I-0.223 J0
G3 X4.3113 Y0.5 I0 J-0.223
G3 X4.5343 Y0.277 I0.223 J0
G3 X4.7573 Y0.5 I0 J0.223
G3 X4.7448 Y0.5125 I-0.0125 J0
G1 X4.7323
G1 X4.7295 Z-0.0484
G1 X4.7268 Z-0.0475
G1 X4.7245 Z-0.046
G1 X4.7225 Z-0.044
G1 X4.721 Z-0.0417
G1 X4.7201 Z-0.039
G1 X4.7198 Z-0.0363
G0 Z0.2
G0 Y0.4875
G1 Z0.0069 F30.
G1 Z-0.0525
G1 X4.7201 Z-0.0553 F6.1
G1 X4.721 Z-0.0579
G1 X4.7225 Z-0.0603
G1 X4.7245 Z-0.0623
G1 X4.7268 Z-0.0638
G1 X4.7295 Z-0.0647
G1 X4.7323 Z-0.065
G1 X4.7448
G3 X4.7573 Y0.5 I0 J0.0125
G3 X4.5343 Y0.723 I-0.223 J0
G3 X4.3113 Y0.5 I0 J-0.223
G3 X4.5343 Y0.277 I0.223 J0
G3 X4.7573 Y0.5 I0 J0.223
G3 X4.7448 Y0.5125 I-0.0125 J0
G1 X4.7323
G1 X4.7295 Z-0.0647
G1 X4.7268 Z-0.0638
G1 X4.7245 Z-0.0623
G1 X4.7225 Z-0.0603
G1 X4.721 Z-0.0579
G1 X4.7201 Z-0.0553
G1 X4.7198 Z-0.0525
G0 Z0.2
G0 Y0.4875
G1 Z-0.0094 F30.
G1 Z-0.0688
G1 X4.7201 Z-0.0715 F6.1
G1 X4.721 Z-0.0742
G1 X4.7225 Z-0.0765
G1 X4.7245 Z-0.0785
G1 X4.7268 Z-0.08
G1 X4.7295 Z-0.0809
G1 X4.7323 Z-0.0813
G1 X4.7448
G3 X4.7573 Y0.5 I0 J0.0125
G3 X4.5343 Y0.723 I-0.223 J0
G3 X4.3113 Y0.5 I0 J-0.223
G3 X4.5343 Y0.277 I0.223 J0
G3 X4.7573 Y0.5 I0 J0.223
G3 X4.7448 Y0.5125 I-0.0125 J0
G1 X4.7323
G1 X4.7295 Z-0.0809
G1 X4.7268 Z-0.08
G1 X4.7245 Z-0.0785
G1 X4.7225 Z-0.0765
G1 X4.721 Z-0.0742
G1 X4.7201 Z-0.0715
G1 X4.7198 Z-0.0688
G0 Z0.2
G0 Y0.4875
G1 Z-0.0256 F30.
G1 Z-0.085
G1 X4.7201 Z-0.0878 F6.1
G1 X4.721 Z-0.0904
G1 X4.7225 Z-0.0928
G1 X4.7245 Z-0.0948
G1 X4.7268 Z-0.0963
G1 X4.7295 Z-0.0972
G1 X4.7323 Z-0.0975
G1 X4.7448
G3 X4.7573 Y0.5 I0 J0.0125
G3 X4.5343 Y0.723 I-0.223 J0
G3 X4.3113 Y0.5 I0 J-0.223
G3 X4.5343 Y0.277 I0.223 J0
G3 X4.7573 Y0.5 I0 J0.223
G3 X4.7448 Y0.5125 I-0.0125 J0
G1 X4.7323
G1 X4.7295 Z-0.0972
G1 X4.7268 Z-0.0963
G1 X4.7245 Z-0.0948
G1 X4.7225 Z-0.0928
G1 X4.721 Z-0.0904
G1 X4.7201 Z-0.0878
G1 X4.7198 Z-0.085
G0 Z0.2
G0 Y0.4875
G1 Z-0.0419 F30.
G1 Z-0.1013
G1 X4.7201 Z-0.104 F6.1
G1 X4.721 Z-0.1067
G1 X4.7225 Z-0.109
G1 X4.7245 Z-0.111
G1 X4.7268 Z-0.1125
G1 X4.7295 Z-0.1134
G1 X4.7323 Z-0.1138
G1 X4.7448
G3 X4.7573 Y0.5 I0 J0.0125
G3 X4.5343 Y0.723 I-0.223 J0
G3 X4.3113 Y0.5 I0 J-0.223
G3 X4.5343 Y0.277 I0.223 J0
G3 X4.7573 Y0.5 I0 J0.223
G3 X4.7448 Y0.5125 I-0.0125 J0
G1 X4.7323
G1 X4.7295 Z-0.1134
G1 X4.7268 Z-0.1125
G1 X4.7245 Z-0.111
G1 X4.7225 Z-0.109
G1 X4.721 Z-0.1067
G1 X4.7201 Z-0.104
G1 X4.7198 Z-0.1013
G0 Z0.2
G0 Y0.4875
G1 Z-0.0581 F30.
G1 Z-0.1175
G1 X4.7201 Z-0.1203 F6.1
G1 X4.721 Z-0.1229
G1 X4.7225 Z-0.1253
G1 X4.7245 Z-0.1273
G1 X4.7268 Z-0.1288
G1 X4.7295 Z-0.1297
G1 X4.7323 Z-0.13
G1 X4.7448
G3 X4.7573 Y0.5 I0 J0.0125
G3 X4.5343 Y0.723 I-0.223 J0
G3 X4.3113 Y0.5 I0 J-0.223
G3 X4.5343 Y0.277 I0.223 J0
G3 X4.7573 Y0.5 I0 J0.223
G3 X4.7448 Y0.5125 I-0.0125 J0
G1 X4.7323
G1 X4.7295 Z-0.1297
G1 X4.7268 Z-0.1288
G1 X4.7245 Z-0.1273
G1 X4.7225 Z-0.1253
G1 X4.721 Z-0.1229
G1 X4.7201 Z-0.1203
G1 X4.7198 Z-0.1175
G0 Z0.2
G0 Y0.4875
G1 Z-0.0744 F30.
G1 Z-0.1338
G1 X4.7201 Z-0.1365 F6.1
G1 X4.721 Z-0.1392
G1 X4.7225 Z-0.1415
G1 X4.7245 Z-0.1435
G1 X4.7268 Z-0.145
G1 X4.7295 Z-0.1459
G1 X4.7323 Z-0.1463
G1 X4.7448
G3 X4.7573 Y0.5 I0 J0.0125
G3 X4.5343 Y0.723 I-0.223 J0
G3 X4.3113 Y0.5 I0 J-0.223
G3 X4.5343 Y0.277 I0.223 J0
G3 X4.7573 Y0.5 I0 J0.223
G3 X4.7448 Y0.5125 I-0.0125 J0
G1 X4.7323
G1 X4.7295 Z-0.1459
G1 X4.7268 Z-0.145
G1 X4.7245 Z-0.1435
G1 X4.7225 Z-0.1415
G1 X4.721 Z-0.1392
G1 X4.7201 Z-0.1365
G1 X4.7198 Z-0.1338
G0 Z0.2
G0 Y0.4875
G1 Z-0.0906 F30.
G1 Z-0.1438
G1 X4.7201 Z-0.1465 F6.1
G1 X4.721 Z-0.1492
G1 X4.7225 Z-0.1515
G1 X4.7245 Z-0.1535
G1 X4.7268 Z-0.155
G1 X4.7295 Z-0.1559
G1 X4.7323 Z-0.1563
G1 X4.7448
G3 X4.7573 Y0.5 I0 J0.0125
G3 X4.5343 Y0.723 I-0.223 J0
G3 X4.3113 Y0.5 I0 J-0.223
G3 X4.5343 Y0.277 I0.223 J0
G3 X4.7573 Y0.5 I0 J0.223
G3 X4.7448 Y0.5125 I-0.0125 J0
G1 X4.7323
G1 X4.7295 Z-0.1559
G1 X4.7268 Z-0.155
G1 X4.7245 Z-0.1535
G1 X4.7225 Z-0.1515
G1 X4.721 Z-0.1492
G1 X4.7201 Z-0.1465
G1 X4.7198 Z-0.1438
G0 Z0.2
G0 X1.971 Y0.8085
G1 Z0.0556 F30.
G1 Z-0.0038
G1 X1.9713 Z-0.0065 F6.1
G1 X1.9722 Z-0.0092
G1 X1.9737 Z-0.0115
G1 X1.9757 Z-0.0135
G1 X1.9781 Z-0.015
G1 X1.9807 Z-0.0159
G1 X1.9835 Z-0.0163
G1 X1.996
G3 X2.0085 Y0.821 I0 J0.0125
G3 X1.5 Y1.3295 I-0.5085 J0
G3 X0.9915 Y0.821 I0 J-0.5085
G3 X1.5 Y0.3125 I0.5085 J0
G3 X2.0085 Y0.821 I0 J0.5085
G3 X1.996 Y0.8335 I-0.0125 J0
G1 X1.9835
G1 X1.9807 Z-0.0159
G1 X1.9781 Z-0.015
G1 X1.9757 Z-0.0135
G1 X1.9737 Z-0.0115
G1 X1.9722 Z-0.0092
G1 X1.9713 Z-0.0065
G1 X1.971 Z-0.0038
G0 Z0.2
G0 Y0.8085
G1 Z0.0394 F30.
G1 Z-0.02
G1 X1.9713 Z-0.0228 F6.1
G1 X1.9722 Z-0.0254
G1 X1.9737 Z-0.0278
G1 X1.9757 Z-0.0298
G1 X1.9781 Z-0.0313
G1 X1.9807 Z-0.0322
G1 X1.9835 Z-0.0325
G1 X1.996
G3 X2.0085 Y0.821 I0 J0.0125
G3 X1.5 Y1.3295 I-0.5085 J0
G3 X0.9915 Y0.821 I0 J-0.5085
G3 X1.5 Y0.3125 I0.5085 J0
G3 X2.0085 Y0.821 I0 J0.5085
G3 X1.996 Y0.8335 I-0.0125 J0
G1 X1.9835
G1 X1.9807 Z-0.0322
G1 X1.9781 Z-0.0313
G1 X1.9757 Z-0.0298
G1 X1.9737 Z-0.0278
G1 X1.9722 Z-0.0254
G1 X1.9713 Z-0.0228
G1 X1.971 Z-0.02
G0 Z0.2
G0 Y0.8085
G1 Z0.0231 F30.
G1 Z-0.0363
G1 X1.9713 Z-0.039 F6.1
G1 X1.9722 Z-0.0417
G1 X1.9737 Z-0.044
G1 X1.9757 Z-0.046
G1 X1.9781 Z-0.0475
G1 X1.9807 Z-0.0484
G1 X1.9835 Z-0.0488
G1 X1.996
G3 X2.0085 Y0.821 I0 J0.0125
G3 X1.5 Y1.3295 I-0.5085 J0
G3 X0.9915 Y0.821 I0 J-0.5085
G3 X1.5 Y0.3125 I0.5085 J0
G3 X2.0085 Y0.821 I0 J0.5085
G3 X1.996 Y0.8335 I-0.0125 J0
G1 X1.9835
G1 X1.9807 Z-0.0484
G1 X1.9781 Z-0.0475
G1 X1.9757 Z-0.046
G1 X1.9737 Z-0.044
G1 X1.9722 Z-0.0417
G1 X1.9713 Z-0.039
G1 X1.971 Z-0.0363
G0 Z0.2
G0 Y0.8085
G1 Z0.0069 F30.
G1 Z-0.0525
G1 X1.9713 Z-0.0553 F6.1
G1 X1.9722 Z-0.0579
G1 X1.9737 Z-0.0603
G1 X1.9757 Z-0.0623
G1 X1.9781 Z-0.0638
G1 X1.9807 Z-0.0647
G1 X1.9835 Z-0.065
G1 X1.996
G3 X2.0085 Y0.821 I0 J0.0125
G3 X1.5 Y1.3295 I-0.5085 J0
G3 X0.9915 Y0.821 I0 J-0.5085
G3 X1.5 Y0.3125 I0.5085 J0
G3 X2.0085 Y0.821 I0 J0.5085
G3 X1.996 Y0.8335 I-0.0125 J0
G1 X1.9835
G1 X1.9807 Z-0.0647
G1 X1.9781 Z-0.0638
G1 X1.9757 Z-0.0623
G1 X1.9737 Z-0.0603
G1 X1.9722 Z-0.0579
G1 X1.9713 Z-0.0553
G1 X1.971 Z-0.0525
G0 Z0.2
G0 Y0.8085
G1 Z-0.0094 F30.
G1 Z-0.0688
G1 X1.9713 Z-0.0715 F6.1
G1 X1.9722 Z-0.0742
G1 X1.9737 Z-0.0765
G1 X1.9757 Z-0.0785
G1 X1.9781 Z-0.08
G1 X1.9807 Z-0.0809
G1 X1.9835 Z-0.0813
G1 X1.996
G3 X2.0085 Y0.821 I0 J0.0125
G3 X1.5 Y1.3295 I-0.5085 J0
G3 X0.9915 Y0.821 I0 J-0.5085
G3 X1.5 Y0.3125 I0.5085 J0
G3 X2.0085 Y0.821 I0 J0.5085
G3 X1.996 Y0.8335 I-0.0125 J0
G1 X1.9835
G1 X1.9807 Z-0.0809
G1 X1.9781 Z-0.08
G1 X1.9757 Z-0.0785
G1 X1.9737 Z-0.0765
G1 X1.9722 Z-0.0742
G1 X1.9713 Z-0.0715
G1 X1.971 Z-0.0688
G0 Z0.2
G0 Y0.8085
G1 Z-0.0256 F30.
G1 Z-0.085
G1 X1.9713 Z-0.0878 F6.1
G1 X1.9722 Z-0.0904
G1 X1.9737 Z-0.0928
G1 X1.9757 Z-0.0948
G1 X1.9781 Z-0.0963
G1 X1.9807 Z-0.0972
G1 X1.9835 Z-0.0975
G1 X1.996
G3 X2.0085 Y0.821 I0 J0.0125
G3 X1.5 Y1.3295 I-0.5085 J0
G3 X0.9915 Y0.821 I0 J-0.5085
G3 X1.5 Y0.3125 I0.5085 J0
G3 X2.0085 Y0.821 I0 J0.5085
G3 X1.996 Y0.8335 I-0.0125 J0
G1 X1.9835
G1 X1.9807 Z-0.0972
G1 X1.9781 Z-0.0963
G1 X1.9757 Z-0.0948
G1 X1.9737 Z-0.0928
G1 X1.9722 Z-0.0904
G1 X1.9713 Z-0.0878
G1 X1.971 Z-0.085
G0 Z0.2
G0 Y0.8085
G1 Z-0.0419 F30.
G1 Z-0.1013
G1 X1.9713 Z-0.104 F6.1
G1 X1.9722 Z-0.1067
G1 X1.9737 Z-0.109
G1 X1.9757 Z-0.111
G1 X1.9781 Z-0.1125
G1 X1.9807 Z-0.1134
G1 X1.9835 Z-0.1138
G1 X1.996
G3 X2.0085 Y0.821 I0 J0.0125
G3 X1.5 Y1.3295 I-0.5085 J0
G3 X0.9915 Y0.821 I0 J-0.5085
G3 X1.5 Y0.3125 I0.5085 J0
G3 X2.0085 Y0.821 I0 J0.5085
G3 X1.996 Y0.8335 I-0.0125 J0
G1 X1.9835
G1 X1.9807 Z-0.1134
G1 X1.9781 Z-0.1125
G1 X1.9757 Z-0.111
G1 X1.9737 Z-0.109
G1 X1.9722 Z-0.1067
G1 X1.9713 Z-0.104
G1 X1.971 Z-0.1013
G0 Z0.2
G0 Y0.8085
G1 Z-0.0581 F30.
G1 Z-0.1175
G1 X1.9713 Z-0.1203 F6.1
G1 X1.9722 Z-0.1229
G1 X1.9737 Z-0.1253
G1 X1.9757 Z-0.1273
G1 X1.9781 Z-0.1288
G1 X1.9807 Z-0.1297
G1 X1.9835 Z-0.13
G1 X1.996
G3 X2.0085 Y0.821 I0 J0.0125
G3 X1.5 Y1.3295 I-0.5085 J0
G3 X0.9915 Y0.821 I0 J-0.5085
G3 X1.5 Y0.3125 I0.5085 J0
G3 X2.0085 Y0.821 I0 J0.5085
G3 X1.996 Y0.8335 I-0.0125 J0
G1 X1.9835
G1 X1.9807 Z-0.1297
G1 X1.9781 Z-0.1288
G1 X1.9757 Z-0.1273
G1 X1.9737 Z-0.1253
G1 X1.9722 Z-0.1229
G1 X1.9713 Z-0.1203
G1 X1.971 Z-0.1175
G0 Z0.2
G0 Y0.8085
G1 Z-0.0744 F30.
G1 Z-0.1338
G1 X1.9713 Z-0.1365 F6.1
G1 X1.9722 Z-0.1392
G1 X1.9737 Z-0.1415
G1 X1.9757 Z-0.1435
G1 X1.9781 Z-0.145
G1 X1.9807 Z-0.1459
G1 X1.9835 Z-0.1463
G1 X1.996
G3 X2.0085 Y0.821 I0 J0.0125
G3 X1.5 Y1.3295 I-0.5085 J0
G3 X0.9915 Y0.821 I0 J-0.5085
G3 X1.5 Y0.3125 I0.5085 J0
G3 X2.0085 Y0.821 I0 J0.5085
G3 X1.996 Y0.8335 I-0.0125 J0
G1 X1.9835
G1 X1.9807 Z-0.1459
G1 X1.9781 Z-0.145
G1 X1.9757 Z-0.1435
G1 X1.9737 Z-0.1415
G1 X1.9722 Z-0.1392
G1 X1.9713 Z-0.1365
G1 X1.971 Z-0.1338
G0 Z0.2
G0 Y0.8085
G1 Z-0.0906 F30.
G1 Z-0.1438
G1 X1.9713 Z-0.1465 F6.1
G1 X1.9722 Z-0.1492
G1 X1.9737 Z-0.1515
G1 X1.9757 Z-0.1535
G1 X1.9781 Z-0.155
G1 X1.9807 Z-0.1559
G1 X1.9835 Z-0.1563
G1 X1.996
G3 X2.0085 Y0.821 I0 J0.0125
G3 X1.5 Y1.3295 I-0.5085 J0
G3 X0.9915 Y0.821 I0 J-0.5085
G3 X1.5 Y0.3125 I0.5085 J0
G3 X2.0085 Y0.821 I0 J0.5085
G3 X1.996 Y0.8335 I-0.0125 J0
G1 X1.9835
G1 X1.9807 Z-0.1559
G1 X1.9781 Z-0.155
G1 X1.9757 Z-0.1535
G1 X1.9737 Z-0.1515
G1 X1.9722 Z-0.1492
G1 X1.9713 Z-0.1465
G1 X1.971 Z-0.1438
G0 Z0.2
G0 X0.8136 Y1.5338
G1 Z0.0556 F30.
G1 Z-0.0038
G1 X0.8139 Y1.5339 Z-0.0065 F6.1
G1 X0.8147 Y1.5344 Z-0.0092
G1 X0.8159 Y1.5352 Z-0.0115
G1 X0.8176 Y1.5362 Z-0.0135
G1 X0.8197 Y1.5374 Z-0.015
G1 X0.822 Y1.5387 Z-0.0159
G1 X0.8243 Y1.5402 Z-0.0163
G1 X0.8351 Y1.5466
G3 X0.8394 Y1.5637 I-0.0064 J0.0107
G1 X0.6787 Y1.8335
G3 X0.593 Y1.8553 I-0.0537 J-0.032
G3 X0.5625 Y1.8016 I0.032 J-0.0537
G1 Y0.6144
G3 X0.588 Y0.564 I0.0625 J0
G3 X0.6357 Y0.6379 I-0.0135 J0.061
G2 X0.8634 Y1.4336 I0.8643 J0.1831
G3 X0.872 Y1.5089 I-0.045 J0.0433
G1 X0.8394 Y1.5637
G3 X0.8223 Y1.568 I-0.0107 J-0.0064
G1 X0.8115 Y1.5616
G1 X0.8092 Y1.5602 Z-0.0159
G1 X0.8069 Y1.5589 Z-0.015
G1 X0.8049 Y1.5576 Z-0.0135
G1 X0.8032 Y1.5566 Z-0.0115
G1 X0.8019 Y1.5559 Z-0.0092
G1 X0.8011 Y1.5554 Z-0.0065
G1 X0.8008 Y1.5552 Z-0.0038
G0 Z0.2
G0 X0.8136 Y1.5338
G1 Z0.0394 F30.
G1 Z-0.02
G1 X0.8139 Y1.5339 Z-0.0228 F6.1
G1 X0.8147 Y1.5344 Z-0.0254
G1 X0.8159 Y1.5352 Z-0.0278
G1 X0.8176 Y1.5362 Z-0.0298
G1 X0.8197 Y1.5374 Z-0.0313
G1 X0.822 Y1.5387 Z-0.0322
G1 X0.8243 Y1.5402 Z-0.0325
G1 X0.8351 Y1.5466
G3 X0.8394 Y1.5637 I-0.0064 J0.0107
G1 X0.6787 Y1.8335
G3 X0.593 Y1.8553 I-0.0537 J-0.032
G3 X0.5625 Y1.8016 I0.032 J-0.0537
G1 Y0.6144
G3 X0.588 Y0.564 I0.0625 J0
G3 X0.6357 Y0.6379 I-0.0135 J0.061
G2 X0.8634 Y1.4336 I0.8643 J0.1831
G3 X0.872 Y1.5089 I-0.045 J0.0433
G1 X0.8394 Y1.5637
G3 X0.8223 Y1.568 I-0.0107 J-0.0064
G1 X0.8115 Y1.5616
G1 X0.8092 Y1.5602 Z-0.0322
G1 X0.8069 Y1.5589 Z-0.0313
G1 X0.8049 Y1.5576 Z-0.0298
G1 X0.8032 Y1.5566 Z-0.0278
G1 X0.8019 Y1.5559 Z-0.0254
G1 X0.8011 Y1.5554 Z-0.0228
G1 X0.8008 Y1.5552 Z-0.02
G0 Z0.2
G0 X0.8136 Y1.5338
G1 Z0.0231 F30.
G1 Z-0.0363
G1 X0.8139 Y1.5339 Z-0.039 F6.1
G1 X0.8147 Y1.5344 Z-0.0417
G1 X0.8159 Y1.5352 Z-0.044
G1 X0.8176 Y1.5362 Z-0.046
G1 X0.8197 Y1.5374 Z-0.0475
G1 X0.822 Y1.5387 Z-0.0484
G1 X0.8243 Y1.5402 Z-0.0488
G1 X0.8351 Y1.5466
G3 X0.8394 Y1.5637 I-0.0064 J0.0107
G1 X0.6787 Y1.8335
G3 X0.593 Y1.8553 I-0.0537 J-0.032
G3 X0.5625 Y1.8016 I0.032 J-0.0537
G1 Y0.6144
G3 X0.588 Y0.564 I0.0625 J0
G3 X0.6357 Y0.6379 I-0.0135 J0.061
G2 X0.8634 Y1.4336 I0.8643 J0.1831
G3 X0.872 Y1.5089 I-0.045 J0.0433
G1 X0.8394 Y1.5637
G3 X0.8223 Y1.568 I-0.0107 J-0.0064
G1 X0.8115 Y1.5616
G1 X0.8092 Y1.5602 Z-0.0484
G1 X0.8069 Y1.5589 Z-0.0475
G1 X0.8049 Y1.5576 Z-0.046
G1 X0.8032 Y1.5566 Z-0.044
G1 X0.8019 Y1.5559 Z-0.0417
G1 X0.8011 Y1.5554 Z-0.039
G1 X0.8008 Y1.5552 Z-0.0363
G0 Z0.2
G0 X0.8136 Y1.5338
G1 Z0.0069 F30.
G1 Z-0.0525
G1 X0.8139 Y1.5339 Z-0.0553 F6.1
G1 X0.8147 Y1.5344 Z-0.0579
G1 X0.8159 Y1.5352 Z-0.0603
G1 X0.8176 Y1.5362 Z-0.0623
G1 X0.8197 Y1.5374 Z-0.0638
G1 X0.822 Y1.5387 Z-0.0647
G1 X0.8243 Y1.5402 Z-0.065
G1 X0.8351 Y1.5466
G3 X0.8394 Y1.5637 I-0.0064 J0.0107
G1 X0.6787 Y1.8335
G3 X0.593 Y1.8553 I-0.0537 J-0.032
G3 X0.5625 Y1.8016 I0.032 J-0.0537
G1 Y0.6144
G3 X0.588 Y0.564 I0.0625 J0
G3 X0.6357 Y0.6379 I-0.0135 J0.061
G2 X0.8634 Y1.4336 I0.8643 J0.1831
G3 X0.872 Y1.5089 I-0.045 J0.0433
G1 X0.8394 Y1.5637
G3 X0.8223 Y1.568 I-0.0107 J-0.0064
G1 X0.8115 Y1.5616
G1 X0.8092 Y1.5602 Z-0.0647
G1 X0.8069 Y1.5589 Z-0.0638
G1 X0.8049 Y1.5576 Z-0.0623
G1 X0.8032 Y1.5566 Z-0.0603
G1 X0.8019 Y1.5559 Z-0.0579
G1 X0.8011 Y1.5554 Z-0.0553
G1 X0.8008 Y1.5552 Z-0.0525
G0 Z0.2
G0 X0.8136 Y1.5338
G1 Z-0.0094 F30.
G1 Z-0.0688
G1 X0.8139 Y1.5339 Z-0.0715 F6.1
G1 X0.8147 Y1.5344 Z-0.0742
G1 X0.8159 Y1.5352 Z-0.0765
G1 X0.8176 Y1.5362 Z-0.0785
G1 X0.8197 Y1.5374 Z-0.08
G1 X0.822 Y1.5387 Z-0.0809
G1 X0.8243 Y1.5402 Z-0.0813
G1 X0.8351 Y1.5466
G3 X0.8394 Y1.5637 I-0.0064 J0.0107
G1 X0.6787 Y1.8335
G3 X0.593 Y1.8553 I-0.0537 J-0.032
G3 X0.5625 Y1.8016 I0.032 J-0.0537
G1 Y0.6144
G3 X0.588 Y0.564 I0.0625 J0
G3 X0.6357 Y0.6379 I-0.0135 J0.061
G2 X0.8634 Y1.4336 I0.8643 J0.1831
G3 X0.872 Y1.5089 I-0.045 J0.0433
G1 X0.8394 Y1.5637
G3 X0.8223 Y1.568 I-0.0107 J-0.0064
G1 X0.8115 Y1.5616
G1 X0.8092 Y1.5602 Z-0.0809
G1 X0.8069 Y1.5589 Z-0.08
G1 X0.8049 Y1.5576 Z-0.0785
G1 X0.8032 Y1.5566 Z-0.0765
G1 X0.8019 Y1.5559 Z-0.0742
G1 X0.8011 Y1.5554 Z-0.0715
G1 X0.8008 Y1.5552 Z-0.0688
G0 Z0.2
G0 X0.8136 Y1.5338
G1 Z-0.0256 F30.
G1 Z-0.085
G1 X0.8139 Y1.5339 Z-0.0878 F6.1
G1 X0.8147 Y1.5344 Z-0.0904
G1 X0.8159 Y1.5352 Z-0.0928
G1 X0.8176 Y1.5362 Z-0.0948
G1 X0.8197 Y1.5374 Z-0.0963
G1 X0.822 Y1.5387 Z-0.0972
G1 X0.8243 Y1.5402 Z-0.0975
G1 X0.8351 Y1.5466
G3 X0.8394 Y1.5637 I-0.0064 J0.0107
G1 X0.6787 Y1.8335
G3 X0.593 Y1.8553 I-0.0537 J-0.032
G3 X0.5625 Y1.8016 I0.032 J-0.0537
G1 Y0.6144
G3 X0.588 Y0.564 I0.0625 J0
G3 X0.6357 Y0.6379 I-0.0135 J0.061
G2 X0.8634 Y1.4336 I0.8643 J0.1831
G3 X0.872 Y1.5089 I-0.045 J0.0433
G1 X0.8394 Y1.5637
G3 X0.8223 Y1.568 I-0.0107 J-0.0064
G1 X0.8115 Y1.5616
G1 X0.8092 Y1.5602 Z-0.0972
G1 X0.8069 Y1.5589 Z-0.0963
G1 X0.8049 Y1.5576 Z-0.0948
G1 X0.8032 Y1.5566 Z-0.0928
G1 X0.8019 Y1.5559 Z-0.0904
G1 X0.8011 Y1.5554 Z-0.0878
G1 X0.8008 Y1.5552 Z-0.085
G0 Z0.2
G0 X0.8136 Y1.5338
G1 Z-0.0419 F30.
G1 Z-0.1013
G1 X0.8139 Y1.5339 Z-0.104 F6.1
G1 X0.8147 Y1.5344 Z-0.1067
G1 X0.8159 Y1.5352 Z-0.109
G1 X0.8176 Y1.5362 Z-0.111
G1 X0.8197 Y1.5374 Z-0.1125
G1 X0.822 Y1.5387 Z-0.1134
G1 X0.8243 Y1.5402 Z-0.1138
G1 X0.8351 Y1.5466
G3 X0.8394 Y1.5637 I-0.0064 J0.0107
G1 X0.6787 Y1.8335
G3 X0.593 Y1.8553 I-0.0537 J-0.032
G3 X0.5625 Y1.8016 I0.032 J-0.0537
G1 Y0.6144
G3 X0.588 Y0.564 I0.0625 J0
G3 X0.6357 Y0.6379 I-0.0135 J0.061
G2 X0.8634 Y1.4336 I0.8643 J0.1831
G3 X0.872 Y1.5089 I-0.045 J0.0433
G1 X0.8394 Y1.5637
G3 X0.8223 Y1.568 I-0.0107 J-0.0064
G1 X0.8115 Y1.5616
G1 X0.8092 Y1.5602 Z-0.1134
G1 X0.8069 Y1.5589 Z-0.1125
G1 X0.8049 Y1.5576 Z-0.111
G1 X0.8032 Y1.5566 Z-0.109
G1 X0.8019 Y1.5559 Z-0.1067
G1 X0.8011 Y1.5554 Z-0.104
G1 X0.8008 Y1.5552 Z-0.1013
G0 Z0.2
G0 X0.8136 Y1.5338
G1 Z-0.0581 F30.
G1 Z-0.1175
G1 X0.8139 Y1.5339 Z-0.1203 F6.1
G1 X0.8147 Y1.5344 Z-0.1229
G1 X0.8159 Y1.5352 Z-0.1253
G1 X0.8176 Y1.5362 Z-0.1273
G1 X0.8197 Y1.5374 Z-0.1288
G1 X0.822 Y1.5387 Z-0.1297
G1 X0.8243 Y1.5402 Z-0.13
G1 X0.8351 Y1.5466
G3 X0.8394 Y1.5637 I-0.0064 J0.0107
G1 X0.6787 Y1.8335
G3 X0.593 Y1.8553 I-0.0537 J-0.032
G3 X0.5625 Y1.8016 I0.032 J-0.0537
G1 Y0.6144
G3 X0.588 Y0.564 I0.0625 J0
G3 X0.6357 Y0.6379 I-0.0135 J0.061
G2 X0.8634 Y1.4336 I0.8643 J0.1831
G3 X0.872 Y1.5089 I-0.045 J0.0433
G1 X0.8394 Y1.5637
G3 X0.8223 Y1.568 I-0.0107 J-0.0064
G1 X0.8115 Y1.5616
G1 X0.8092 Y1.5602 Z-0.1297
G1 X0.8069 Y1.5589 Z-0.1288
G1 X0.8049 Y1.5576 Z-0.1273
G1 X0.8032 Y1.5566 Z-0.1253
G1 X0.8019 Y1.5559 Z-0.1229
G1 X0.8011 Y1.5554 Z-0.1203
G1 X0.8008 Y1.5552 Z-0.1175
G0 Z0.2
G0 X0.8136 Y1.5338
G1 Z-0.0744 F30.
G1 Z-0.1338
G1 X0.8139 Y1.5339 Z-0.1365 F6.1
G1 X0.8147 Y1.5344 Z-0.1392
G1 X0.8159 Y1.5352 Z-0.1415
G1 X0.8176 Y1.5362 Z-0.1435
G1 X0.8197 Y1.5374 Z-0.145
G1 X0.822 Y1.5387 Z-0.1459
G1 X0.8243 Y1.5402 Z-0.1463
G1 X0.8351 Y1.5466
G3 X0.8394 Y1.5637 I-0.0064 J0.0107
G1 X0.6787 Y1.8335
G3 X0.593 Y1.8553 I-0.0537 J-0.032
G3 X0.5625 Y1.8016 I0.032 J-0.0537
G1 Y0.6144
G3 X0.588 Y0.564 I0.0625 J0
G3 X0.6357 Y0.6379 I-0.0135 J0.061
G2 X0.8634 Y1.4336 I0.8643 J0.1831
G3 X0.872 Y1.5089 I-0.045 J0.0433
G1 X0.8394 Y1.5637
G3 X0.8223 Y1.568 I-0.0107 J-0.0064
G1 X0.8115 Y1.5616
G1 X0.8092 Y1.5602 Z-0.1459
G1 X0.8069 Y1.5589 Z-0.145
G1 X0.8049 Y1.5576 Z-0.1435
G1 X0.8032 Y1.5566 Z-0.1415
G1 X0.8019 Y1.5559 Z-0.1392
G1 X0.8011 Y1.5554 Z-0.1365
G1 X0.8008 Y1.5552 Z-0.1338
G0 Z0.2
G0 X0.8136 Y1.5338
G1 Z-0.0906 F30.
G1 Z-0.1438
G1 X0.8139 Y1.5339 Z-0.1465 F6.1
G1 X0.8147 Y1.5344 Z-0.1492
G1 X0.8159 Y1.5352 Z-0.1515
G1 X0.8176 Y1.5362 Z-0.1535
G1 X0.8197 Y1.5374 Z-0.155
G1 X0.822 Y1.5387 Z-0.1559
G1 X0.8243 Y1.5402 Z-0.1563
G1 X0.8351 Y1.5466
G3 X0.8394 Y1.5637 I-0.0064 J0.0107
G1 X0.6787 Y1.8335
G3 X0.593 Y1.8553 I-0.0537 J-0.032
G3 X0.5625 Y1.8016 I0.032 J-0.0537
G1 Y0.6144
G3 X0.588 Y0.564 I0.0625 J0
G3 X0.6357 Y0.6379 I-0.0135 J0.061
G2 X0.8634 Y1.4336 I0.8643 J0.1831
G3 X0.872 Y1.5089 I-0.045 J0.0433
G1 X0.8394 Y1.5637
G3 X0.8223 Y1.568 I-0.0107 J-0.0064
G1 X0.8115 Y1.5616
G1 X0.8092 Y1.5602 Z-0.1559
G1 X0.8069 Y1.5589 Z-0.155
G1 X0.8049 Y1.5576 Z-0.1535
G1 X0.8032 Y1.5566 Z-0.1515
G1 X0.8019 Y1.5559 Z-0.1492
G1 X0.8011 Y1.5554 Z-0.1465
G1 X0.8008 Y1.5552 Z-0.1438
G0 Z0.6

M5
M30
