(1001)
(T1  D=0.125 CR=0 - ZMIN=-0.1563 - FLAT END MILL)
G0 G40 G90 G17
G20

(2D CONTOUR1)
T1 M6
M3 S2440
G0 X-4.9138 Y0.9362
G0 Z0.6
G0 Z0.2
G1 Z0.0556 F30.
G1 Z-0.0038
G1 Y0.9358 Z-0.0065 F6.1
G1 X-4.9137 Y0.9349 Z-0.0092
G1 Y0.9334 Z-0.0115
G1 X-4.9136 Y0.9315 Z-0.0135
G1 X-4.9135 Y0.9291 Z-0.015
G1 Y0.9264 Z-0.0159
G1 X-4.9134 Y0.9237 Z-0.0163
G1 X-4.913 Y0.9112
G3 X-4.909 Y0.9025 I0.0125 J0.0004
G3 X-4.9001 Y0.8991 I0.0085 J0.0091
G1 X-2.541 Y0.9751
G3 X-2.4806 Y1.0395 I-0.002 J0.0625
G3 X-2.5163 Y1.094 I-0.0625 J-0.002
G1 X-3.7957 Y1.6988
G3 X-3.8643 Y1.6887 I-0.0267 J-0.0565
G2 X-4.323 Y1.5406 I-0.3942 J0.4363
G2 X-4.7383 Y1.7852 I0.0645 J0.5844
G3 X-4.8031 Y1.81 I-0.051 J-0.0361
G1 X-8.8591 Y0.8955
G3 X-8.9064 Y0.8208 I0.0137 J-0.061
G3 X-8.8434 Y0.7721 I0.061 J0.0137
G1 X-4.9001 Y0.8991
G3 X-4.888 Y0.912 I-0.0004 J0.0125
G1 X-4.8884 Y0.9245
G1 X-4.8885 Y0.9272 Z-0.0159
G1 X-4.8886 Y0.9299 Z-0.015
G1 Y0.9323 Z-0.0135
G1 X-4.8887 Y0.9342 Z-0.0115
G1 Y0.9357 Z-0.0092
G1 X-4.8888 Y0.9366 Z-0.0065
G1 Y0.937 Z-0.0038
G0 Z0.2
G0 X-4.9138 Y0.9362
G1 Z0.0394 F30.
G1 Z-0.02
G1 Y0.9358 Z-0.0228 F6.1
G1 X-4.9137 Y0.9349 Z-0.0254
G1 Y0.9334 Z-0.0278
G1 X-4.9136 Y0.9315 Z-0.0298
G1 X-4.9135 Y0.9291 Z-0.0313
G1 Y0.9264 Z-0.0322
G1 X-4.9134 Y0.9237 Z-0.0325
G1 X-4.913 Y0.9112
G3 X-4.909 Y0.9025 I0.0125 J0.0004
G3 X-4.9001 Y0.8991 I0.0085 J0.0091
G1 X-2.541 Y0.9751
G3 X-2.4806 Y1.0395 I-0.002 J0.0625
G3 X-2.5163 Y1.094 I-0.0625 J-0.002
G1 X-3.7957 Y1.6988
G3 X-3.8643 Y1.6887 I-0.0267 J-0.0565
G2 X-4.323 Y1.5406 I-0.3942 J0.4363
G2 X-4.7383 Y1.7852 I0.0645 J0.5844
G3 X-4.8031 Y1.81 I-0.051 J-0.0361
G1 X-8.8591 Y0.8955
G3 X-8.9064 Y0.8208 I0.0137 J-0.061
G3 X-8.8434 Y0.7721 I0.061 J0.0137
G1 X-4.9001 Y0.8991
G3 X-4.888 Y0.912 I-0.0004 J0.0125
G1 X-4.8884 Y0.9245
G1 X-4.8885 Y0.9272 Z-0.0322
G1 X-4.8886 Y0.9299 Z-0.0313
G1 Y0.9323 Z-0.0298
G1 X-4.8887 Y0.9342 Z-0.0278
G1 Y0.9357 Z-0.0254
G1 X-4.8888 Y0.9366 Z-0.0228
G1 Y0.937 Z-0.02
G0 Z0.2
G0 X-4.9138 Y0.9362
G1 Z0.0231 F30.
G1 Z-0.0363
G1 Y0.9358 Z-0.039 F6.1
G1 X-4.9137 Y0.9349 Z-0.0417
G1 Y0.9334 Z-0.044
G1 X-4.9136 Y0.9315 Z-0.046
G1 X-4.9135 Y0.9291 Z-0.0475
G1 Y0.9264 Z-0.0484
G1 X-4.9134 Y0.9237 Z-0.0488
G1 X-4.913 Y0.9112
G3 X-4.909 Y0.9025 I0.0125 J0.0004
G3 X-4.9001 Y0.8991 I0.0085 J0.0091
G1 X-2.541 Y0.9751
G3 X-2.4806 Y1.0395 I-0.002 J0.0625
G3 X-2.5163 Y1.094 I-0.0625 J-0.002
G1 X-3.7957 Y1.6988
G3 X-3.8643 Y1.6887 I-0.0267 J-0.0565
G2 X-4.323 Y1.5406 I-0.3942 J0.4363
G2 X-4.7383 Y1.7852 I0.0645 J0.5844
G3 X-4.8031 Y1.81 I-0.051 J-0.0361
G1 X-8.8591 Y0.8955
G3 X-8.9064 Y0.8208 I0.0137 J-0.061
G3 X-8.8434 Y0.7721 I0.061 J0.0137
G1 X-4.9001 Y0.8991
G3 X-4.888 Y0.912 I-0.0004 J0.0125
G1 X-4.8884 Y0.9245
G1 X-4.8885 Y0.9272 Z-0.0484
G1 X-4.8886 Y0.9299 Z-0.0475
G1 Y0.9323 Z-0.046
G1 X-4.8887 Y0.9342 Z-0.044
G1 Y0.9357 Z-0.0417
G1 X-4.8888 Y0.9366 Z-0.039
G1 Y0.937 Z-0.0363
G0 Z0.2
G0 X-4.9138 Y0.9362
G1 Z0.0069 F30.
G1 Z-0.0525
G1 Y0.9358 Z-0.0553 F6.1
G1 X-4.9137 Y0.9349 Z-0.0579
G1 Y0.9334 Z-0.0603
G1 X-4.9136 Y0.9315 Z-0.0623
G1 X-4.9135 Y0.9291 Z-0.0638
G1 Y0.9264 Z-0.0647
G1 X-4.9134 Y0.9237 Z-0.065
G1 X-4.913 Y0.9112
G3 X-4.909 Y0.9025 I0.0125 J0.0004
G3 X-4.9001 Y0.8991 I0.0085 J0.0091
G1 X-2.541 Y0.9751
G3 X-2.4806 Y1.0395 I-0.002 J0.0625
G3 X-2.5163 Y1.094 I-0.0625 J-0.002
G1 X-3.7957 Y1.6988
G3 X-3.8643 Y1.6887 I-0.0267 J-0.0565
G2 X-4.323 Y1.5406 I-0.3942 J0.4363
G2 X-4.7383 Y1.7852 I0.0645 J0.5844
G3 X-4.8031 Y1.81 I-0.051 J-0.0361
G1 X-8.8591 Y0.8955
G3 X-8.9064 Y0.8208 I0.0137 J-0.061
G3 X-8.8434 Y0.7721 I0.061 J0.0137
G1 X-4.9001 Y0.8991
G3 X-4.888 Y0.912 I-0.0004 J0.0125
G1 X-4.8884 Y0.9245
G1 X-4.8885 Y0.9272 Z-0.0647
G1 X-4.8886 Y0.9299 Z-0.0638
G1 Y0.9323 Z-0.0623
G1 X-4.8887 Y0.9342 Z-0.0603
G1 Y0.9357 Z-0.0579
G1 X-4.8888 Y0.9366 Z-0.0553
G1 Y0.937 Z-0.0525
G0 Z0.2
G0 X-4.9138 Y0.9362
G1 Z-0.0094 F30.
G1 Z-0.0688
G1 Y0.9358 Z-0.0715 F6.1
G1 X-4.9137 Y0.9349 Z-0.0742
G1 Y0.9334 Z-0.0765
G1 X-4.9136 Y0.9315 Z-0.0785
G1 X-4.9135 Y0.9291 Z-0.08
G1 Y0.9264 Z-0.0809
G1 X-4.9134 Y0.9237 Z-0.0813
G1 X-4.913 Y0.9112
G3 X-4.909 Y0.9025 I0.0125 J0.0004
G3 X-4.9001 Y0.8991 I0.0085 J0.0091
G1 X-2.541 Y0.9751
G3 X-2.4806 Y1.0395 I-0.002 J0.0625
G3 X-2.5163 Y1.094 I-0.0625 J-0.002
G1 X-3.7957 Y1.6988
G3 X-3.8643 Y1.6887 I-0.0267 J-0.0565
G2 X-4.323 Y1.5406 I-0.3942 J0.4363
G2 X-4.7383 Y1.7852 I0.0645 J0.5844
G3 X-4.8031 Y1.81 I-0.051 J-0.0361
G1 X-8.8591 Y0.8955
G3 X-8.9064 Y0.8208 I0.0137 J-0.061
G3 X-8.8434 Y0.7721 I0.061 J0.0137
G1 X-4.9001 Y0.8991
G3 X-4.888 Y0.912 I-0.0004 J0.0125
G1 X-4.8884 Y0.9245
G1 X-4.8885 Y0.9272 Z-0.0809
G1 X-4.8886 Y0.9299 Z-0.08
G1 Y0.9323 Z-0.0785
G1 X-4.8887 Y0.9342 Z-0.0765
G1 Y0.9357 Z-0.0742
G1 X-4.8888 Y0.9366 Z-0.0715
G1 Y0.937 Z-0.0688
G0 Z0.2
G0 X-4.9138 Y0.9362
G1 Z-0.0256 F30.
G1 Z-0.085
G1 Y0.9358 Z-0.0878 F6.1
G1 X-4.9137 Y0.9349 Z-0.0904
G1 Y0.9334 Z-0.0928
G1 X-4.9136 Y0.9315 Z-0.0948
G1 X-4.9135 Y0.9291 Z-0.0963
G1 Y0.9264 Z-0.0972
G1 X-4.9134 Y0.9237 Z-0.0975
G1 X-4.913 Y0.9112
G3 X-4.909 Y0.9025 I0.0125 J0.0004
G3 X-4.9001 Y0.8991 I0.0085 J0.0091
G1 X-2.541 Y0.9751
G3 X-2.4806 Y1.0395 I-0.002 J0.0625
G3 X-2.5163 Y1.094 I-0.0625 J-0.002
G1 X-3.7957 Y1.6988
G3 X-3.8643 Y1.6887 I-0.0267 J-0.0565
G2 X-4.323 Y1.5406 I-0.3942 J0.4363
G2 X-4.7383 Y1.7852 I0.0645 J0.5844
G3 X-4.8031 Y1.81 I-0.051 J-0.0361
G1 X-8.8591 Y0.8955
G3 X-8.9064 Y0.8208 I0.0137 J-0.061
G3 X-8.8434 Y0.7721 I0.061 J0.0137
G1 X-4.9001 Y0.8991
G3 X-4.888 Y0.912 I-0.0004 J0.0125
G1 X-4.8884 Y0.9245
G1 X-4.8885 Y0.9272 Z-0.0972
G1 X-4.8886 Y0.9299 Z-0.0963
G1 Y0.9323 Z-0.0948
G1 X-4.8887 Y0.9342 Z-0.0928
G1 Y0.9357 Z-0.0904
G1 X-4.8888 Y0.9366 Z-0.0878
G1 Y0.937 Z-0.085
G0 Z0.2
G0 X-4.9138 Y0.9362
G1 Z-0.0419 F30.
G1 Z-0.1013
G1 Y0.9358 Z-0.104 F6.1
G1 X-4.9137 Y0.9349 Z-0.1067
G1 Y0.9334 Z-0.109
G1 X-4.9136 Y0.9315 Z-0.111
G1 X-4.9135 Y0.9291 Z-0.1125
G1 Y0.9264 Z-0.1134
G1 X-4.9134 Y0.9237 Z-0.1138
G1 X-4.913 Y0.9112
G3 X-4.909 Y0.9025 I0.0125 J0.0004
G3 X-4.9001 Y0.8991 I0.0085 J0.0091
G1 X-2.541 Y0.9751
G3 X-2.4806 Y1.0395 I-0.002 J0.0625
G3 X-2.5163 Y1.094 I-0.0625 J-0.002
G1 X-3.7957 Y1.6988
G3 X-3.8643 Y1.6887 I-0.0267 J-0.0565
G2 X-4.323 Y1.5406 I-0.3942 J0.4363
G2 X-4.7383 Y1.7852 I0.0645 J0.5844
G3 X-4.8031 Y1.81 I-0.051 J-0.0361
G1 X-8.8591 Y0.8955
G3 X-8.9064 Y0.8208 I0.0137 J-0.061
G3 X-8.8434 Y0.7721 I0.061 J0.0137
G1 X-4.9001 Y0.8991
G3 X-4.888 Y0.912 I-0.0004 J0.0125
G1 X-4.8884 Y0.9245
G1 X-4.8885 Y0.9272 Z-0.1134
G1 X-4.8886 Y0.9299 Z-0.1125
G1 Y0.9323 Z-0.111
G1 X-4.8887 Y0.9342 Z-0.109
G1 Y0.9357 Z-0.1067
G1 X-4.8888 Y0.9366 Z-0.104
G1 Y0.937 Z-0.1013
G0 Z0.2
G0 X-4.9138 Y0.9362
G1 Z-0.0581 F30.
G1 Z-0.1175
G1 Y0.9358 Z-0.1203 F6.1
G1 X-4.9137 Y0.9349 Z-0.1229
G1 Y0.9334 Z-0.1253
G1 X-4.9136 Y0.9315 Z-0.1273
G1 X-4.9135 Y0.9291 Z-0.1288
G1 Y0.9264 Z-0.1297
G1 X-4.9134 Y0.9237 Z-0.13
G1 X-4.913 Y0.9112
G3 X-4.909 Y0.9025 I0.0125 J0.0004
G3 X-4.9001 Y0.8991 I0.0085 J0.0091
G1 X-2.541 Y0.9751
G3 X-2.4806 Y1.0395 I-0.002 J0.0625
G3 X-2.5163 Y1.094 I-0.0625 J-0.002
G1 X-3.7957 Y1.6988
G3 X-3.8643 Y1.6887 I-0.0267 J-0.0565
G2 X-4.323 Y1.5406 I-0.3942 J0.4363
G2 X-4.7383 Y1.7852 I0.0645 J0.5844
G3 X-4.8031 Y1.81 I-0.051 J-0.0361
G1 X-8.8591 Y0.8955
G3 X-8.9064 Y0.8208 I0.0137 J-0.061
G3 X-8.8434 Y0.7721 I0.061 J0.0137
G1 X-4.9001 Y0.8991
G3 X-4.888 Y0.912 I-0.0004 J0.0125
G1 X-4.8884 Y0.9245
G1 X-4.8885 Y0.9272 Z-0.1297
G1 X-4.8886 Y0.9299 Z-0.1288
G1 Y0.9323 Z-0.1273
G1 X-4.8887 Y0.9342 Z-0.1253
G1 Y0.9357 Z-0.1229
G1 X-4.8888 Y0.9366 Z-0.1203
G1 Y0.937 Z-0.1175
G0 Z0.2
G0 X-4.9138 Y0.9362
G1 Z-0.0744 F30.
G1 Z-0.1338
G1 Y0.9358 Z-0.1365 F6.1
G1 X-4.9137 Y0.9349 Z-0.1392
G1 Y0.9334 Z-0.1415
G1 X-4.9136 Y0.9315 Z-0.1435
G1 X-4.9135 Y0.9291 Z-0.145
G1 Y0.9264 Z-0.1459
G1 X-4.9134 Y0.9237 Z-0.1463
G1 X-4.913 Y0.9112
G3 X-4.909 Y0.9025 I0.0125 J0.0004
G3 X-4.9001 Y0.8991 I0.0085 J0.0091
G1 X-2.541 Y0.9751
G3 X-2.4806 Y1.0395 I-0.002 J0.0625
G3 X-2.5163 Y1.094 I-0.0625 J-0.002
G1 X-3.7957 Y1.6988
G3 X-3.8643 Y1.6887 I-0.0267 J-0.0565
G2 X-4.323 Y1.5406 I-0.3942 J0.4363
G2 X-4.7383 Y1.7852 I0.0645 J0.5844
G3 X-4.8031 Y1.81 I-0.051 J-0.0361
G1 X-8.8591 Y0.8955
G3 X-8.9064 Y0.8208 I0.0137 J-0.061
G3 X-8.8434 Y0.7721 I0.061 J0.0137
G1 X-4.9001 Y0.8991
G3 X-4.888 Y0.912 I-0.0004 J0.0125
G1 X-4.8884 Y0.9245
G1 X-4.8885 Y0.9272 Z-0.1459
G1 X-4.8886 Y0.9299 Z-0.145
G1 Y0.9323 Z-0.1435
G1 X-4.8887 Y0.9342 Z-0.1415
G1 Y0.9357 Z-0.1392
G1 X-4.8888 Y0.9366 Z-0.1365
G1 Y0.937 Z-0.1338
G0 Z0.2
G0 X-4.9138 Y0.9362
G1 Z-0.0906 F30.
G1 Z-0.1438
G1 Y0.9358 Z-0.1465 F6.1
G1 X-4.9137 Y0.9349 Z-0.1492
G1 Y0.9334 Z-0.1515
G1 X-4.9136 Y0.9315 Z-0.1535
G1 X-4.9135 Y0.9291 Z-0.155
G1 Y0.9264 Z-0.1559
G1 X-4.9134 Y0.9237 Z-0.1563
G1 X-4.913 Y0.9112
G3 X-4.909 Y0.9025 I0.0125 J0.0004
G3 X-4.9001 Y0.8991 I0.0085 J0.0091
G1 X-2.541 Y0.9751
G3 X-2.4806 Y1.0395 I-0.002 J0.0625
G3 X-2.5163 Y1.094 I-0.0625 J-0.002
G1 X-3.7957 Y1.6988
G3 X-3.8643 Y1.6887 I-0.0267 J-0.0565
G2 X-4.323 Y1.5406 I-0.3942 J0.4363
G2 X-4.7383 Y1.7852 I0.0645 J0.5844
G3 X-4.8031 Y1.81 I-0.051 J-0.0361
G1 X-8.8591 Y0.8955
G3 X-8.9064 Y0.8208 I0.0137 J-0.061
G3 X-8.8434 Y0.7721 I0.061 J0.0137
G1 X-4.9001 Y0.8991
G3 X-4.888 Y0.912 I-0.0004 J0.0125
G1 X-4.8884 Y0.9245
G1 X-4.8885 Y0.9272 Z-0.1559
G1 X-4.8886 Y0.9299 Z-0.155
G1 Y0.9323 Z-0.1535
G1 X-4.8887 Y0.9342 Z-0.1515
G1 Y0.9357 Z-0.1492
G1 X-4.8888 Y0.9366 Z-0.1465
G1 Y0.937 Z-0.1438
G0 Z0.2
G0 X-4.0828 Y2.1168
G1 Z0.0556 F30.
G1 Z-0.0038
G1 X-4.0824 Z-0.0065 F6.1
G1 X-4.0815 Z-0.0092
G1 X-4.08 Y2.1169 Z-0.0115
G1 X-4.078 Z-0.0135
G1 X-4.0757 Y2.117 Z-0.015
G1 X-4.073 Z-0.0159
G1 X-4.0703 Y2.1171 Z-0.0163
G1 X-4.0578 Y2.1174
G3 X-4.0456 Y2.1302 I-0.0003 J0.0125
G3 X-4.2637 Y2.3379 I-0.2129 J-0.0052
G3 X-4.4714 Y2.1198 I0.0052 J-0.2129
G3 X-4.2533 Y1.9121 I0.2129 J0.0052
G3 X-4.0456 Y2.1302 I-0.0052 J0.2129
G3 X-4.0584 Y2.1424 I-0.0125 J-0.0003
G1 X-4.0709 Y2.1421
G1 X-4.0736 Y2.142 Z-0.0159
G1 X-4.0763 Z-0.015
G1 X-4.0787 Y2.1419 Z-0.0135
G1 X-4.0806 Z-0.0115
G1 X-4.0821 Y2.1418 Z-0.0092
G1 X-4.0831 Z-0.0065
G1 X-4.0834 Z-0.0038
G0 Z0.2
G0 X-4.0828 Y2.1168
G1 Z0.0394 F30.
G1 Z-0.02
G1 X-4.0824 Z-0.0228 F6.1
G1 X-4.0815 Z-0.0254
G1 X-4.08 Y2.1169 Z-0.0278
G1 X-4.078 Z-0.0298
G1 X-4.0757 Y2.117 Z-0.0313
G1 X-4.073 Z-0.0322
G1 X-4.0703 Y2.1171 Z-0.0325
G1 X-4.0578 Y2.1174
G3 X-4.0456 Y2.1302 I-0.0003 J0.0125
G3 X-4.2637 Y2.3379 I-0.2129 J-0.0052
G3 X-4.4714 Y2.1198 I0.0052 J-0.2129
G3 X-4.2533 Y1.9121 I0.2129 J0.0052
G3 X-4.0456 Y2.1302 I-0.0052 J0.2129
G3 X-4.0584 Y2.1424 I-0.0125 J-0.0003
G1 X-4.0709 Y2.1421
G1 X-4.0736 Y2.142 Z-0.0322
G1 X-4.0763 Z-0.0313
G1 X-4.0787 Y2.1419 Z-0.0298
G1 X-4.0806 Z-0.0278
G1 X-4.0821 Y2.1418 Z-0.0254
G1 X-4.0831 Z-0.0228
G1 X-4.0834 Z-0.02
G0 Z0.2
G0 X-4.0828 Y2.1168
G1 Z0.0231 F30.
G1 Z-0.0363
G1 X-4.0824 Z-0.039 F6.1
G1 X-4.0815 Z-0.0417
G1 X-4.08 Y2.1169 Z-0.044
G1 X-4.078 Z-0.046
G1 X-4.0757 Y2.117 Z-0.0475
G1 X-4.073 Z-0.0484
G1 X-4.0703 Y2.1171 Z-0.0488
G1 X-4.0578 Y2.1174
G3 X-4.0456 Y2.1302 I-0.0003 J0.0125
G3 X-4.2637 Y2.3379 I-0.2129 J-0.0052
G3 X-4.4714 Y2.1198 I0.0052 J-0.2129
G3 X-4.2533 Y1.9121 I0.2129 J0.0052
G3 X-4.0456 Y2.1302 I-0.0052 J0.2129
G3 X-4.0584 Y2.1424 I-0.0125 J-0.0003
G1 X-4.0709 Y2.1421
G1 X-4.0736 Y2.142 Z-0.0484
G1 X-4.0763 Z-0.0475
G1 X-4.0787 Y2.1419 Z-0.046
G1 X-4.0806 Z-0.044
G1 X-4.0821 Y2.1418 Z-0.0417
G1 X-4.0831 Z-0.039
G1 X-4.0834 Z-0.0363
G0 Z0.2
G0 X-4.0828 Y2.1168
G1 Z0.0069 F30.
G1 Z-0.0525
G1 X-4.0824 Z-0.0553 F6.1
G1 X-4.0815 Z-0.0579
G1 X-4.08 Y2.1169 Z-0.0603
G1 X-4.078 Z-0.0623
G1 X-4.0757 Y2.117 Z-0.0638
G1 X-4.073 Z-0.0647
G1 X-4.0703 Y2.1171 Z-0.065
G1 X-4.0578 Y2.1174
G3 X-4.0456 Y2.1302 I-0.0003 J0.0125
G3 X-4.2637 Y2.3379 I-0.2129 J-0.0052
G3 X-4.4714 Y2.1198 I0.0052 J-0.2129
G3 X-4.2533 Y1.9121 I0.2129 J0.0052
G3 X-4.0456 Y2.1302 I-0.0052 J0.2129
G3 X-4.0584 Y2.1424 I-0.0125 J-0.0003
G1 X-4.0709 Y2.1421
G1 X-4.0736 Y2.142 Z-0.0647
G1 X-4.0763 Z-0.0638
G1 X-4.0787 Y2.1419 Z-0.0623
G1 X-4.0806 Z-0.0603
G1 X-4.0821 Y2.1418 Z-0.0579
G1 X-4.0831 Z-0.0553
G1 X-4.0834 Z-0.0525
G0 Z0.2
G0 X-4.0828 Y2.1168
G1 Z-0.0094 F30.
G1 Z-0.0688
G1 X-4.0824 Z-0.0715 F6.1
G1 X-4.0815 Z-0.0742
G1 X-4.08 Y2.1169 Z-0.0765
G1 X-4.078 Z-0.0785
G1 X-4.0757 Y2.117 Z-0.08
G1 X-4.073 Z-0.0809
G1 X-4.0703 Y2.1171 Z-0.0813
G1 X-4.0578 Y2.1174
G3 X-4.0456 Y2.1302 I-0.0003 J0.0125
G3 X-4.2637 Y2.3379 I-0.2129 J-0.0052
G3 X-4.4714 Y2.1198 I0.0052 J-0.2129
G3 X-4.2533 Y1.9121 I0.2129 J0.0052
G3 X-4.0456 Y2.1302 I-0.0052 J0.2129
G3 X-4.0584 Y2.1424 I-0.0125 J-0.0003
G1 X-4.0709 Y2.1421
G1 X-4.0736 Y2.142 Z-0.0809
G1 X-4.0763 Z-0.08
G1 X-4.0787 Y2.1419 Z-0.0785
G1 X-4.0806 Z-0.0765
G1 X-4.0821 Y2.1418 Z-0.0742
G1 X-4.0831 Z-0.0715
G1 X-4.0834 Z-0.0688
G0 Z0.2
G0 X-4.0828 Y2.1168
G1 Z-0.0256 F30.
G1 Z-0.085
G1 X-4.0824 Z-0.0878 F6.1
G1 X-4.0815 Z-0.0904
G1 X-4.08 Y2.1169 Z-0.0928
G1 X-4.078 Z-0.0948
G1 X-4.0757 Y2.117 Z-0.0963
G1 X-4.073 Z-0.0972
G1 X-4.0703 Y2.1171 Z-0.0975
G1 X-4.0578 Y2.1174
G3 X-4.0456 Y2.1302 I-0.0003 J0.0125
G3 X-4.2637 Y2.3379 I-0.2129 J-0.0052
G3 X-4.4714 Y2.1198 I0.0052 J-0.2129
G3 X-4.2533 Y1.9121 I0.2129 J0.0052
G3 X-4.0456 Y2.1302 I-0.0052 J0.2129
G3 X-4.0584 Y2.1424 I-0.0125 J-0.0003
G1 X-4.0709 Y2.1421
G1 X-4.0736 Y2.142 Z-0.0972
G1 X-4.0763 Z-0.0963
G1 X-4.0787 Y2.1419 Z-0.0948
G1 X-4.0806 Z-0.0928
G1 X-4.0821 Y2.1418 Z-0.0904
G1 X-4.0831 Z-0.0878
G1 X-4.0834 Z-0.085
G0 Z0.2
G0 X-4.0828 Y2.1168
G1 Z-0.0419 F30.
G1 Z-0.1013
G1 X-4.0824 Z-0.104 F6.1
G1 X-4.0815 Z-0.1067
G1 X-4.08 Y2.1169 Z-0.109
G1 X-4.078 Z-0.111
G1 X-4.0757 Y2.117 Z-0.1125
G1 X-4.073 Z-0.1134
G1 X-4.0703 Y2.1171 Z-0.1138
G1 X-4.0578 Y2.1174
G3 X-4.0456 Y2.1302 I-0.0003 J0.0125
G3 X-4.2637 Y2.3379 I-0.2129 J-0.0052
G3 X-4.4714 Y2.1198 I0.0052 J-0.2129
G3 X-4.2533 Y1.9121 I0.2129 J0.0052
G3 X-4.0456 Y2.1302 I-0.0052 J0.2129
G3 X-4.0584 Y2.1424 I-0.0125 J-0.0003
G1 X-4.0709 Y2.1421
G1 X-4.0736 Y2.142 Z-0.1134
G1 X-4.0763 Z-0.1125
G1 X-4.0787 Y2.1419 Z-0.111
G1 X-4.0806 Z-0.109
G1 X-4.0821 Y2.1418 Z-0.1067
G1 X-4.0831 Z-0.104
G1 X-4.0834 Z-0.1013
G0 Z0.2
G0 X-4.0828 Y2.1168
G1 Z-0.0581 F30.
G1 Z-0.1175
G1 X-4.0824 Z-0.1203 F6.1
G1 X-4.0815 Z-0.1229
G1 X-4.08 Y2.1169 Z-0.1253
G1 X-4.078 Z-0.1273
G1 X-4.0757 Y2.117 Z-0.1288
G1 X-4.073 Z-0.1297
G1 X-4.0703 Y2.1171 Z-0.13
G1 X-4.0578 Y2.1174
G3 X-4.0456 Y2.1302 I-0.0003 J0.0125
G3 X-4.2637 Y2.3379 I-0.2129 J-0.0052
G3 X-4.4714 Y2.1198 I0.0052 J-0.2129
G3 X-4.2533 Y1.9121 I0.2129 J0.0052
G3 X-4.0456 Y2.1302 I-0.0052 J0.2129
G3 X-4.0584 Y2.1424 I-0.0125 J-0.0003
G1 X-4.0709 Y2.1421
G1 X-4.0736 Y2.142 Z-0.1297
G1 X-4.0763 Z-0.1288
G1 X-4.0787 Y2.1419 Z-0.1273
G1 X-4.0806 Z-0.1253
G1 X-4.0821 Y2.1418 Z-0.1229
G1 X-4.0831 Z-0.1203
G1 X-4.0834 Z-0.1175
G0 Z0.2
G0 X-4.0828 Y2.1168
G1 Z-0.0744 F30.
G1 Z-0.1338
G1 X-4.0824 Z-0.1365 F6.1
G1 X-4.0815 Z-0.1392
G1 X-4.08 Y2.1169 Z-0.1415
G1 X-4.078 Z-0.1435
G1 X-4.0757 Y2.117 Z-0.145
G1 X-4.073 Z-0.1459
G1 X-4.0703 Y2.1171 Z-0.1463
G1 X-4.0578 Y2.1174
G3 X-4.0456 Y2.1302 I-0.0003 J0.0125
G3 X-4.2637 Y2.3379 I-0.2129 J-0.0052
G3 X-4.4714 Y2.1198 I0.0052 J-0.2129
G3 X-4.2533 Y1.9121 I0.2129 J0.0052
G3 X-4.0456 Y2.1302 I-0.0052 J0.2129
G3 X-4.0584 Y2.1424 I-0.0125 J-0.0003
G1 X-4.0709 Y2.1421
G1 X-4.0736 Y2.142 Z-0.1459
G1 X-4.0763 Z-0.145
G1 X-4.0787 Y2.1419 Z-0.1435
G1 X-4.0806 Z-0.1415
G1 X-4.0821 Y2.1418 Z-0.1392
G1 X-4.0831 Z-0.1365
G1 X-4.0834 Z-0.1338
G0 Z0.2
G0 X-4.0828 Y2.1168
G1 Z-0.0906 F30.
G1 Z-0.1438
G1 X-4.0824 Z-0.1465 F6.1
G1 X-4.0815 Z-0.1492
G1 X-4.08 Y2.1169 Z-0.1515
G1 X-4.078 Z-0.1535
G1 X-4.0757 Y2.117 Z-0.155
G1 X-4.073 Z-0.1559
G1 X-4.0703 Y2.1171 Z-0.1563
G1 X-4.0578 Y2.1174
G3 X-4.0456 Y2.1302 I-0.0003 J0.0125
G3 X-4.2637 Y2.3379 I-0.2129 J-0.0052
G3 X-4.4714 Y2.1198 I0.0052 J-0.2129
G3 X-4.2533 Y1.9121 I0.2129 J0.0052
G3 X-4.0456 Y2.1302 I-0.0052 J0.2129
G3 X-4.0584 Y2.1424 I-0.0125 J-0.0003
G1 X-4.0709 Y2.1421
G1 X-4.0736 Y2.142 Z-0.1559
G1 X-4.0763 Z-0.155
G1 X-4.0787 Y2.1419 Z-0.1535
G1 X-4.0806 Z-0.1515
G1 X-4.0821 Y2.1418 Z-0.1492
G1 X-4.0831 Z-0.1465
G1 X-4.0834 Z-0.1438
G0 Z0.2
G0 X-2.0874 Y1.5305
G1 Z0.0556 F30.
G1 Z-0.0038
G1 X-2.0872 Y1.5302 Z-0.0065 F6.1
G1 X-2.0866 Y1.5295 Z-0.0092
G1 X-2.0857 Y1.5283 Z-0.0115
G1 X-2.0845 Y1.5268 Z-0.0135
G1 X-2.083 Y1.525 Z-0.015
G1 X-2.0813 Y1.5229 Z-0.0159
G1 X-2.0796 Y1.5207 Z-0.0163
G1 X-2.0717 Y1.511
G3 X-2.0542 Y1.5091 I0.0097 J0.0078
G2 X-1.5885 Y1.7001 I0.5542 J-0.6881
G2 X-1.2646 Y1.6726 I0.0885 J-0.8791
G3 X-1.1942 Y1.7008 I0.0167 J0.0602
G1 X-0.9148 Y2.17
G3 X-0.9365 Y2.2557 I-0.0537 J0.032
G3 X-0.9747 Y2.2642 I-0.032 J-0.0537
G1 X-3.3428 Y2.0279
G3 X-3.3988 Y1.9595 I0.0062 J-0.0622
G3 X-3.3633 Y1.9092 I0.0622 J0.0062
G1 X-2.2447 Y1.3804
G3 X-2.1706 Y1.3962 I0.0267 J0.0565
G2 X-2.0542 Y1.5091 I0.6706 J-0.5752
G3 X-2.0523 Y1.5267 I-0.0078 J0.0097
G1 X-2.0601 Y1.5364
G1 X-2.0619 Y1.5386 Z-0.0159
G1 X-2.0635 Y1.5406 Z-0.015
G1 X-2.065 Y1.5425 Z-0.0135
G1 X-2.0662 Y1.544 Z-0.0115
G1 X-2.0672 Y1.5452 Z-0.0092
G1 X-2.0678 Y1.5459 Z-0.0065
G1 X-2.068 Y1.5461 Z-0.0038
G0 Z0.2
G0 X-2.0874 Y1.5305
G1 Z0.0394 F30.
G1 Z-0.02
G1 X-2.0872 Y1.5302 Z-0.0228 F6.1
G1 X-2.0866 Y1.5295 Z-0.0254
G1 X-2.0857 Y1.5283 Z-0.0278
G1 X-2.0845 Y1.5268 Z-0.0298
G1 X-2.083 Y1.525 Z-0.0313
G1 X-2.0813 Y1.5229 Z-0.0322
G1 X-2.0796 Y1.5207 Z-0.0325
G1 X-2.0717 Y1.511
G3 X-2.0542 Y1.5091 I0.0097 J0.0078
G2 X-1.5885 Y1.7001 I0.5542 J-0.6881
G2 X-1.2646 Y1.6726 I0.0885 J-0.8791
G3 X-1.1942 Y1.7008 I0.0167 J0.0602
G1 X-0.9148 Y2.17
G3 X-0.9365 Y2.2557 I-0.0537 J0.032
G3 X-0.9747 Y2.2642 I-0.032 J-0.0537
G1 X-3.3428 Y2.0279
G3 X-3.3988 Y1.9595 I0.0062 J-0.0622
G3 X-3.3633 Y1.9092 I0.0622 J0.0062
G1 X-2.2447 Y1.3804
G3 X-2.1706 Y1.3962 I0.0267 J0.0565
G2 X-2.0542 Y1.5091 I0.6706 J-0.5752
G3 X-2.0523 Y1.5267 I-0.0078 J0.0097
G1 X-2.0601 Y1.5364
G1 X-2.0619 Y1.5386 Z-0.0322
G1 X-2.0635 Y1.5406 Z-0.0313
G1 X-2.065 Y1.5425 Z-0.0298
G1 X-2.0662 Y1.544 Z-0.0278
G1 X-2.0672 Y1.5452 Z-0.0254
G1 X-2.0678 Y1.5459 Z-0.0228
G1 X-2.068 Y1.5461 Z-0.02
G0 Z0.2
G0 X-2.0874 Y1.5305
G1 Z0.0231 F30.
G1 Z-0.0363
G1 X-2.0872 Y1.5302 Z-0.039 F6.1
G1 X-2.0866 Y1.5295 Z-0.0417
G1 X-2.0857 Y1.5283 Z-0.044
G1 X-2.0845 Y1.5268 Z-0.046
G1 X-2.083 Y1.525 Z-0.0475
G1 X-2.0813 Y1.5229 Z-0.0484
G1 X-2.0796 Y1.5207 Z-0.0488
G1 X-2.0717 Y1.511
G3 X-2.0542 Y1.5091 I0.0097 J0.0078
G2 X-1.5885 Y1.7001 I0.5542 J-0.6881
G2 X-1.2646 Y1.6726 I0.0885 J-0.8791
G3 X-1.1942 Y1.7008 I0.0167 J0.0602
G1 X-0.9148 Y2.17
G3 X-0.9365 Y2.2557 I-0.0537 J0.032
G3 X-0.9747 Y2.2642 I-0.032 J-0.0537
G1 X-3.3428 Y2.0279
G3 X-3.3988 Y1.9595 I0.0062 J-0.0622
G3 X-3.3633 Y1.9092 I0.0622 J0.0062
G1 X-2.2447 Y1.3804
G3 X-2.1706 Y1.3962 I0.0267 J0.0565
G2 X-2.0542 Y1.5091 I0.6706 J-0.5752
G3 X-2.0523 Y1.5267 I-0.0078 J0.0097
G1 X-2.0601 Y1.5364
G1 X-2.0619 Y1.5386 Z-0.0484
G1 X-2.0635 Y1.5406 Z-0.0475
G1 X-2.065 Y1.5425 Z-0.046
G1 X-2.0662 Y1.544 Z-0.044
G1 X-2.0672 Y1.5452 Z-0.0417
G1 X-2.0678 Y1.5459 Z-0.039
G1 X-2.068 Y1.5461 Z-0.0363
G0 Z0.2
G0 X-2.0874 Y1.5305
G1 Z0.0069 F30.
G1 Z-0.0525
G1 X-2.0872 Y1.5302 Z-0.0553 F6.1
G1 X-2.0866 Y1.5295 Z-0.0579
G1 X-2.0857 Y1.5283 Z-0.0603
G1 X-2.0845 Y1.5268 Z-0.0623
G1 X-2.083 Y1.525 Z-0.0638
G1 X-2.0813 Y1.5229 Z-0.0647
G1 X-2.0796 Y1.5207 Z-0.065
G1 X-2.0717 Y1.511
G3 X-2.0542 Y1.5091 I0.0097 J0.0078
G2 X-1.5885 Y1.7001 I0.5542 J-0.6881
G2 X-1.2646 Y1.6726 I0.0885 J-0.8791
G3 X-1.1942 Y1.7008 I0.0167 J0.0602
G1 X-0.9148 Y2.17
G3 X-0.9365 Y2.2557 I-0.0537 J0.032
G3 X-0.9747 Y2.2642 I-0.032 J-0.0537
G1 X-3.3428 Y2.0279
G3 X-3.3988 Y1.9595 I0.0062 J-0.0622
G3 X-3.3633 Y1.9092 I0.0622 J0.0062
G1 X-2.2447 Y1.3804
G3 X-2.1706 Y1.3962 I0.0267 J0.0565
G2 X-2.0542 Y1.5091 I0.6706 J-0.5752
G3 X-2.0523 Y1.5267 I-0.0078 J0.0097
G1 X-2.0601 Y1.5364
G1 X-2.0619 Y1.5386 Z-0.0647
G1 X-2.0635 Y1.5406 Z-0.0638
G1 X-2.065 Y1.5425 Z-0.0623
G1 X-2.0662 Y1.544 Z-0.0603
G1 X-2.0672 Y1.5452 Z-0.0579
G1 X-2.0678 Y1.5459 Z-0.0553
G1 X-2.068 Y1.5461 Z-0.0525
G0 Z0.2
G0 X-2.0874 Y1.5305
G1 Z-0.0094 F30.
G1 Z-0.0688
G1 X-2.0872 Y1.5302 Z-0.0715 F6.1
G1 X-2.0866 Y1.5295 Z-0.0742
G1 X-2.0857 Y1.5283 Z-0.0765
G1 X-2.0845 Y1.5268 Z-0.0785
G1 X-2.083 Y1.525 Z-0.08
G1 X-2.0813 Y1.5229 Z-0.0809
G1 X-2.0796 Y1.5207 Z-0.0813
G1 X-2.0717 Y1.511
G3 X-2.0542 Y1.5091 I0.0097 J0.0078
G2 X-1.5885 Y1.7001 I0.5542 J-0.6881
G2 X-1.2646 Y1.6726 I0.0885 J-0.8791
G3 X-1.1942 Y1.7008 I0.0167 J0.0602
G1 X-0.9148 Y2.17
G3 X-0.9365 Y2.2557 I-0.0537 J0.032
G3 X-0.9747 Y2.2642 I-0.032 J-0.0537
G1 X-3.3428 Y2.0279
G3 X-3.3988 Y1.9595 I0.0062 J-0.0622
G3 X-3.3633 Y1.9092 I0.0622 J0.0062
G1 X-2.2447 Y1.3804
G3 X-2.1706 Y1.3962 I0.0267 J0.0565
G2 X-2.0542 Y1.5091 I0.6706 J-0.5752
G3 X-2.0523 Y1.5267 I-0.0078 J0.0097
G1 X-2.0601 Y1.5364
G1 X-2.0619 Y1.5386 Z-0.0809
G1 X-2.0635 Y1.5406 Z-0.08
G1 X-2.065 Y1.5425 Z-0.0785
G1 X-2.0662 Y1.544 Z-0.0765
G1 X-2.0672 Y1.5452 Z-0.0742
G1 X-2.0678 Y1.5459 Z-0.0715
G1 X-2.068 Y1.5461 Z-0.0688
G0 Z0.2
G0 X-2.0874 Y1.5305
G1 Z-0.0256 F30.
G1 Z-0.085
G1 X-2.0872 Y1.5302 Z-0.0878 F6.1
G1 X-2.0866 Y1.5295 Z-0.0904
G1 X-2.0857 Y1.5283 Z-0.0928
G1 X-2.0845 Y1.5268 Z-0.0948
G1 X-2.083 Y1.525 Z-0.0963
G1 X-2.0813 Y1.5229 Z-0.0972
G1 X-2.0796 Y1.5207 Z-0.0975
G1 X-2.0717 Y1.511
G3 X-2.0542 Y1.5091 I0.0097 J0.0078
G2 X-1.5885 Y1.7001 I0.5542 J-0.6881
G2 X-1.2646 Y1.6726 I0.0885 J-0.8791
G3 X-1.1942 Y1.7008 I0.0167 J0.0602
G1 X-0.9148 Y2.17
G3 X-0.9365 Y2.2557 I-0.0537 J0.032
G3 X-0.9747 Y2.2642 I-0.032 J-0.0537
G1 X-3.3428 Y2.0279
G3 X-3.3988 Y1.9595 I0.0062 J-0.0622
G3 X-3.3633 Y1.9092 I0.0622 J0.0062
G1 X-2.2447 Y1.3804
G3 X-2.1706 Y1.3962 I0.0267 J0.0565
G2 X-2.0542 Y1.5091 I0.6706 J-0.5752
G3 X-2.0523 Y1.5267 I-0.0078 J0.0097
G1 X-2.0601 Y1.5364
G1 X-2.0619 Y1.5386 Z-0.0972
G1 X-2.0635 Y1.5406 Z-0.0963
G1 X-2.065 Y1.5425 Z-0.0948
G1 X-2.0662 Y1.544 Z-0.0928
G1 X-2.0672 Y1.5452 Z-0.0904
G1 X-2.0678 Y1.5459 Z-0.0878
G1 X-2.068 Y1.5461 Z-0.085
G0 Z0.2
G0 X-2.0874 Y1.5305
G1 Z-0.0419 F30.
G1 Z-0.1013
G1 X-2.0872 Y1.5302 Z-0.104 F6.1
G1 X-2.0866 Y1.5295 Z-0.1067
G1 X-2.0857 Y1.5283 Z-0.109
G1 X-2.0845 Y1.5268 Z-0.111
G1 X-2.083 Y1.525 Z-0.1125
G1 X-2.0813 Y1.5229 Z-0.1134
G1 X-2.0796 Y1.5207 Z-0.1138
G1 X-2.0717 Y1.511
G3 X-2.0542 Y1.5091 I0.0097 J0.0078
G2 X-1.5885 Y1.7001 I0.5542 J-0.6881
G2 X-1.2646 Y1.6726 I0.0885 J-0.8791
G3 X-1.1942 Y1.7008 I0.0167 J0.0602
G1 X-0.9148 Y2.17
G3 X-0.9365 Y2.2557 I-0.0537 J0.032
G3 X-0.9747 Y2.2642 I-0.032 J-0.0537
G1 X-3.3428 Y2.0279
G3 X-3.3988 Y1.9595 I0.0062 J-0.0622
G3 X-3.3633 Y1.9092 I0.0622 J0.0062
G1 X-2.2447 Y1.3804
G3 X-2.1706 Y1.3962 I0.0267 J0.0565
G2 X-2.0542 Y1.5091 I0.6706 J-0.5752
G3 X-2.0523 Y1.5267 I-0.0078 J0.0097
G1 X-2.0601 Y1.5364
G1 X-2.0619 Y1.5386 Z-0.1134
G1 X-2.0635 Y1.5406 Z-0.1125
G1 X-2.065 Y1.5425 Z-0.111
G1 X-2.0662 Y1.544 Z-0.109
G1 X-2.0672 Y1.5452 Z-0.1067
G1 X-2.0678 Y1.5459 Z-0.104
G1 X-2.068 Y1.5461 Z-0.1013
G0 Z0.2
G0 X-2.0874 Y1.5305
G1 Z-0.0581 F30.
G1 Z-0.1175
G1 X-2.0872 Y1.5302 Z-0.1203 F6.1
G1 X-2.0866 Y1.5295 Z-0.1229
G1 X-2.0857 Y1.5283 Z-0.1253
G1 X-2.0845 Y1.5268 Z-0.1273
G1 X-2.083 Y1.525 Z-0.1288
G1 X-2.0813 Y1.5229 Z-0.1297
G1 X-2.0796 Y1.5207 Z-0.13
G1 X-2.0717 Y1.511
G3 X-2.0542 Y1.5091 I0.0097 J0.0078
G2 X-1.5885 Y1.7001 I0.5542 J-0.6881
G2 X-1.2646 Y1.6726 I0.0885 J-0.8791
G3 X-1.1942 Y1.7008 I0.0167 J0.0602
G1 X-0.9148 Y2.17
G3 X-0.9365 Y2.2557 I-0.0537 J0.032
G3 X-0.9747 Y2.2642 I-0.032 J-0.0537
G1 X-3.3428 Y2.0279
G3 X-3.3988 Y1.9595 I0.0062 J-0.0622
G3 X-3.3633 Y1.9092 I0.0622 J0.0062
G1 X-2.2447 Y1.3804
G3 X-2.1706 Y1.3962 I0.0267 J0.0565
G2 X-2.0542 Y1.5091 I0.6706 J-0.5752
G3 X-2.0523 Y1.5267 I-0.0078 J0.0097
G1 X-2.0601 Y1.5364
G1 X-2.0619 Y1.5386 Z-0.1297
G1 X-2.0635 Y1.5406 Z-0.1288
G1 X-2.065 Y1.5425 Z-0.1273
G1 X-2.0662 Y1.544 Z-0.1253
G1 X-2.0672 Y1.5452 Z-0.1229
G1 X-2.0678 Y1.5459 Z-0.1203
G1 X-2.068 Y1.5461 Z-0.1175
G0 Z0.2
G0 X-2.0874 Y1.5305
G1 Z-0.0744 F30.
G1 Z-0.1338
G1 X-2.0872 Y1.5302 Z-0.1365 F6.1
G1 X-2.0866 Y1.5295 Z-0.1392
G1 X-2.0857 Y1.5283 Z-0.1415
G1 X-2.0845 Y1.5268 Z-0.1435
G1 X-2.083 Y1.525 Z-0.145
G1 X-2.0813 Y1.5229 Z-0.1459
G1 X-2.0796 Y1.5207 Z-0.1463
G1 X-2.0717 Y1.511
G3 X-2.0542 Y1.5091 I0.0097 J0.0078
G2 X-1.5885 Y1.7001 I0.5542 J-0.6881
G2 X-1.2646 Y1.6726 I0.0885 J-0.8791
G3 X-1.1942 Y1.7008 I0.0167 J0.0602
G1 X-0.9148 Y2.17
G3 X-0.9365 Y2.2557 I-0.0537 J0.032
G3 X-0.9747 Y2.2642 I-0.032 J-0.0537
G1 X-3.3428 Y2.0279
G3 X-3.3988 Y1.9595 I0.0062 J-0.0622
G3 X-3.3633 Y1.9092 I0.0622 J0.0062
G1 X-2.2447 Y1.3804
G3 X-2.1706 Y1.3962 I0.0267 J0.0565
G2 X-2.0542 Y1.5091 I0.6706 J-0.5752
G3 X-2.0523 Y1.5267 I-0.0078 J0.0097
G1 X-2.0601 Y1.5364
G1 X-2.0619 Y1.5386 Z-0.1459
G1 X-2.0635 Y1.5406 Z-0.145
G1 X-2.065 Y1.5425 Z-0.1435
G1 X-2.0662 Y1.544 Z-0.1415
G1 X-2.0672 Y1.5452 Z-0.1392
G1 X-2.0678 Y1.5459 Z-0.1365
G1 X-2.068 Y1.5461 Z-0.1338
G0 Z0.2
G0 X-2.0874 Y1.5305
G1 Z-0.0906 F30.
G1 Z-0.1438
G1 X-2.0872 Y1.5302 Z-0.1465 F6.1
G1 X-2.0866 Y1.5295 Z-0.1492
G1 X-2.0857 Y1.5283 Z-0.1515
G1 X-2.0845 Y1.5268 Z-0.1535
G1 X-2.083 Y1.525 Z-0.155
G1 X-2.0813 Y1.5229 Z-0.1559
G1 X-2.0796 Y1.5207 Z-0.1563
G1 X-2.0717 Y1.511
G3 X-2.0542 Y1.5091 I0.0097 J0.0078
G2 X-1.5885 Y1.7001 I0.5542 J-0.6881
G2 X-1.2646 Y1.6726 I0.0885 J-0.8791
G3 X-1.1942 Y1.7008 I0.0167 J0.0602
G1 X-0.9148 Y2.17
G3 X-0.9365 Y2.2557 I-0.0537 J0.032
G3 X-0.9747 Y2.2642 I-0.032 J-0.0537
G1 X-3.3428 Y2.0279
G3 X-3.3988 Y1.9595 I0.0062 J-0.0622
G3 X-3.3633 Y1.9092 I0.0622 J0.0062
G1 X-2.2447 Y1.3804
G3 X-2.1706 Y1.3962 I0.0267 J0.0565
G2 X-2.0542 Y1.5091 I0.6706 J-0.5752
G3 X-2.0523 Y1.5267 I-0.0078 J0.0097
G1 X-2.0601 Y1.5364
G1 X-2.0619 Y1.5386 Z-0.1559
G1 X-2.0635 Y1.5406 Z-0.155
G1 X-2.065 Y1.5425 Z-0.1535
G1 X-2.0662 Y1.544 Z-0.1515
G1 X-2.0672 Y1.5452 Z-0.1492
G1 X-2.0678 Y1.5459 Z-0.1465
G1 X-2.068 Y1.5461 Z-0.1438
G0 Z0.2
G0 X-1.029 Y0.8085
G1 Z0.0556 F30.
G1 Z-0.0038
G1 X-1.0287 Z-0.0065 F6.1
G1 X-1.0278 Z-0.0092
G1 X-1.0263 Z-0.0115
G1 X-1.0243 Z-0.0135
G1 X-1.0219 Z-0.015
G1 X-1.0193 Z-0.0159
G1 X-1.0165 Z-0.0163
G1 X-1.004
G3 X-0.9915 Y0.821 I0 J0.0125
G3 X-1.5 Y1.3295 I-0.5085 J0
G3 X-2.0085 Y0.821 I0 J-0.5085
G3 X-1.5 Y0.3125 I0.5085 J0
G3 X-0.9915 Y0.821 I0 J0.5085
G3 X-1.004 Y0.8335 I-0.0125 J0
G1 X-1.0165
G1 X-1.0193 Z-0.0159
G1 X-1.0219 Z-0.015
G1 X-1.0243 Z-0.0135
G1 X-1.0263 Z-0.0115
G1 X-1.0278 Z-0.0092
G1 X-1.0287 Z-0.0065
G1 X-1.029 Z-0.0038
G0 Z0.2
G0 Y0.8085
G1 Z0.0394 F30.
G1 Z-0.02
G1 X-1.0287 Z-0.0228 F6.1
G1 X-1.0278 Z-0.0254
G1 X-1.0263 Z-0.0278
G1 X-1.0243 Z-0.0298
G1 X-1.0219 Z-0.0313
G1 X-1.0193 Z-0.0322
G1 X-1.0165 Z-0.0325
G1 X-1.004
G3 X-0.9915 Y0.821 I0 J0.0125
G3 X-1.5 Y1.3295 I-0.5085 J0
G3 X-2.0085 Y0.821 I0 J-0.5085
G3 X-1.5 Y0.3125 I0.5085 J0
G3 X-0.9915 Y0.821 I0 J0.5085
G3 X-1.004 Y0.8335 I-0.0125 J0
G1 X-1.0165
G1 X-1.0193 Z-0.0322
G1 X-1.0219 Z-0.0313
G1 X-1.0243 Z-0.0298
G1 X-1.0263 Z-0.0278
G1 X-1.0278 Z-0.0254
G1 X-1.0287 Z-0.0228
G1 X-1.029 Z-0.02
G0 Z0.2
G0 Y0.8085
G1 Z0.0231 F30.
G1 Z-0.0363
G1 X-1.0287 Z-0.039 F6.1
G1 X-1.0278 Z-0.0417
G1 X-1.0263 Z-0.044
G1 X-1.0243 Z-0.046
G1 X-1.0219 Z-0.0475
G1 X-1.0193 Z-0.0484
G1 X-1.0165 Z-0.0488
G1 X-1.004
G3 X-0.9915 Y0.821 I0 J0.0125
G3 X-1.5 Y1.3295 I-0.5085 J0
G3 X-2.0085 Y0.821 I0 J-0.5085
G3 X-1.5 Y0.3125 I0.5085 J0
G3 X-0.9915 Y0.821 I0 J0.5085
G3 X-1.004 Y0.8335 I-0.0125 J0
G1 X-1.0165
G1 X-1.0193 Z-0.0484
G1 X-1.0219 Z-0.0475
G1 X-1.0243 Z-0.046
G1 X-1.0263 Z-0.044
G1 X-1.0278 Z-0.0417
G1 X-1.0287 Z-0.039
G1 X-1.029 Z-0.0363
G0 Z0.2
G0 Y0.8085
G1 Z0.0069 F30.
G1 Z-0.0525
G1 X-1.0287 Z-0.0553 F6.1
G1 X-1.0278 Z-0.0579
G1 X-1.0263 Z-0.0603
G1 X-1.0243 Z-0.0623
G1 X-1.0219 Z-0.0638
G1 X-1.0193 Z-0.0647
G1 X-1.0165 Z-0.065
G1 X-1.004
G3 X-0.9915 Y0.821 I0 J0.0125
G3 X-1.5 Y1.3295 I-0.5085 J0
G3 X-2.0085 Y0.821 I0 J-0.5085
G3 X-1.5 Y0.3125 I0.5085 J0
G3 X-0.9915 Y0.821 I0 J0.5085
G3 X-1.004 Y0.8335 I-0.0125 J0
G1 X-1.0165
G1 X-1.0193 Z-0.0647
G1 X-1.0219 Z-0.0638
G1 X-1.0243 Z-0.0623
G1 X-1.0263 Z-0.0603
G1 X-1.0278 Z-0.0579
G1 X-1.0287 Z-0.0553
G1 X-1.029 Z-0.0525
G0 Z0.2
G0 Y0.8085
G1 Z-0.0094 F30.
G1 Z-0.0688
G1 X-1.0287 Z-0.0715 F6.1
G1 X-1.0278 Z-0.0742
G1 X-1.0263 Z-0.0765
G1 X-1.0243 Z-0.0785
G1 X-1.0219 Z-0.08
G1 X-1.0193 Z-0.0809
G1 X-1.0165 Z-0.0813
G1 X-1.004
G3 X-0.9915 Y0.821 I0 J0.0125
G3 X-1.5 Y1.3295 I-0.5085 J0
G3 X-2.0085 Y0.821 I0 J-0.5085
G3 X-1.5 Y0.3125 I0.5085 J0
G3 X-0.9915 Y0.821 I0 J0.5085
G3 X-1.004 Y0.8335 I-0.0125 J0
G1 X-1.0165
G1 X-1.0193 Z-0.0809
G1 X-1.0219 Z-0.08
G1 X-1.0243 Z-0.0785
G1 X-1.0263 Z-0.0765
G1 X-1.0278 Z-0.0742
G1 X-1.0287 Z-0.0715
G1 X-1.029 Z-0.0688
G0 Z0.2
G0 Y0.8085
G1 Z-0.0256 F30.
G1 Z-0.085
G1 X-1.0287 Z-0.0878 F6.1
G1 X-1.0278 Z-0.0904
G1 X-1.0263 Z-0.0928
G1 X-1.0243 Z-0.0948
G1 X-1.0219 Z-0.0963
G1 X-1.0193 Z-0.0972
G1 X-1.0165 Z-0.0975
G1 X-1.004
G3 X-0.9915 Y0.821 I0 J0.0125
G3 X-1.5 Y1.3295 I-0.5085 J0
G3 X-2.0085 Y0.821 I0 J-0.5085
G3 X-1.5 Y0.3125 I0.5085 J0
G3 X-0.9915 Y0.821 I0 J0.5085
G3 X-1.004 Y0.8335 I-0.0125 J0
G1 X-1.0165
G1 X-1.0193 Z-0.0972
G1 X-1.0219 Z-0.0963
G1 X-1.0243 Z-0.0948
G1 X-1.0263 Z-0.0928
G1 X-1.0278 Z-0.0904
G1 X-1.0287 Z-0.0878
G1 X-1.029 Z-0.085
G0 Z0.2
G0 Y0.8085
G1 Z-0.0419 F30.
G1 Z-0.1013
G1 X-1.0287 Z-0.104 F6.1
G1 X-1.0278 Z-0.1067
G1 X-1.0263 Z-0.109
G1 X-1.0243 Z-0.111
G1 X-1.0219 Z-0.1125
G1 X-1.0193 Z-0.1134
G1 X-1.0165 Z-0.1138
G1 X-1.004
G3 X-0.9915 Y0.821 I0 J0.0125
G3 X-1.5 Y1.3295 I-0.5085 J0
G3 X-2.0085 Y0.821 I0 J-0.5085
G3 X-1.5 Y0.3125 I0.5085 J0
G3 X-0.9915 Y0.821 I0 J0.5085
G3 X-1.004 Y0.8335 I-0.0125 J0
G1 X-1.0165
G1 X-1.0193 Z-0.1134
G1 X-1.0219 Z-0.1125
G1 X-1.0243 Z-0.111
G1 X-1.0263 Z-0.109
G1 X-1.0278 Z-0.1067
G1 X-1.0287 Z-0.104
G1 X-1.029 Z-0.1013
G0 Z0.2
G0 Y0.8085
G1 Z-0.0581 F30.
G1 Z-0.1175
G1 X-1.0287 Z-0.1203 F6.1
G1 X-1.0278 Z-0.1229
G1 X-1.0263 Z-0.1253
G1 X-1.0243 Z-0.1273
G1 X-1.0219 Z-0.1288
G1 X-1.0193 Z-0.1297
G1 X-1.0165 Z-0.13
G1 X-1.004
G3 X-0.9915 Y0.821 I0 J0.0125
G3 X-1.5 Y1.3295 I-0.5085 J0
G3 X-2.0085 Y0.821 I0 J-0.5085
G3 X-1.5 Y0.3125 I0.5085 J0
G3 X-0.9915 Y0.821 I0 J0.5085
G3 X-1.004 Y0.8335 I-0.0125 J0
G1 X-1.0165
G1 X-1.0193 Z-0.1297
G1 X-1.0219 Z-0.1288
G1 X-1.0243 Z-0.1273
G1 X-1.0263 Z-0.1253
G1 X-1.0278 Z-0.1229
G1 X-1.0287 Z-0.1203
G1 X-1.029 Z-0.1175
G0 Z0.2
G0 Y0.8085
G1 Z-0.0744 F30.
G1 Z-0.1338
G1 X-1.0287 Z-0.1365 F6.1
G1 X-1.0278 Z-0.1392
G1 X-1.0263 Z-0.1415
G1 X-1.0243 Z-0.1435
G1 X-1.0219 Z-0.145
G1 X-1.0193 Z-0.1459
G1 X-1.0165 Z-0.1463
G1 X-1.004
G3 X-0.9915 Y0.821 I0 J0.0125
G3 X-1.5 Y1.3295 I-0.5085 J0
G3 X-2.0085 Y0.821 I0 J-0.5085
G3 X-1.5 Y0.3125 I0.5085 J0
G3 X-0.9915 Y0.821 I0 J0.5085
G3 X-1.004 Y0.8335 I-0.0125 J0
G1 X-1.0165
G1 X-1.0193 Z-0.1459
G1 X-1.0219 Z-0.145
G1 X-1.0243 Z-0.1435
G1 X-1.0263 Z-0.1415
G1 X-1.0278 Z-0.1392
G1 X-1.0287 Z-0.1365
G1 X-1.029 Z-0.1338
G0 Z0.2
G0 Y0.8085
G1 Z-0.0906 F30.
G1 Z-0.1438
G1 X-1.0287 Z-0.1465 F6.1
G1 X-1.0278 Z-0.1492
G1 X-1.0263 Z-0.1515
G1 X-1.0243 Z-0.1535
G1 X-1.0219 Z-0.155
G1 X-1.0193 Z-0.1559
G1 X-1.0165 Z-0.1563
G1 X-1.004
G3 X-0.9915 Y0.821 I0 J0.0125
G3 X-1.5 Y1.3295 I-0.5085 J0
G3 X-2.0085 Y0.821 I0 J-0.5085
G3 X-1.5 Y0.3125 I0.5085 J0
G3 X-0.9915 Y0.821 I0 J0.5085
G3 X-1.004 Y0.8335 I-0.0125 J0
G1 X-1.0165
G1 X-1.0193 Z-0.1559
G1 X-1.0219 Z-0.155
G1 X-1.0243 Z-0.1535
G1 X-1.0263 Z-0.1515
G1 X-1.0278 Z-0.1492
G1 X-1.0287 Z-0.1465
G1 X-1.029 Z-0.1438
G0 Z0.2
G0 X-0.6 Y1.475
G1 Z0.0556 F30.
G1 Z-0.0038
G1 X-0.5997 Z-0.0065 F6.1
G1 X-0.5988 Z-0.0092
G1 X-0.5973 Z-0.0115
G1 X-0.5953 Z-0.0135
G1 X-0.5929 Z-0.015
G1 X-0.5903 Z-0.0159
G1 X-0.5875 Z-0.0163
G1 X-0.575
G3 X-0.5625 Y1.4875 I0 J0.0125
G1 Y1.8016
G3 X-0.625 Y1.8641 I-0.0625 J0
G3 X-0.6787 Y1.8335 I0 J-0.0625
G1 X-0.872 Y1.5089
G3 X-0.8634 Y1.4336 I0.0537 J-0.032
G2 X-0.6376 Y0.6289 I-0.6366 J-0.6126
G3 X-0.6122 Y0.5638 I0.061 J-0.0136
G3 X-0.5625 Y0.625 I-0.0128 J0.0612
G1 Y1.4875
G3 X-0.575 Y1.5 I-0.0125 J0
G1 X-0.5875
G1 X-0.5903 Z-0.0159
G1 X-0.5929 Z-0.015
G1 X-0.5953 Z-0.0135
G1 X-0.5973 Z-0.0115
G1 X-0.5988 Z-0.0092
G1 X-0.5997 Z-0.0065
G1 X-0.6 Z-0.0038
G0 Z0.2
G0 Y1.475
G1 Z0.0394 F30.
G1 Z-0.02
G1 X-0.5997 Z-0.0228 F6.1
G1 X-0.5988 Z-0.0254
G1 X-0.5973 Z-0.0278
G1 X-0.5953 Z-0.0298
G1 X-0.5929 Z-0.0313
G1 X-0.5903 Z-0.0322
G1 X-0.5875 Z-0.0325
G1 X-0.575
G3 X-0.5625 Y1.4875 I0 J0.0125
G1 Y1.8016
G3 X-0.625 Y1.8641 I-0.0625 J0
G3 X-0.6787 Y1.8335 I0 J-0.0625
G1 X-0.872 Y1.5089
G3 X-0.8634 Y1.4336 I0.0537 J-0.032
G2 X-0.6376 Y0.6289 I-0.6366 J-0.6126
G3 X-0.6122 Y0.5638 I0.061 J-0.0136
G3 X-0.5625 Y0.625 I-0.0128 J0.0612
G1 Y1.4875
G3 X-0.575 Y1.5 I-0.0125 J0
G1 X-0.5875
G1 X-0.5903 Z-0.0322
G1 X-0.5929 Z-0.0313
G1 X-0.5953 Z-0.0298
G1 X-0.5973 Z-0.0278
G1 X-0.5988 Z-0.0254
G1 X-0.5997 Z-0.0228
G1 X-0.6 Z-0.02
G0 Z0.2
G0 Y1.475
G1 Z0.0231 F30.
G1 Z-0.0363
G1 X-0.5997 Z-0.039 F6.1
G1 X-0.5988 Z-0.0417
G1 X-0.5973 Z-0.044
G1 X-0.5953 Z-0.046
G1 X-0.5929 Z-0.0475
G1 X-0.5903 Z-0.0484
G1 X-0.5875 Z-0.0488
G1 X-0.575
G3 X-0.5625 Y1.4875 I0 J0.0125
G1 Y1.8016
G3 X-0.625 Y1.8641 I-0.0625 J0
G3 X-0.6787 Y1.8335 I0 J-0.0625
G1 X-0.872 Y1.5089
G3 X-0.8634 Y1.4336 I0.0537 J-0.032
G2 X-0.6376 Y0.6289 I-0.6366 J-0.6126
G3 X-0.6122 Y0.5638 I0.061 J-0.0136
G3 X-0.5625 Y0.625 I-0.0128 J0.0612
G1 Y1.4875
G3 X-0.575 Y1.5 I-0.0125 J0
G1 X-0.5875
G1 X-0.5903 Z-0.0484
G1 X-0.5929 Z-0.0475
G1 X-0.5953 Z-0.046
G1 X-0.5973 Z-0.044
G1 X-0.5988 Z-0.0417
G1 X-0.5997 Z-0.039
G1 X-0.6 Z-0.0363
G0 Z0.2
G0 Y1.475
G1 Z0.0069 F30.
G1 Z-0.0525
G1 X-0.5997 Z-0.0553 F6.1
G1 X-0.5988 Z-0.0579
G1 X-0.5973 Z-0.0603
G1 X-0.5953 Z-0.0623
G1 X-0.5929 Z-0.0638
G1 X-0.5903 Z-0.0647
G1 X-0.5875 Z-0.065
G1 X-0.575
G3 X-0.5625 Y1.4875 I0 J0.0125
G1 Y1.8016
G3 X-0.625 Y1.8641 I-0.0625 J0
G3 X-0.6787 Y1.8335 I0 J-0.0625
G1 X-0.872 Y1.5089
G3 X-0.8634 Y1.4336 I0.0537 J-0.032
G2 X-0.6376 Y0.6289 I-0.6366 J-0.6126
G3 X-0.6122 Y0.5638 I0.061 J-0.0136
G3 X-0.5625 Y0.625 I-0.0128 J0.0612
G1 Y1.4875
G3 X-0.575 Y1.5 I-0.0125 J0
G1 X-0.5875
G1 X-0.5903 Z-0.0647
G1 X-0.5929 Z-0.0638
G1 X-0.5953 Z-0.0623
G1 X-0.5973 Z-0.0603
G1 X-0.5988 Z-0.0579
G1 X-0.5997 Z-0.0553
G1 X-0.6 Z-0.0525
G0 Z0.2
G0 Y1.475
G1 Z-0.0094 F30.
G1 Z-0.0688
G1 X-0.5997 Z-0.0715 F6.1
G1 X-0.5988 Z-0.0742
G1 X-0.5973 Z-0.0765
G1 X-0.5953 Z-0.0785
G1 X-0.5929 Z-0.08
G1 X-0.5903 Z-0.0809
G1 X-0.5875 Z-0.0813
G1 X-0.575
G3 X-0.5625 Y1.4875 I0 J0.0125
G1 Y1.8016
G3 X-0.625 Y1.8641 I-0.0625 J0
G3 X-0.6787 Y1.8335 I0 J-0.0625
G1 X-0.872 Y1.5089
G3 X-0.8634 Y1.4336 I0.0537 J-0.032
G2 X-0.6376 Y0.6289 I-0.6366 J-0.6126
G3 X-0.6122 Y0.5638 I0.061 J-0.0136
G3 X-0.5625 Y0.625 I-0.0128 J0.0612
G1 Y1.4875
G3 X-0.575 Y1.5 I-0.0125 J0
G1 X-0.5875
G1 X-0.5903 Z-0.0809
G1 X-0.5929 Z-0.08
G1 X-0.5953 Z-0.0785
G1 X-0.5973 Z-0.0765
G1 X-0.5988 Z-0.0742
G1 X-0.5997 Z-0.0715
G1 X-0.6 Z-0.0688
G0 Z0.2
G0 Y1.475
G1 Z-0.0256 F30.
G1 Z-0.085
G1 X-0.5997 Z-0.0878 F6.1
G1 X-0.5988 Z-0.0904
G1 X-0.5973 Z-0.0928
G1 X-0.5953 Z-0.0948
G1 X-0.5929 Z-0.0963
G1 X-0.5903 Z-0.0972
G1 X-0.5875 Z-0.0975
G1 X-0.575
G3 X-0.5625 Y1.4875 I0 J0.0125
G1 Y1.8016
G3 X-0.625 Y1.8641 I-0.0625 J0
G3 X-0.6787 Y1.8335 I0 J-0.0625
G1 X-0.872 Y1.5089
G3 X-0.8634 Y1.4336 I0.0537 J-0.032
G2 X-0.6376 Y0.6289 I-0.6366 J-0.6126
G3 X-0.6122 Y0.5638 I0.061 J-0.0136
G3 X-0.5625 Y0.625 I-0.0128 J0.0612
G1 Y1.4875
G3 X-0.575 Y1.5 I-0.0125 J0
G1 X-0.5875
G1 X-0.5903 Z-0.0972
G1 X-0.5929 Z-0.0963
G1 X-0.5953 Z-0.0948
G1 X-0.5973 Z-0.0928
G1 X-0.5988 Z-0.0904
G1 X-0.5997 Z-0.0878
G1 X-0.6 Z-0.085
G0 Z0.2
G0 Y1.475
G1 Z-0.0419 F30.
G1 Z-0.1013
G1 X-0.5997 Z-0.104 F6.1
G1 X-0.5988 Z-0.1067
G1 X-0.5973 Z-0.109
G1 X-0.5953 Z-0.111
G1 X-0.5929 Z-0.1125
G1 X-0.5903 Z-0.1134
G1 X-0.5875 Z-0.1138
G1 X-0.575
G3 X-0.5625 Y1.4875 I0 J0.0125
G1 Y1.8016
G3 X-0.625 Y1.8641 I-0.0625 J0
G3 X-0.6787 Y1.8335 I0 J-0.0625
G1 X-0.872 Y1.5089
G3 X-0.8634 Y1.4336 I0.0537 J-0.032
G2 X-0.6376 Y0.6289 I-0.6366 J-0.6126
G3 X-0.6122 Y0.5638 I0.061 J-0.0136
G3 X-0.5625 Y0.625 I-0.0128 J0.0612
G1 Y1.4875
G3 X-0.575 Y1.5 I-0.0125 J0
G1 X-0.5875
G1 X-0.5903 Z-0.1134
G1 X-0.5929 Z-0.1125
G1 X-0.5953 Z-0.111
G1 X-0.5973 Z-0.109
G1 X-0.5988 Z-0.1067
G1 X-0.5997 Z-0.104
G1 X-0.6 Z-0.1013
G0 Z0.2
G0 Y1.475
G1 Z-0.0581 F30.
G1 Z-0.1175
G1 X-0.5997 Z-0.1203 F6.1
G1 X-0.5988 Z-0.1229
G1 X-0.5973 Z-0.1253
G1 X-0.5953 Z-0.1273
G1 X-0.5929 Z-0.1288
G1 X-0.5903 Z-0.1297
G1 X-0.5875 Z-0.13
G1 X-0.575
G3 X-0.5625 Y1.4875 I0 J0.0125
G1 Y1.8016
G3 X-0.625 Y1.8641 I-0.0625 J0
G3 X-0.6787 Y1.8335 I0 J-0.0625
G1 X-0.872 Y1.5089
G3 X-0.8634 Y1.4336 I0.0537 J-0.032
G2 X-0.6376 Y0.6289 I-0.6366 J-0.6126
G3 X-0.6122 Y0.5638 I0.061 J-0.0136
G3 X-0.5625 Y0.625 I-0.0128 J0.0612
G1 Y1.4875
G3 X-0.575 Y1.5 I-0.0125 J0
G1 X-0.5875
G1 X-0.5903 Z-0.1297
G1 X-0.5929 Z-0.1288
G1 X-0.5953 Z-0.1273
G1 X-0.5973 Z-0.1253
G1 X-0.5988 Z-0.1229
G1 X-0.5997 Z-0.1203
G1 X-0.6 Z-0.1175
G0 Z0.2
G0 Y1.475
G1 Z-0.0744 F30.
G1 Z-0.1338
G1 X-0.5997 Z-0.1365 F6.1
G1 X-0.5988 Z-0.1392
G1 X-0.5973 Z-0.1415
G1 X-0.5953 Z-0.1435
G1 X-0.5929 Z-0.145
G1 X-0.5903 Z-0.1459
G1 X-0.5875 Z-0.1463
G1 X-0.575
G3 X-0.5625 Y1.4875 I0 J0.0125
G1 Y1.8016
G3 X-0.625 Y1.8641 I-0.0625 J0
G3 X-0.6787 Y1.8335 I0 J-0.0625
G1 X-0.872 Y1.5089
G3 X-0.8634 Y1.4336 I0.0537 J-0.032
G2 X-0.6376 Y0.6289 I-0.6366 J-0.6126
G3 X-0.6122 Y0.5638 I0.061 J-0.0136
G3 X-0.5625 Y0.625 I-0.0128 J0.0612
G1 Y1.4875
G3 X-0.575 Y1.5 I-0.0125 J0
G1 X-0.5875
G1 X-0.5903 Z-0.1459
G1 X-0.5929 Z-0.145
G1 X-0.5953 Z-0.1435
G1 X-0.5973 Z-0.1415
G1 X-0.5988 Z-0.1392
G1 X-0.5997 Z-0.1365
G1 X-0.6 Z-0.1338
G0 Z0.2
G0 Y1.475
G1 Z-0.0906 F30.
G1 Z-0.1438
G1 X-0.5997 Z-0.1465 F6.1
G1 X-0.5988 Z-0.1492
G1 X-0.5973 Z-0.1515
G1 X-0.5953 Z-0.1535
G1 X-0.5929 Z-0.155
G1 X-0.5903 Z-0.1559
G1 X-0.5875 Z-0.1563
G1 X-0.575
G3 X-0.5625 Y1.4875 I0 J0.0125
G1 Y1.8016
G3 X-0.625 Y1.8641 I-0.0625 J0
G3 X-0.6787 Y1.8335 I0 J-0.0625
G1 X-0.872 Y1.5089
G3 X-0.8634 Y1.4336 I0.0537 J-0.032
G2 X-0.6376 Y0.6289 I-0.6366 J-0.6126
G3 X-0.6122 Y0.5638 I0.061 J-0.0136
G3 X-0.5625 Y0.625 I-0.0128 J0.0612
G1 Y1.4875
G3 X-0.575 Y1.5 I-0.0125 J0
G1 X-0.5875
G1 X-0.5903 Z-0.1559
G1 X-0.5929 Z-0.155
G1 X-0.5953 Z-0.1535
G1 X-0.5973 Z-0.1515
G1 X-0.5988 Z-0.1492
G1 X-0.5997 Z-0.1465
G1 X-0.6 Z-0.1438
G0 Z0.2
G0 X-13.074 Y1.2294
G1 Z0.0556 F30.
G1 Z-0.0038
G1 Y1.2291 Z-0.0065 F6.1
G1 X-13.0738 Y1.2282 Z-0.0092
G1 X-13.0737 Y1.2267 Z-0.0115
G1 X-13.0734 Y1.2247 Z-0.0135
G1 X-13.0731 Y1.2224 Z-0.015
G1 X-13.0728 Y1.2197 Z-0.0159
G1 X-13.0724 Y1.217 Z-0.0163
G1 X-13.0708 Y1.2046
G3 X-13.0569 Y1.1938 I0.0124 J0.0016
G1 X-4.8779 Y2.2351
G3 X-4.8255 Y2.2806 I-0.0079 J0.062
G2 X-4.8013 Y2.351 I0.567 J-0.1558
G3 X-4.835 Y2.4327 I-0.0577 J0.024
G3 X-4.859 Y2.4375 I-0.024 J-0.0577
G1 X-15.375
G3 X-15.4375 Y2.375 I0 J-0.0625
G1 Y1.5281
G3 X-15.375 Y1.4656 I0.0625 J0
G3 X-15.3264 Y1.4888 I0 J0.0625
G2 X-13.8322 Y1.6474 I0.8264 J-0.6678
G2 X-13.5022 Y1.1861 I-0.6678 J-0.8264
G3 X-13.4356 Y1.1455 I0.0587 J0.0215
G1 X-13.0569 Y1.1938
G3 X-13.046 Y1.2077 I-0.0016 J0.0124
G1 X-13.0476 Y1.2201
G1 X-13.048 Y1.2229 Z-0.0159
G1 X-13.0483 Y1.2255 Z-0.015
G1 X-13.0486 Y1.2279 Z-0.0135
G1 X-13.0489 Y1.2298 Z-0.0115
G1 X-13.049 Y1.2313 Z-0.0092
G1 X-13.0492 Y1.2322 Z-0.0065
G1 Y1.2325 Z-0.0038
G0 Z0.2
G0 X-13.074 Y1.2294
G1 Z0.0394 F30.
G1 Z-0.02
G1 Y1.2291 Z-0.0228 F6.1
G1 X-13.0738 Y1.2282 Z-0.0254
G1 X-13.0737 Y1.2267 Z-0.0278
G1 X-13.0734 Y1.2247 Z-0.0298
G1 X-13.0731 Y1.2224 Z-0.0313
G1 X-13.0728 Y1.2197 Z-0.0322
G1 X-13.0724 Y1.217 Z-0.0325
G1 X-13.0708 Y1.2046
G3 X-13.0569 Y1.1938 I0.0124 J0.0016
G1 X-4.8779 Y2.2351
G3 X-4.8255 Y2.2806 I-0.0079 J0.062
G2 X-4.8013 Y2.351 I0.567 J-0.1558
G3 X-4.835 Y2.4327 I-0.0577 J0.024
G3 X-4.859 Y2.4375 I-0.024 J-0.0577
G1 X-15.375
G3 X-15.4375 Y2.375 I0 J-0.0625
G1 Y1.5281
G3 X-15.375 Y1.4656 I0.0625 J0
G3 X-15.3264 Y1.4888 I0 J0.0625
G2 X-13.8322 Y1.6474 I0.8264 J-0.6678
G2 X-13.5022 Y1.1861 I-0.6678 J-0.8264
G3 X-13.4356 Y1.1455 I0.0587 J0.0215
G1 X-13.0569 Y1.1938
G3 X-13.046 Y1.2077 I-0.0016 J0.0124
G1 X-13.0476 Y1.2201
G1 X-13.048 Y1.2229 Z-0.0322
G1 X-13.0483 Y1.2255 Z-0.0313
G1 X-13.0486 Y1.2279 Z-0.0298
G1 X-13.0489 Y1.2298 Z-0.0278
G1 X-13.049 Y1.2313 Z-0.0254
G1 X-13.0492 Y1.2322 Z-0.0228
G1 Y1.2325 Z-0.02
G0 Z0.2
G0 X-13.074 Y1.2294
G1 Z0.0231 F30.
G1 Z-0.0363
G1 Y1.2291 Z-0.039 F6.1
G1 X-13.0738 Y1.2282 Z-0.0417
G1 X-13.0737 Y1.2267 Z-0.044
G1 X-13.0734 Y1.2247 Z-0.046
G1 X-13.0731 Y1.2224 Z-0.0475
G1 X-13.0728 Y1.2197 Z-0.0484
G1 X-13.0724 Y1.217 Z-0.0488
G1 X-13.0708 Y1.2046
G3 X-13.0569 Y1.1938 I0.0124 J0.0016
G1 X-4.8779 Y2.2351
G3 X-4.8255 Y2.2806 I-0.0079 J0.062
G2 X-4.8013 Y2.351 I0.567 J-0.1558
G3 X-4.835 Y2.4327 I-0.0577 J0.024
G3 X-4.859 Y2.4375 I-0.024 J-0.0577
G1 X-15.375
G3 X-15.4375 Y2.375 I0 J-0.0625
G1 Y1.5281
G3 X-15.375 Y1.4656 I0.0625 J0
G3 X-15.3264 Y1.4888 I0 J0.0625
G2 X-13.8322 Y1.6474 I0.8264 J-0.6678
G2 X-13.5022 Y1.1861 I-0.6678 J-0.8264
G3 X-13.4356 Y1.1455 I0.0587 J0.0215
G1 X-13.0569 Y1.1938
G3 X-13.046 Y1.2077 I-0.0016 J0.0124
G1 X-13.0476 Y1.2201
G1 X-13.048 Y1.2229 Z-0.0484
G1 X-13.0483 Y1.2255 Z-0.0475
G1 X-13.0486 Y1.2279 Z-0.046
G1 X-13.0489 Y1.2298 Z-0.044
G1 X-13.049 Y1.2313 Z-0.0417
G1 X-13.0492 Y1.2322 Z-0.039
G1 Y1.2325 Z-0.0363
G0 Z0.2
G0 X-13.074 Y1.2294
G1 Z0.0069 F30.
G1 Z-0.0525
G1 Y1.2291 Z-0.0553 F6.1
G1 X-13.0738 Y1.2282 Z-0.0579
G1 X-13.0737 Y1.2267 Z-0.0603
G1 X-13.0734 Y1.2247 Z-0.0623
G1 X-13.0731 Y1.2224 Z-0.0638
G1 X-13.0728 Y1.2197 Z-0.0647
G1 X-13.0724 Y1.217 Z-0.065
G1 X-13.0708 Y1.2046
G3 X-13.0569 Y1.1938 I0.0124 J0.0016
G1 X-4.8779 Y2.2351
G3 X-4.8255 Y2.2806 I-0.0079 J0.062
G2 X-4.8013 Y2.351 I0.567 J-0.1558
G3 X-4.835 Y2.4327 I-0.0577 J0.024
G3 X-4.859 Y2.4375 I-0.024 J-0.0577
G1 X-15.375
G3 X-15.4375 Y2.375 I0 J-0.0625
G1 Y1.5281
G3 X-15.375 Y1.4656 I0.0625 J0
G3 X-15.3264 Y1.4888 I0 J0.0625
G2 X-13.8322 Y1.6474 I0.8264 J-0.6678
G2 X-13.5022 Y1.1861 I-0.6678 J-0.8264
G3 X-13.4356 Y1.1455 I0.0587 J0.0215
G1 X-13.0569 Y1.1938
G3 X-13.046 Y1.2077 I-0.0016 J0.0124
G1 X-13.0476 Y1.2201
G1 X-13.048 Y1.2229 Z-0.0647
G1 X-13.0483 Y1.2255 Z-0.0638
G1 X-13.0486 Y1.2279 Z-0.0623
G1 X-13.0489 Y1.2298 Z-0.0603
G1 X-13.049 Y1.2313 Z-0.0579
G1 X-13.0492 Y1.2322 Z-0.0553
G1 Y1.2325 Z-0.0525
G0 Z0.2
G0 X-13.074 Y1.2294
G1 Z-0.0094 F30.
G1 Z-0.0688
G1 Y1.2291 Z-0.0715 F6.1
G1 X-13.0738 Y1.2282 Z-0.0742
G1 X-13.0737 Y1.2267 Z-0.0765
G1 X-13.0734 Y1.2247 Z-0.0785
G1 X-13.0731 Y1.2224 Z-0.08
G1 X-13.0728 Y1.2197 Z-0.0809
G1 X-13.0724 Y1.217 Z-0.0813
G1 X-13.0708 Y1.2046
G3 X-13.0569 Y1.1938 I0.0124 J0.0016
G1 X-4.8779 Y2.2351
G3 X-4.8255 Y2.2806 I-0.0079 J0.062
G2 X-4.8013 Y2.351 I0.567 J-0.1558
G3 X-4.835 Y2.4327 I-0.0577 J0.024
G3 X-4.859 Y2.4375 I-0.024 J-0.0577
G1 X-15.375
G3 X-15.4375 Y2.375 I0 J-0.0625
G1 Y1.5281
G3 X-15.375 Y1.4656 I0.0625 J0
G3 X-15.3264 Y1.4888 I0 J0.0625
G2 X-13.8322 Y1.6474 I0.8264 J-0.6678
G2 X-13.5022 Y1.1861 I-0.6678 J-0.8264
G3 X-13.4356 Y1.1455 I0.0587 J0.0215
G1 X-13.0569 Y1.1938
G3 X-13.046 Y1.2077 I-0.0016 J0.0124
G1 X-13.0476 Y1.2201
G1 X-13.048 Y1.2229 Z-0.0809
G1 X-13.0483 Y1.2255 Z-0.08
G1 X-13.0486 Y1.2279 Z-0.0785
G1 X-13.0489 Y1.2298 Z-0.0765
G1 X-13.049 Y1.2313 Z-0.0742
G1 X-13.0492 Y1.2322 Z-0.0715
G1 Y1.2325 Z-0.0688
G0 Z0.2
G0 X-13.074 Y1.2294
G1 Z-0.0256 F30.
G1 Z-0.085
G1 Y1.2291 Z-0.0878 F6.1
G1 X-13.0738 Y1.2282 Z-0.0904
G1 X-13.0737 Y1.2267 Z-0.0928
G1 X-13.0734 Y1.2247 Z-0.0948
G1 X-13.0731 Y1.2224 Z-0.0963
G1 X-13.0728 Y1.2197 Z-0.0972
G1 X-13.0724 Y1.217 Z-0.0975
G1 X-13.0708 Y1.2046
G3 X-13.0569 Y1.1938 I0.0124 J0.0016
G1 X-4.8779 Y2.2351
G3 X-4.8255 Y2.2806 I-0.0079 J0.062
G2 X-4.8013 Y2.351 I0.567 J-0.1558
G3 X-4.835 Y2.4327 I-0.0577 J0.024
G3 X-4.859 Y2.4375 I-0.024 J-0.0577
G1 X-15.375
G3 X-15.4375 Y2.375 I0 J-0.0625
G1 Y1.5281
G3 X-15.375 Y1.4656 I0.0625 J0
G3 X-15.3264 Y1.4888 I0 J0.0625
G2 X-13.8322 Y1.6474 I0.8264 J-0.6678
G2 X-13.5022 Y1.1861 I-0.6678 J-0.8264
G3 X-13.4356 Y1.1455 I0.0587 J0.0215
G1 X-13.0569 Y1.1938
G3 X-13.046 Y1.2077 I-0.0016 J0.0124
G1 X-13.0476 Y1.2201
G1 X-13.048 Y1.2229 Z-0.0972
G1 X-13.0483 Y1.2255 Z-0.0963
G1 X-13.0486 Y1.2279 Z-0.0948
G1 X-13.0489 Y1.2298 Z-0.0928
G1 X-13.049 Y1.2313 Z-0.0904
G1 X-13.0492 Y1.2322 Z-0.0878
G1 Y1.2325 Z-0.085
G0 Z0.2
G0 X-13.074 Y1.2294
G1 Z-0.0419 F30.
G1 Z-0.1013
G1 Y1.2291 Z-0.104 F6.1
G1 X-13.0738 Y1.2282 Z-0.1067
G1 X-13.0737 Y1.2267 Z-0.109
G1 X-13.0734 Y1.2247 Z-0.111
G1 X-13.0731 Y1.2224 Z-0.1125
G1 X-13.0728 Y1.2197 Z-0.1134
G1 X-13.0724 Y1.217 Z-0.1138
G1 X-13.0708 Y1.2046
G3 X-13.0569 Y1.1938 I0.0124 J0.0016
G1 X-4.8779 Y2.2351
G3 X-4.8255 Y2.2806 I-0.0079 J0.062
G2 X-4.8013 Y2.351 I0.567 J-0.1558
G3 X-4.835 Y2.4327 I-0.0577 J0.024
G3 X-4.859 Y2.4375 I-0.024 J-0.0577
G1 X-15.375
G3 X-15.4375 Y2.375 I0 J-0.0625
G1 Y1.5281
G3 X-15.375 Y1.4656 I0.0625 J0
G3 X-15.3264 Y1.4888 I0 J0.0625
G2 X-13.8322 Y1.6474 I0.8264 J-0.6678
G2 X-13.5022 Y1.1861 I-0.6678 J-0.8264
G3 X-13.4356 Y1.1455 I0.0587 J0.0215
G1 X-13.0569 Y1.1938
G3 X-13.046 Y1.2077 I-0.0016 J0.0124
G1 X-13.0476 Y1.2201
G1 X-13.048 Y1.2229 Z-0.1134
G1 X-13.0483 Y1.2255 Z-0.1125
G1 X-13.0486 Y1.2279 Z-0.111
G1 X-13.0489 Y1.2298 Z-0.109
G1 X-13.049 Y1.2313 Z-0.1067
G1 X-13.0492 Y1.2322 Z-0.104
G1 Y1.2325 Z-0.1013
G0 Z0.2
G0 X-13.074 Y1.2294
G1 Z-0.0581 F30.
G1 Z-0.1175
G1 Y1.2291 Z-0.1203 F6.1
G1 X-13.0738 Y1.2282 Z-0.1229
G1 X-13.0737 Y1.2267 Z-0.1253
G1 X-13.0734 Y1.2247 Z-0.1273
G1 X-13.0731 Y1.2224 Z-0.1288
G1 X-13.0728 Y1.2197 Z-0.1297
G1 X-13.0724 Y1.217 Z-0.13
G1 X-13.0708 Y1.2046
G3 X-13.0569 Y1.1938 I0.0124 J0.0016
G1 X-4.8779 Y2.2351
G3 X-4.8255 Y2.2806 I-0.0079 J0.062
G2 X-4.8013 Y2.351 I0.567 J-0.1558
G3 X-4.835 Y2.4327 I-0.0577 J0.024
G3 X-4.859 Y2.4375 I-0.024 J-0.0577
G1 X-15.375
G3 X-15.4375 Y2.375 I0 J-0.0625
G1 Y1.5281
G3 X-15.375 Y1.4656 I0.0625 J0
G3 X-15.3264 Y1.4888 I0 J0.0625
G2 X-13.8322 Y1.6474 I0.8264 J-0.6678
G2 X-13.5022 Y1.1861 I-0.6678 J-0.8264
G3 X-13.4356 Y1.1455 I0.0587 J0.0215
G1 X-13.0569 Y1.1938
G3 X-13.046 Y1.2077 I-0.0016 J0.0124
G1 X-13.0476 Y1.2201
G1 X-13.048 Y1.2229 Z-0.1297
G1 X-13.0483 Y1.2255 Z-0.1288
G1 X-13.0486 Y1.2279 Z-0.1273
G1 X-13.0489 Y1.2298 Z-0.1253
G1 X-13.049 Y1.2313 Z-0.1229
G1 X-13.0492 Y1.2322 Z-0.1203
G1 Y1.2325 Z-0.1175
G0 Z0.2
G0 X-13.074 Y1.2294
G1 Z-0.0744 F30.
G1 Z-0.1338
G1 Y1.2291 Z-0.1365 F6.1
G1 X-13.0738 Y1.2282 Z-0.1392
G1 X-13.0737 Y1.2267 Z-0.1415
G1 X-13.0734 Y1.2247 Z-0.1435
G1 X-13.0731 Y1.2224 Z-0.145
G1 X-13.0728 Y1.2197 Z-0.1459
G1 X-13.0724 Y1.217 Z-0.1463
G1 X-13.0708 Y1.2046
G3 X-13.0569 Y1.1938 I0.0124 J0.0016
G1 X-4.8779 Y2.2351
G3 X-4.8255 Y2.2806 I-0.0079 J0.062
G2 X-4.8013 Y2.351 I0.567 J-0.1558
G3 X-4.835 Y2.4327 I-0.0577 J0.024
G3 X-4.859 Y2.4375 I-0.024 J-0.0577
G1 X-15.375
G3 X-15.4375 Y2.375 I0 J-0.0625
G1 Y1.5281
G3 X-15.375 Y1.4656 I0.0625 J0
G3 X-15.3264 Y1.4888 I0 J0.0625
G2 X-13.8322 Y1.6474 I0.8264 J-0.6678
G2 X-13.5022 Y1.1861 I-0.6678 J-0.8264
G3 X-13.4356 Y1.1455 I0.0587 J0.0215
G1 X-13.0569 Y1.1938
G3 X-13.046 Y1.2077 I-0.0016 J0.0124
G1 X-13.0476 Y1.2201
G1 X-13.048 Y1.2229 Z-0.1459
G1 X-13.0483 Y1.2255 Z-0.145
G1 X-13.0486 Y1.2279 Z-0.1435
G1 X-13.0489 Y1.2298 Z-0.1415
G1 X-13.049 Y1.2313 Z-0.1392
G1 X-13.0492 Y1.2322 Z-0.1365
G1 Y1.2325 Z-0.1338
G0 Z0.2
G0 X-13.074 Y1.2294
G1 Z-0.0906 F30.
G1 Z-0.1438
G1 Y1.2291 Z-0.1465 F6.1
G1 X-13.0738 Y1.2282 Z-0.1492
G1 X-13.0737 Y1.2267 Z-0.1515
G1 X-13.0734 Y1.2247 Z-0.1535
G1 X-13.0731 Y1.2224 Z-0.155
G1 X-13.0728 Y1.2197 Z-0.1559
G1 X-13.0724 Y1.217 Z-0.1563
G1 X-13.0708 Y1.2046
G3 X-13.0569 Y1.1938 I0.0124 J0.0016
G1 X-4.8779 Y2.2351
G3 X-4.8255 Y2.2806 I-0.0079 J0.062
G2 X-4.8013 Y2.351 I0.567 J-0.1558
G3 X-4.835 Y2.4327 I-0.0577 J0.024
G3 X-4.859 Y2.4375 I-0.024 J-0.0577
G1 X-15.375
G3 X-15.4375 Y2.375 I0 J-0.0625
G1 Y1.5281
G3 X-15.375 Y1.4656 I0.0625 J0
G3 X-15.3264 Y1.4888 I0 J0.0625
G2 X-13.8322 Y1.6474 I0.8264 J-0.6678
G2 X-13.5022 Y1.1861 I-0.6678 J-0.8264
G3 X-13.4356 Y1.1455 I0.0587 J0.0215
G1 X-13.0569 Y1.1938
G3 X-13.046 Y1.2077 I-0.0016 J0.0124
G1 X-13.0476 Y1.2201
G1 X-13.048 Y1.2229 Z-0.1559
G1 X-13.0483 Y1.2255 Z-0.155
G1 X-13.0486 Y1.2279 Z-0.1535
G1 X-13.0489 Y1.2298 Z-0.1515
G1 X-13.049 Y1.2313 Z-0.1492
G1 X-13.0492 Y1.2322 Z-0.1465
G1 Y1.2325 Z-0.1438
G0 Z0.2
G0 X-12.0733 Y0.7905
G1 Z0.0556 F30.
G1 Z-0.0038
G1 Y0.7902 Z-0.0065 F6.1
G1 X-12.0734 Y0.7893 Z-0.0092
G1 X-12.0736 Y0.7878 Z-0.0115
G1 X-12.0738 Y0.7858 Z-0.0135
G1 X-12.074 Y0.7835 Z-0.015
G1 X-12.0743 Y0.7809 Z-0.0159
G1 X-12.0746 Y0.7781 Z-0.0163
G1 X-12.0759 Y0.7657
G3 X-12.0732 Y0.7565 I0.0124 J-0.0013
G3 X-12.0648 Y0.7519 I0.0097 J0.0079
G1 X-12.0432 Y0.7496
G3 X-11.9818 Y0.7818 I0.0066 J0.0621
G2 X-11.9371 Y0.8516 I0.516 J-0.282
G3 X-11.9498 Y0.939 I-0.0501 J0.0374
G3 X-11.9951 Y0.9509 I-0.0374 J-0.0501
G1 X-12.3484 Y0.9059
G3 X-12.4025 Y0.836 I0.0079 J-0.062
G3 X-12.3471 Y0.7818 I0.062 J0.0079
G1 X-12.0648 Y0.7519
G3 X-12.051 Y0.763 I0.0013 J0.0124
G1 X-12.0497 Y0.7755
G1 X-12.0494 Y0.7782 Z-0.0159
G1 X-12.0492 Y0.7809 Z-0.015
G1 X-12.0489 Y0.7832 Z-0.0135
G1 X-12.0487 Y0.7852 Z-0.0115
G1 X-12.0485 Y0.7867 Z-0.0092
G1 X-12.0484 Y0.7876 Z-0.0065
G1 Y0.7879 Z-0.0038
G0 Z0.2
G0 X-12.0733 Y0.7905
G1 Z0.0394 F30.
G1 Z-0.02
G1 Y0.7902 Z-0.0228 F6.1
G1 X-12.0734 Y0.7893 Z-0.0254
G1 X-12.0736 Y0.7878 Z-0.0278
G1 X-12.0738 Y0.7858 Z-0.0298
G1 X-12.074 Y0.7835 Z-0.0313
G1 X-12.0743 Y0.7809 Z-0.0322
G1 X-12.0746 Y0.7781 Z-0.0325
G1 X-12.0759 Y0.7657
G3 X-12.0732 Y0.7565 I0.0124 J-0.0013
G3 X-12.0648 Y0.7519 I0.0097 J0.0079
G1 X-12.0432 Y0.7496
G3 X-11.9818 Y0.7818 I0.0066 J0.0621
G2 X-11.9371 Y0.8516 I0.516 J-0.282
G3 X-11.9498 Y0.939 I-0.0501 J0.0374
G3 X-11.9951 Y0.9509 I-0.0374 J-0.0501
G1 X-12.3484 Y0.9059
G3 X-12.4025 Y0.836 I0.0079 J-0.062
G3 X-12.3471 Y0.7818 I0.062 J0.0079
G1 X-12.0648 Y0.7519
G3 X-12.051 Y0.763 I0.0013 J0.0124
G1 X-12.0497 Y0.7755
G1 X-12.0494 Y0.7782 Z-0.0322
G1 X-12.0492 Y0.7809 Z-0.0313
G1 X-12.0489 Y0.7832 Z-0.0298
G1 X-12.0487 Y0.7852 Z-0.0278
G1 X-12.0485 Y0.7867 Z-0.0254
G1 X-12.0484 Y0.7876 Z-0.0228
G1 Y0.7879 Z-0.02
G0 Z0.2
G0 X-12.0733 Y0.7905
G1 Z0.0231 F30.
G1 Z-0.0363
G1 Y0.7902 Z-0.039 F6.1
G1 X-12.0734 Y0.7893 Z-0.0417
G1 X-12.0736 Y0.7878 Z-0.044
G1 X-12.0738 Y0.7858 Z-0.046
G1 X-12.074 Y0.7835 Z-0.0475
G1 X-12.0743 Y0.7809 Z-0.0484
G1 X-12.0746 Y0.7781 Z-0.0488
G1 X-12.0759 Y0.7657
G3 X-12.0732 Y0.7565 I0.0124 J-0.0013
G3 X-12.0648 Y0.7519 I0.0097 J0.0079
G1 X-12.0432 Y0.7496
G3 X-11.9818 Y0.7818 I0.0066 J0.0621
G2 X-11.9371 Y0.8516 I0.516 J-0.282
G3 X-11.9498 Y0.939 I-0.0501 J0.0374
G3 X-11.9951 Y0.9509 I-0.0374 J-0.0501
G1 X-12.3484 Y0.9059
G3 X-12.4025 Y0.836 I0.0079 J-0.062
G3 X-12.3471 Y0.7818 I0.062 J0.0079
G1 X-12.0648 Y0.7519
G3 X-12.051 Y0.763 I0.0013 J0.0124
G1 X-12.0497 Y0.7755
G1 X-12.0494 Y0.7782 Z-0.0484
G1 X-12.0492 Y0.7809 Z-0.0475
G1 X-12.0489 Y0.7832 Z-0.046
G1 X-12.0487 Y0.7852 Z-0.044
G1 X-12.0485 Y0.7867 Z-0.0417
G1 X-12.0484 Y0.7876 Z-0.039
G1 Y0.7879 Z-0.0363
G0 Z0.2
G0 X-12.0733 Y0.7905
G1 Z0.0069 F30.
G1 Z-0.0525
G1 Y0.7902 Z-0.0553 F6.1
G1 X-12.0734 Y0.7893 Z-0.0579
G1 X-12.0736 Y0.7878 Z-0.0603
G1 X-12.0738 Y0.7858 Z-0.0623
G1 X-12.074 Y0.7835 Z-0.0638
G1 X-12.0743 Y0.7809 Z-0.0647
G1 X-12.0746 Y0.7781 Z-0.065
G1 X-12.0759 Y0.7657
G3 X-12.0732 Y0.7565 I0.0124 J-0.0013
G3 X-12.0648 Y0.7519 I0.0097 J0.0079
G1 X-12.0432 Y0.7496
G3 X-11.9818 Y0.7818 I0.0066 J0.0621
G2 X-11.9371 Y0.8516 I0.516 J-0.282
G3 X-11.9498 Y0.939 I-0.0501 J0.0374
G3 X-11.9951 Y0.9509 I-0.0374 J-0.0501
G1 X-12.3484 Y0.9059
G3 X-12.4025 Y0.836 I0.0079 J-0.062
G3 X-12.3471 Y0.7818 I0.062 J0.0079
G1 X-12.0648 Y0.7519
G3 X-12.051 Y0.763 I0.0013 J0.0124
G1 X-12.0497 Y0.7755
G1 X-12.0494 Y0.7782 Z-0.0647
G1 X-12.0492 Y0.7809 Z-0.0638
G1 X-12.0489 Y0.7832 Z-0.0623
G1 X-12.0487 Y0.7852 Z-0.0603
G1 X-12.0485 Y0.7867 Z-0.0579
G1 X-12.0484 Y0.7876 Z-0.0553
G1 Y0.7879 Z-0.0525
G0 Z0.2
G0 X-12.0733 Y0.7905
G1 Z-0.0094 F30.
G1 Z-0.0688
G1 Y0.7902 Z-0.0715 F6.1
G1 X-12.0734 Y0.7893 Z-0.0742
G1 X-12.0736 Y0.7878 Z-0.0765
G1 X-12.0738 Y0.7858 Z-0.0785
G1 X-12.074 Y0.7835 Z-0.08
G1 X-12.0743 Y0.7809 Z-0.0809
G1 X-12.0746 Y0.7781 Z-0.0813
G1 X-12.0759 Y0.7657
G3 X-12.0732 Y0.7565 I0.0124 J-0.0013
G3 X-12.0648 Y0.7519 I0.0097 J0.0079
G1 X-12.0432 Y0.7496
G3 X-11.9818 Y0.7818 I0.0066 J0.0621
G2 X-11.9371 Y0.8516 I0.516 J-0.282
G3 X-11.9498 Y0.939 I-0.0501 J0.0374
G3 X-11.9951 Y0.9509 I-0.0374 J-0.0501
G1 X-12.3484 Y0.9059
G3 X-12.4025 Y0.836 I0.0079 J-0.062
G3 X-12.3471 Y0.7818 I0.062 J0.0079
G1 X-12.0648 Y0.7519
G3 X-12.051 Y0.763 I0.0013 J0.0124
G1 X-12.0497 Y0.7755
G1 X-12.0494 Y0.7782 Z-0.0809
G1 X-12.0492 Y0.7809 Z-0.08
G1 X-12.0489 Y0.7832 Z-0.0785
G1 X-12.0487 Y0.7852 Z-0.0765
G1 X-12.0485 Y0.7867 Z-0.0742
G1 X-12.0484 Y0.7876 Z-0.0715
G1 Y0.7879 Z-0.0688
G0 Z0.2
G0 X-12.0733 Y0.7905
G1 Z-0.0256 F30.
G1 Z-0.085
G1 Y0.7902 Z-0.0878 F6.1
G1 X-12.0734 Y0.7893 Z-0.0904
G1 X-12.0736 Y0.7878 Z-0.0928
G1 X-12.0738 Y0.7858 Z-0.0948
G1 X-12.074 Y0.7835 Z-0.0963
G1 X-12.0743 Y0.7809 Z-0.0972
G1 X-12.0746 Y0.7781 Z-0.0975
G1 X-12.0759 Y0.7657
G3 X-12.0732 Y0.7565 I0.0124 J-0.0013
G3 X-12.0648 Y0.7519 I0.0097 J0.0079
G1 X-12.0432 Y0.7496
G3 X-11.9818 Y0.7818 I0.0066 J0.0621
G2 X-11.9371 Y0.8516 I0.516 J-0.282
G3 X-11.9498 Y0.939 I-0.0501 J0.0374
G3 X-11.9951 Y0.9509 I-0.0374 J-0.0501
G1 X-12.3484 Y0.9059
G3 X-12.4025 Y0.836 I0.0079 J-0.062
G3 X-12.3471 Y0.7818 I0.062 J0.0079
G1 X-12.0648 Y0.7519
G3 X-12.051 Y0.763 I0.0013 J0.0124
G1 X-12.0497 Y0.7755
G1 X-12.0494 Y0.7782 Z-0.0972
G1 X-12.0492 Y0.7809 Z-0.0963
G1 X-12.0489 Y0.7832 Z-0.0948
G1 X-12.0487 Y0.7852 Z-0.0928
G1 X-12.0485 Y0.7867 Z-0.0904
G1 X-12.0484 Y0.7876 Z-0.0878
G1 Y0.7879 Z-0.085
G0 Z0.2
G0 X-12.0733 Y0.7905
G1 Z-0.0419 F30.
G1 Z-0.1013
G1 Y0.7902 Z-0.104 F6.1
G1 X-12.0734 Y0.7893 Z-0.1067
G1 X-12.0736 Y0.7878 Z-0.109
G1 X-12.0738 Y0.7858 Z-0.111
G1 X-12.074 Y0.7835 Z-0.1125
G1 X-12.0743 Y0.7809 Z-0.1134
G1 X-12.0746 Y0.7781 Z-0.1138
G1 X-12.0759 Y0.7657
G3 X-12.0732 Y0.7565 I0.0124 J-0.0013
G3 X-12.0648 Y0.7519 I0.0097 J0.0079
G1 X-12.0432 Y0.7496
G3 X-11.9818 Y0.7818 I0.0066 J0.0621
G2 X-11.9371 Y0.8516 I0.516 J-0.282
G3 X-11.9498 Y0.939 I-0.0501 J0.0374
G3 X-11.9951 Y0.9509 I-0.0374 J-0.0501
G1 X-12.3484 Y0.9059
G3 X-12.4025 Y0.836 I0.0079 J-0.062
G3 X-12.3471 Y0.7818 I0.062 J0.0079
G1 X-12.0648 Y0.7519
G3 X-12.051 Y0.763 I0.0013 J0.0124
G1 X-12.0497 Y0.7755
G1 X-12.0494 Y0.7782 Z-0.1134
G1 X-12.0492 Y0.7809 Z-0.1125
G1 X-12.0489 Y0.7832 Z-0.111
G1 X-12.0487 Y0.7852 Z-0.109
G1 X-12.0485 Y0.7867 Z-0.1067
G1 X-12.0484 Y0.7876 Z-0.104
G1 Y0.7879 Z-0.1013
G0 Z0.2
G0 X-12.0733 Y0.7905
G1 Z-0.0581 F30.
G1 Z-0.1175
G1 Y0.7902 Z-0.1203 F6.1
G1 X-12.0734 Y0.7893 Z-0.1229
G1 X-12.0736 Y0.7878 Z-0.1253
G1 X-12.0738 Y0.7858 Z-0.1273
G1 X-12.074 Y0.7835 Z-0.1288
G1 X-12.0743 Y0.7809 Z-0.1297
G1 X-12.0746 Y0.7781 Z-0.13
G1 X-12.0759 Y0.7657
G3 X-12.0732 Y0.7565 I0.0124 J-0.0013
G3 X-12.0648 Y0.7519 I0.0097 J0.0079
G1 X-12.0432 Y0.7496
G3 X-11.9818 Y0.7818 I0.0066 J0.0621
G2 X-11.9371 Y0.8516 I0.516 J-0.282
G3 X-11.9498 Y0.939 I-0.0501 J0.0374
G3 X-11.9951 Y0.9509 I-0.0374 J-0.0501
G1 X-12.3484 Y0.9059
G3 X-12.4025 Y0.836 I0.0079 J-0.062
G3 X-12.3471 Y0.7818 I0.062 J0.0079
G1 X-12.0648 Y0.7519
G3 X-12.051 Y0.763 I0.0013 J0.0124
G1 X-12.0497 Y0.7755
G1 X-12.0494 Y0.7782 Z-0.1297
G1 X-12.0492 Y0.7809 Z-0.1288
G1 X-12.0489 Y0.7832 Z-0.1273
G1 X-12.0487 Y0.7852 Z-0.1253
G1 X-12.0485 Y0.7867 Z-0.1229
G1 X-12.0484 Y0.7876 Z-0.1203
G1 Y0.7879 Z-0.1175
G0 Z0.2
G0 X-12.0733 Y0.7905
G1 Z-0.0744 F30.
G1 Z-0.1338
G1 Y0.7902 Z-0.1365 F6.1
G1 X-12.0734 Y0.7893 Z-0.1392
G1 X-12.0736 Y0.7878 Z-0.1415
G1 X-12.0738 Y0.7858 Z-0.1435
G1 X-12.074 Y0.7835 Z-0.145
G1 X-12.0743 Y0.7809 Z-0.1459
G1 X-12.0746 Y0.7781 Z-0.1463
G1 X-12.0759 Y0.7657
G3 X-12.0732 Y0.7565 I0.0124 J-0.0013
G3 X-12.0648 Y0.7519 I0.0097 J0.0079
G1 X-12.0432 Y0.7496
G3 X-11.9818 Y0.7818 I0.0066 J0.0621
G2 X-11.9371 Y0.8516 I0.516 J-0.282
G3 X-11.9498 Y0.939 I-0.0501 J0.0374
G3 X-11.9951 Y0.9509 I-0.0374 J-0.0501
G1 X-12.3484 Y0.9059
G3 X-12.4025 Y0.836 I0.0079 J-0.062
G3 X-12.3471 Y0.7818 I0.062 J0.0079
G1 X-12.0648 Y0.7519
G3 X-12.051 Y0.763 I0.0013 J0.0124
G1 X-12.0497 Y0.7755
G1 X-12.0494 Y0.7782 Z-0.1459
G1 X-12.0492 Y0.7809 Z-0.145
G1 X-12.0489 Y0.7832 Z-0.1435
G1 X-12.0487 Y0.7852 Z-0.1415
G1 X-12.0485 Y0.7867 Z-0.1392
G1 X-12.0484 Y0.7876 Z-0.1365
G1 Y0.7879 Z-0.1338
G0 Z0.2
G0 X-12.0733 Y0.7905
G1 Z-0.0906 F30.
G1 Z-0.1438
G1 Y0.7902 Z-0.1465 F6.1
G1 X-12.0734 Y0.7893 Z-0.1492
G1 X-12.0736 Y0.7878 Z-0.1515
G1 X-12.0738 Y0.7858 Z-0.1535
G1 X-12.074 Y0.7835 Z-0.155
G1 X-12.0743 Y0.7809 Z-0.1559
G1 X-12.0746 Y0.7781 Z-0.1563
G1 X-12.0759 Y0.7657
G3 X-12.0732 Y0.7565 I0.0124 J-0.0013
G3 X-12.0648 Y0.7519 I0.0097 J0.0079
G1 X-12.0432 Y0.7496
G3 X-11.9818 Y0.7818 I0.0066 J0.0621
G2 X-11.9371 Y0.8516 I0.516 J-0.282
G3 X-11.9498 Y0.939 I-0.0501 J0.0374
G3 X-11.9951 Y0.9509 I-0.0374 J-0.0501
G1 X-12.3484 Y0.9059
G3 X-12.4025 Y0.836 I0.0079 J-0.062
G3 X-12.3471 Y0.7818 I0.062 J0.0079
G1 X-12.0648 Y0.7519
G3 X-12.051 Y0.763 I0.0013 J0.0124
G1 X-12.0497 Y0.7755
G1 X-12.0494 Y0.7782 Z-0.1559
G1 X-12.0492 Y0.7809 Z-0.155
G1 X-12.0489 Y0.7832 Z-0.1535
G1 X-12.0487 Y0.7852 Z-0.1515
G1 X-12.0485 Y0.7867 Z-0.1492
G1 X-12.0484 Y0.7876 Z-0.1465
G1 Y0.7879 Z-0.1438
G0 Z0.2
G0 X-11.2902 Y0.4875
G1 Z0.0556 F30.
G1 Z-0.0038
G1 X-11.2899 Z-0.0065 F6.1
G1 X-11.289 Z-0.0092
G1 X-11.2875 Z-0.0115
G1 X-11.2855 Z-0.0135
G1 X-11.2832 Z-0.015
G1 X-11.2805 Z-0.0159
G1 X-11.2777 Z-0.0163
G1 X-11.2652
G3 X-11.2527 Y0.5 I0 J0.0125
G3 X-11.4657 Y0.713 I-0.213 J0
G3 X-11.6787 Y0.5 I0 J-0.213
G3 X-11.4657 Y0.287 I0.213 J0
G3 X-11.2527 Y0.5 I0 J0.213
G3 X-11.2652 Y0.5125 I-0.0125 J0
G1 X-11.2777
G1 X-11.2805 Z-0.0159
G1 X-11.2832 Z-0.015
G1 X-11.2855 Z-0.0135
G1 X-11.2875 Z-0.0115
G1 X-11.289 Z-0.0092
G1 X-11.2899 Z-0.0065
G1 X-11.2902 Z-0.0038
G0 Z0.2
G0 Y0.4875
G1 Z0.0394 F30.
G1 Z-0.02
G1 X-11.2899 Z-0.0228 F6.1
G1 X-11.289 Z-0.0254
G1 X-11.2875 Z-0.0278
G1 X-11.2855 Z-0.0298
G1 X-11.2832 Z-0.0313
G1 X-11.2805 Z-0.0322
G1 X-11.2777 Z-0.0325
G1 X-11.2652
G3 X-11.2527 Y0.5 I0 J0.0125
G3 X-11.4657 Y0.713 I-0.213 J0
G3 X-11.6787 Y0.5 I0 J-0.213
G3 X-11.4657 Y0.287 I0.213 J0
G3 X-11.2527 Y0.5 I0 J0.213
G3 X-11.2652 Y0.5125 I-0.0125 J0
G1 X-11.2777
G1 X-11.2805 Z-0.0322
G1 X-11.2832 Z-0.0313
G1 X-11.2855 Z-0.0298
G1 X-11.2875 Z-0.0278
G1 X-11.289 Z-0.0254
G1 X-11.2899 Z-0.0228
G1 X-11.2902 Z-0.02
G0 Z0.2
G0 Y0.4875
G1 Z0.0231 F30.
G1 Z-0.0363
G1 X-11.2899 Z-0.039 F6.1
G1 X-11.289 Z-0.0417
G1 X-11.2875 Z-0.044
G1 X-11.2855 Z-0.046
G1 X-11.2832 Z-0.0475
G1 X-11.2805 Z-0.0484
G1 X-11.2777 Z-0.0488
G1 X-11.2652
G3 X-11.2527 Y0.5 I0 J0.0125
G3 X-11.4657 Y0.713 I-0.213 J0
G3 X-11.6787 Y0.5 I0 J-0.213
G3 X-11.4657 Y0.287 I0.213 J0
G3 X-11.2527 Y0.5 I0 J0.213
G3 X-11.2652 Y0.5125 I-0.0125 J0
G1 X-11.2777
G1 X-11.2805 Z-0.0484
G1 X-11.2832 Z-0.0475
G1 X-11.2855 Z-0.046
G1 X-11.2875 Z-0.044
G1 X-11.289 Z-0.0417
G1 X-11.2899 Z-0.039
G1 X-11.2902 Z-0.0363
G0 Z0.2
G0 Y0.4875
G1 Z0.0069 F30.
G1 Z-0.0525
G1 X-11.2899 Z-0.0553 F6.1
G1 X-11.289 Z-0.0579
G1 X-11.2875 Z-0.0603
G1 X-11.2855 Z-0.0623
G1 X-11.2832 Z-0.0638
G1 X-11.2805 Z-0.0647
G1 X-11.2777 Z-0.065
G1 X-11.2652
G3 X-11.2527 Y0.5 I0 J0.0125
G3 X-11.4657 Y0.713 I-0.213 J0
G3 X-11.6787 Y0.5 I0 J-0.213
G3 X-11.4657 Y0.287 I0.213 J0
G3 X-11.2527 Y0.5 I0 J0.213
G3 X-11.2652 Y0.5125 I-0.0125 J0
G1 X-11.2777
G1 X-11.2805 Z-0.0647
G1 X-11.2832 Z-0.0638
G1 X-11.2855 Z-0.0623
G1 X-11.2875 Z-0.0603
G1 X-11.289 Z-0.0579
G1 X-11.2899 Z-0.0553
G1 X-11.2902 Z-0.0525
G0 Z0.2
G0 Y0.4875
G1 Z-0.0094 F30.
G1 Z-0.0688
G1 X-11.2899 Z-0.0715 F6.1
G1 X-11.289 Z-0.0742
G1 X-11.2875 Z-0.0765
G1 X-11.2855 Z-0.0785
G1 X-11.2832 Z-0.08
G1 X-11.2805 Z-0.0809
G1 X-11.2777 Z-0.0813
G1 X-11.2652
G3 X-11.2527 Y0.5 I0 J0.0125
G3 X-11.4657 Y0.713 I-0.213 J0
G3 X-11.6787 Y0.5 I0 J-0.213
G3 X-11.4657 Y0.287 I0.213 J0
G3 X-11.2527 Y0.5 I0 J0.213
G3 X-11.2652 Y0.5125 I-0.0125 J0
G1 X-11.2777
G1 X-11.2805 Z-0.0809
G1 X-11.2832 Z-0.08
G1 X-11.2855 Z-0.0785
G1 X-11.2875 Z-0.0765
G1 X-11.289 Z-0.0742
G1 X-11.2899 Z-0.0715
G1 X-11.2902 Z-0.0688
G0 Z0.2
G0 Y0.4875
G1 Z-0.0256 F30.
G1 Z-0.085
G1 X-11.2899 Z-0.0878 F6.1
G1 X-11.289 Z-0.0904
G1 X-11.2875 Z-0.0928
G1 X-11.2855 Z-0.0948
G1 X-11.2832 Z-0.0963
G1 X-11.2805 Z-0.0972
G1 X-11.2777 Z-0.0975
G1 X-11.2652
G3 X-11.2527 Y0.5 I0 J0.0125
G3 X-11.4657 Y0.713 I-0.213 J0
G3 X-11.6787 Y0.5 I0 J-0.213
G3 X-11.4657 Y0.287 I0.213 J0
G3 X-11.2527 Y0.5 I0 J0.213
G3 X-11.2652 Y0.5125 I-0.0125 J0
G1 X-11.2777
G1 X-11.2805 Z-0.0972
G1 X-11.2832 Z-0.0963
G1 X-11.2855 Z-0.0948
G1 X-11.2875 Z-0.0928
G1 X-11.289 Z-0.0904
G1 X-11.2899 Z-0.0878
G1 X-11.2902 Z-0.085
G0 Z0.2
G0 Y0.4875
G1 Z-0.0419 F30.
G1 Z-0.1013
G1 X-11.2899 Z-0.104 F6.1
G1 X-11.289 Z-0.1067
G1 X-11.2875 Z-0.109
G1 X-11.2855 Z-0.111
G1 X-11.2832 Z-0.1125
G1 X-11.2805 Z-0.1134
G1 X-11.2777 Z-0.1138
G1 X-11.2652
G3 X-11.2527 Y0.5 I0 J0.0125
G3 X-11.4657 Y0.713 I-0.213 J0
G3 X-11.6787 Y0.5 I0 J-0.213
G3 X-11.4657 Y0.287 I0.213 J0
G3 X-11.2527 Y0.5 I0 J0.213
G3 X-11.2652 Y0.5125 I-0.0125 J0
G1 X-11.2777
G1 X-11.2805 Z-0.1134
G1 X-11.2832 Z-0.1125
G1 X-11.2855 Z-0.111
G1 X-11.2875 Z-0.109
G1 X-11.289 Z-0.1067
G1 X-11.2899 Z-0.104
G1 X-11.2902 Z-0.1013
G0 Z0.2
G0 Y0.4875
G1 Z-0.0581 F30.
G1 Z-0.1175
G1 X-11.2899 Z-0.1203 F6.1
G1 X-11.289 Z-0.1229
G1 X-11.2875 Z-0.1253
G1 X-11.2855 Z-0.1273
G1 X-11.2832 Z-0.1288
G1 X-11.2805 Z-0.1297
G1 X-11.2777 Z-0.13
G1 X-11.2652
G3 X-11.2527 Y0.5 I0 J0.0125
G3 X-11.4657 Y0.713 I-0.213 J0
G3 X-11.6787 Y0.5 I0 J-0.213
G3 X-11.4657 Y0.287 I0.213 J0
G3 X-11.2527 Y0.5 I0 J0.213
G3 X-11.2652 Y0.5125 I-0.0125 J0
G1 X-11.2777
G1 X-11.2805 Z-0.1297
G1 X-11.2832 Z-0.1288
G1 X-11.2855 Z-0.1273
G1 X-11.2875 Z-0.1253
G1 X-11.289 Z-0.1229
G1 X-11.2899 Z-0.1203
G1 X-11.2902 Z-0.1175
G0 Z0.2
G0 Y0.4875
G1 Z-0.0744 F30.
G1 Z-0.1338
G1 X-11.2899 Z-0.1365 F6.1
G1 X-11.289 Z-0.1392
G1 X-11.2875 Z-0.1415
G1 X-11.2855 Z-0.1435
G1 X-11.2832 Z-0.145
G1 X-11.2805 Z-0.1459
G1 X-11.2777 Z-0.1463
G1 X-11.2652
G3 X-11.2527 Y0.5 I0 J0.0125
G3 X-11.4657 Y0.713 I-0.213 J0
G3 X-11.6787 Y0.5 I0 J-0.213
G3 X-11.4657 Y0.287 I0.213 J0
G3 X-11.2527 Y0.5 I0 J0.213
G3 X-11.2652 Y0.5125 I-0.0125 J0
G1 X-11.2777
G1 X-11.2805 Z-0.1459
G1 X-11.2832 Z-0.145
G1 X-11.2855 Z-0.1435
G1 X-11.2875 Z-0.1415
G1 X-11.289 Z-0.1392
G1 X-11.2899 Z-0.1365
G1 X-11.2902 Z-0.1338
G0 Z0.2
G0 Y0.4875
G1 Z-0.0906 F30.
G1 Z-0.1438
G1 X-11.2899 Z-0.1465 F6.1
G1 X-11.289 Z-0.1492
G1 X-11.2875 Z-0.1515
G1 X-11.2855 Z-0.1535
G1 X-11.2832 Z-0.155
G1 X-11.2805 Z-0.1559
G1 X-11.2777 Z-0.1563
G1 X-11.2652
G3 X-11.2527 Y0.5 I0 J0.0125
G3 X-11.4657 Y0.713 I-0.213 J0
G3 X-11.6787 Y0.5 I0 J-0.213
G3 X-11.4657 Y0.287 I0.213 J0
G3 X-11.2527 Y0.5 I0 J0.213
G3 X-11.2652 Y0.5125 I-0.0125 J0
G1 X-11.2777
G1 X-11.2805 Z-0.1559
G1 X-11.2832 Z-0.155
G1 X-11.2855 Z-0.1535
G1 X-11.2875 Z-0.1515
G1 X-11.289 Z-0.1492
G1 X-11.2899 Z-0.1465
G1 X-11.2902 Z-0.1438
G0 Z0.2
G0 X-10.8972 Y0.8588
G1 Z0.0556 F30.
G1 Z-0.0038
G1 X-10.8971 Y0.8585 Z-0.0065 F6.1
G1 X-10.8969 Y0.8576 Z-0.0092
G1 X-10.8966 Y0.8562 Z-0.0115
G1 X-10.8961 Y0.8543 Z-0.0135
G1 X-10.8956 Y0.8519 Z-0.015
G1 X-10.895 Y0.8494 Z-0.0159
G1 X-10.8944 Y0.8466 Z-0.0163
G1 X-10.8917 Y0.8345
G3 X-10.8767 Y0.825 I0.0122 J0.0027
G1 X-9.4239 Y1.1526
G3 X-9.3767 Y1.2273 I-0.0137 J0.061
G3 X-9.4455 Y1.2755 I-0.061 J-0.0137
G1 X-11.0663 Y1.0692
G3 X-11.1204 Y0.9993 I0.0079 J-0.062
G3 X-11.0976 Y0.9585 I0.062 J0.0079
G2 X-10.9859 Y0.8398 I-0.3682 J-0.4584
G3 X-10.9212 Y0.815 I0.051 J0.0361
G1 X-10.8767 Y0.825
G3 X-10.8689 Y0.8305 I-0.0027 J0.0122
G3 X-10.8673 Y0.84 I-0.0106 J0.0067
G1 X-10.87 Y0.8521
G1 X-10.8707 Y0.8549 Z-0.0159
G1 X-10.8712 Y0.8574 Z-0.015
G1 X-10.8718 Y0.8598 Z-0.0135
G1 X-10.8722 Y0.8617 Z-0.0115
G1 X-10.8725 Y0.8631 Z-0.0092
G1 X-10.8727 Y0.864 Z-0.0065
G1 X-10.8728 Y0.8643 Z-0.0038
G0 Z0.2
G0 X-10.8972 Y0.8588
G1 Z0.0394 F30.
G1 Z-0.02
G1 X-10.8971 Y0.8585 Z-0.0228 F6.1
G1 X-10.8969 Y0.8576 Z-0.0254
G1 X-10.8966 Y0.8562 Z-0.0278
G1 X-10.8961 Y0.8543 Z-0.0298
G1 X-10.8956 Y0.8519 Z-0.0313
G1 X-10.895 Y0.8494 Z-0.0322
G1 X-10.8944 Y0.8466 Z-0.0325
G1 X-10.8917 Y0.8345
G3 X-10.8767 Y0.825 I0.0122 J0.0027
G1 X-9.4239 Y1.1526
G3 X-9.3767 Y1.2273 I-0.0137 J0.061
G3 X-9.4455 Y1.2755 I-0.061 J-0.0137
G1 X-11.0663 Y1.0692
G3 X-11.1204 Y0.9993 I0.0079 J-0.062
G3 X-11.0976 Y0.9585 I0.062 J0.0079
G2 X-10.9859 Y0.8398 I-0.3682 J-0.4584
G3 X-10.9212 Y0.815 I0.051 J0.0361
G1 X-10.8767 Y0.825
G3 X-10.8689 Y0.8305 I-0.0027 J0.0122
G3 X-10.8673 Y0.84 I-0.0106 J0.0067
G1 X-10.87 Y0.8521
G1 X-10.8707 Y0.8549 Z-0.0322
G1 X-10.8712 Y0.8574 Z-0.0313
G1 X-10.8718 Y0.8598 Z-0.0298
G1 X-10.8722 Y0.8617 Z-0.0278
G1 X-10.8725 Y0.8631 Z-0.0254
G1 X-10.8727 Y0.864 Z-0.0228
G1 X-10.8728 Y0.8643 Z-0.02
G0 Z0.2
G0 X-10.8972 Y0.8588
G1 Z0.0231 F30.
G1 Z-0.0363
G1 X-10.8971 Y0.8585 Z-0.039 F6.1
G1 X-10.8969 Y0.8576 Z-0.0417
G1 X-10.8966 Y0.8562 Z-0.044
G1 X-10.8961 Y0.8543 Z-0.046
G1 X-10.8956 Y0.8519 Z-0.0475
G1 X-10.895 Y0.8494 Z-0.0484
G1 X-10.8944 Y0.8466 Z-0.0488
G1 X-10.8917 Y0.8345
G3 X-10.8767 Y0.825 I0.0122 J0.0027
G1 X-9.4239 Y1.1526
G3 X-9.3767 Y1.2273 I-0.0137 J0.061
G3 X-9.4455 Y1.2755 I-0.061 J-0.0137
G1 X-11.0663 Y1.0692
G3 X-11.1204 Y0.9993 I0.0079 J-0.062
G3 X-11.0976 Y0.9585 I0.062 J0.0079
G2 X-10.9859 Y0.8398 I-0.3682 J-0.4584
G3 X-10.9212 Y0.815 I0.051 J0.0361
G1 X-10.8767 Y0.825
G3 X-10.8689 Y0.8305 I-0.0027 J0.0122
G3 X-10.8673 Y0.84 I-0.0106 J0.0067
G1 X-10.87 Y0.8521
G1 X-10.8707 Y0.8549 Z-0.0484
G1 X-10.8712 Y0.8574 Z-0.0475
G1 X-10.8718 Y0.8598 Z-0.046
G1 X-10.8722 Y0.8617 Z-0.044
G1 X-10.8725 Y0.8631 Z-0.0417
G1 X-10.8727 Y0.864 Z-0.039
G1 X-10.8728 Y0.8643 Z-0.0363
G0 Z0.2
G0 X-10.8972 Y0.8588
G1 Z0.0069 F30.
G1 Z-0.0525
G1 X-10.8971 Y0.8585 Z-0.0553 F6.1
G1 X-10.8969 Y0.8576 Z-0.0579
G1 X-10.8966 Y0.8562 Z-0.0603
G1 X-10.8961 Y0.8543 Z-0.0623
G1 X-10.8956 Y0.8519 Z-0.0638
G1 X-10.895 Y0.8494 Z-0.0647
G1 X-10.8944 Y0.8466 Z-0.065
G1 X-10.8917 Y0.8345
G3 X-10.8767 Y0.825 I0.0122 J0.0027
G1 X-9.4239 Y1.1526
G3 X-9.3767 Y1.2273 I-0.0137 J0.061
G3 X-9.4455 Y1.2755 I-0.061 J-0.0137
G1 X-11.0663 Y1.0692
G3 X-11.1204 Y0.9993 I0.0079 J-0.062
G3 X-11.0976 Y0.9585 I0.062 J0.0079
G2 X-10.9859 Y0.8398 I-0.3682 J-0.4584
G3 X-10.9212 Y0.815 I0.051 J0.0361
G1 X-10.8767 Y0.825
G3 X-10.8689 Y0.8305 I-0.0027 J0.0122
G3 X-10.8673 Y0.84 I-0.0106 J0.0067
G1 X-10.87 Y0.8521
G1 X-10.8707 Y0.8549 Z-0.0647
G1 X-10.8712 Y0.8574 Z-0.0638
G1 X-10.8718 Y0.8598 Z-0.0623
G1 X-10.8722 Y0.8617 Z-0.0603
G1 X-10.8725 Y0.8631 Z-0.0579
G1 X-10.8727 Y0.864 Z-0.0553
G1 X-10.8728 Y0.8643 Z-0.0525
G0 Z0.2
G0 X-10.8972 Y0.8588
G1 Z-0.0094 F30.
G1 Z-0.0688
G1 X-10.8971 Y0.8585 Z-0.0715 F6.1
G1 X-10.8969 Y0.8576 Z-0.0742
G1 X-10.8966 Y0.8562 Z-0.0765
G1 X-10.8961 Y0.8543 Z-0.0785
G1 X-10.8956 Y0.8519 Z-0.08
G1 X-10.895 Y0.8494 Z-0.0809
G1 X-10.8944 Y0.8466 Z-0.0813
G1 X-10.8917 Y0.8345
G3 X-10.8767 Y0.825 I0.0122 J0.0027
G1 X-9.4239 Y1.1526
G3 X-9.3767 Y1.2273 I-0.0137 J0.061
G3 X-9.4455 Y1.2755 I-0.061 J-0.0137
G1 X-11.0663 Y1.0692
G3 X-11.1204 Y0.9993 I0.0079 J-0.062
G3 X-11.0976 Y0.9585 I0.062 J0.0079
G2 X-10.9859 Y0.8398 I-0.3682 J-0.4584
G3 X-10.9212 Y0.815 I0.051 J0.0361
G1 X-10.8767 Y0.825
G3 X-10.8689 Y0.8305 I-0.0027 J0.0122
G3 X-10.8673 Y0.84 I-0.0106 J0.0067
G1 X-10.87 Y0.8521
G1 X-10.8707 Y0.8549 Z-0.0809
G1 X-10.8712 Y0.8574 Z-0.08
G1 X-10.8718 Y0.8598 Z-0.0785
G1 X-10.8722 Y0.8617 Z-0.0765
G1 X-10.8725 Y0.8631 Z-0.0742
G1 X-10.8727 Y0.864 Z-0.0715
G1 X-10.8728 Y0.8643 Z-0.0688
G0 Z0.2
G0 X-10.8972 Y0.8588
G1 Z-0.0256 F30.
G1 Z-0.085
G1 X-10.8971 Y0.8585 Z-0.0878 F6.1
G1 X-10.8969 Y0.8576 Z-0.0904
G1 X-10.8966 Y0.8562 Z-0.0928
G1 X-10.8961 Y0.8543 Z-0.0948
G1 X-10.8956 Y0.8519 Z-0.0963
G1 X-10.895 Y0.8494 Z-0.0972
G1 X-10.8944 Y0.8466 Z-0.0975
G1 X-10.8917 Y0.8345
G3 X-10.8767 Y0.825 I0.0122 J0.0027
G1 X-9.4239 Y1.1526
G3 X-9.3767 Y1.2273 I-0.0137 J0.061
G3 X-9.4455 Y1.2755 I-0.061 J-0.0137
G1 X-11.0663 Y1.0692
G3 X-11.1204 Y0.9993 I0.0079 J-0.062
G3 X-11.0976 Y0.9585 I0.062 J0.0079
G2 X-10.9859 Y0.8398 I-0.3682 J-0.4584
G3 X-10.9212 Y0.815 I0.051 J0.0361
G1 X-10.8767 Y0.825
G3 X-10.8689 Y0.8305 I-0.0027 J0.0122
G3 X-10.8673 Y0.84 I-0.0106 J0.0067
G1 X-10.87 Y0.8521
G1 X-10.8707 Y0.8549 Z-0.0972
G1 X-10.8712 Y0.8574 Z-0.0963
G1 X-10.8718 Y0.8598 Z-0.0948
G1 X-10.8722 Y0.8617 Z-0.0928
G1 X-10.8725 Y0.8631 Z-0.0904
G1 X-10.8727 Y0.864 Z-0.0878
G1 X-10.8728 Y0.8643 Z-0.085
G0 Z0.2
G0 X-10.8972 Y0.8588
G1 Z-0.0419 F30.
G1 Z-0.1013
G1 X-10.8971 Y0.8585 Z-0.104 F6.1
G1 X-10.8969 Y0.8576 Z-0.1067
G1 X-10.8966 Y0.8562 Z-0.109
G1 X-10.8961 Y0.8543 Z-0.111
G1 X-10.8956 Y0.8519 Z-0.1125
G1 X-10.895 Y0.8494 Z-0.1134
G1 X-10.8944 Y0.8466 Z-0.1138
G1 X-10.8917 Y0.8345
G3 X-10.8767 Y0.825 I0.0122 J0.0027
G1 X-9.4239 Y1.1526
G3 X-9.3767 Y1.2273 I-0.0137 J0.061
G3 X-9.4455 Y1.2755 I-0.061 J-0.0137
G1 X-11.0663 Y1.0692
G3 X-11.1204 Y0.9993 I0.0079 J-0.062
G3 X-11.0976 Y0.9585 I0.062 J0.0079
G2 X-10.9859 Y0.8398 I-0.3682 J-0.4584
G3 X-10.9212 Y0.815 I0.051 J0.0361
G1 X-10.8767 Y0.825
G3 X-10.8689 Y0.8305 I-0.0027 J0.0122
G3 X-10.8673 Y0.84 I-0.0106 J0.0067
G1 X-10.87 Y0.8521
G1 X-10.8707 Y0.8549 Z-0.1134
G1 X-10.8712 Y0.8574 Z-0.1125
G1 X-10.8718 Y0.8598 Z-0.111
G1 X-10.8722 Y0.8617 Z-0.109
G1 X-10.8725 Y0.8631 Z-0.1067
G1 X-10.8727 Y0.864 Z-0.104
G1 X-10.8728 Y0.8643 Z-0.1013
G0 Z0.2
G0 X-10.8972 Y0.8588
G1 Z-0.0581 F30.
G1 Z-0.1175
G1 X-10.8971 Y0.8585 Z-0.1203 F6.1
G1 X-10.8969 Y0.8576 Z-0.1229
G1 X-10.8966 Y0.8562 Z-0.1253
G1 X-10.8961 Y0.8543 Z-0.1273
G1 X-10.8956 Y0.8519 Z-0.1288
G1 X-10.895 Y0.8494 Z-0.1297
G1 X-10.8944 Y0.8466 Z-0.13
G1 X-10.8917 Y0.8345
G3 X-10.8767 Y0.825 I0.0122 J0.0027
G1 X-9.4239 Y1.1526
G3 X-9.3767 Y1.2273 I-0.0137 J0.061
G3 X-9.4455 Y1.2755 I-0.061 J-0.0137
G1 X-11.0663 Y1.0692
G3 X-11.1204 Y0.9993 I0.0079 J-0.062
G3 X-11.0976 Y0.9585 I0.062 J0.0079
G2 X-10.9859 Y0.8398 I-0.3682 J-0.4584
G3 X-10.9212 Y0.815 I0.051 J0.0361
G1 X-10.8767 Y0.825
G3 X-10.8689 Y0.8305 I-0.0027 J0.0122
G3 X-10.8673 Y0.84 I-0.0106 J0.0067
G1 X-10.87 Y0.8521
G1 X-10.8707 Y0.8549 Z-0.1297
G1 X-10.8712 Y0.8574 Z-0.1288
G1 X-10.8718 Y0.8598 Z-0.1273
G1 X-10.8722 Y0.8617 Z-0.1253
G1 X-10.8725 Y0.8631 Z-0.1229
G1 X-10.8727 Y0.864 Z-0.1203
G1 X-10.8728 Y0.8643 Z-0.1175
G0 Z0.2
G0 X-10.8972 Y0.8588
G1 Z-0.0744 F30.
G1 Z-0.1338
G1 X-10.8971 Y0.8585 Z-0.1365 F6.1
G1 X-10.8969 Y0.8576 Z-0.1392
G1 X-10.8966 Y0.8562 Z-0.1415
G1 X-10.8961 Y0.8543 Z-0.1435
G1 X-10.8956 Y0.8519 Z-0.145
G1 X-10.895 Y0.8494 Z-0.1459
G1 X-10.8944 Y0.8466 Z-0.1463
G1 X-10.8917 Y0.8345
G3 X-10.8767 Y0.825 I0.0122 J0.0027
G1 X-9.4239 Y1.1526
G3 X-9.3767 Y1.2273 I-0.0137 J0.061
G3 X-9.4455 Y1.2755 I-0.061 J-0.0137
G1 X-11.0663 Y1.0692
G3 X-11.1204 Y0.9993 I0.0079 J-0.062
G3 X-11.0976 Y0.9585 I0.062 J0.0079
G2 X-10.9859 Y0.8398 I-0.3682 J-0.4584
G3 X-10.9212 Y0.815 I0.051 J0.0361
G1 X-10.8767 Y0.825
G3 X-10.8689 Y0.8305 I-0.0027 J0.0122
G3 X-10.8673 Y0.84 I-0.0106 J0.0067
G1 X-10.87 Y0.8521
G1 X-10.8707 Y0.8549 Z-0.1459
G1 X-10.8712 Y0.8574 Z-0.145
G1 X-10.8718 Y0.8598 Z-0.1435
G1 X-10.8722 Y0.8617 Z-0.1415
G1 X-10.8725 Y0.8631 Z-0.1392
G1 X-10.8727 Y0.864 Z-0.1365
G1 X-10.8728 Y0.8643 Z-0.1338
G0 Z0.2
G0 X-10.8972 Y0.8588
G1 Z-0.0906 F30.
G1 Z-0.1438
G1 X-10.8971 Y0.8585 Z-0.1465 F6.1
G1 X-10.8969 Y0.8576 Z-0.1492
G1 X-10.8966 Y0.8562 Z-0.1515
G1 X-10.8961 Y0.8543 Z-0.1535
G1 X-10.8956 Y0.8519 Z-0.155
G1 X-10.895 Y0.8494 Z-0.1559
G1 X-10.8944 Y0.8466 Z-0.1563
G1 X-10.8917 Y0.8345
G3 X-10.8767 Y0.825 I0.0122 J0.0027
G1 X-9.4239 Y1.1526
G3 X-9.3767 Y1.2273 I-0.0137 J0.061
G3 X-9.4455 Y1.2755 I-0.061 J-0.0137
G1 X-11.0663 Y1.0692
G3 X-11.1204 Y0.9993 I0.0079 J-0.062
G3 X-11.0976 Y0.9585 I0.062 J0.0079
G2 X-10.9859 Y0.8398 I-0.3682 J-0.4584
G3 X-10.9212 Y0.815 I0.051 J0.0361
G1 X-10.8767 Y0.825
G3 X-10.8689 Y0.8305 I-0.0027 J0.0122
G3 X-10.8673 Y0.84 I-0.0106 J0.0067
G1 X-10.87 Y0.8521
G1 X-10.8707 Y0.8549 Z-0.1559
G1 X-10.8712 Y0.8574 Z-0.155
G1 X-10.8718 Y0.8598 Z-0.1535
G1 X-10.8722 Y0.8617 Z-0.1515
G1 X-10.8725 Y0.8631 Z-0.1492
G1 X-10.8727 Y0.864 Z-0.1465
G1 X-10.8728 Y0.8643 Z-0.1438
G0 Z0.2
G0 X-14.029 Y0.8085
G1 Z0.0556 F30.
G1 Z-0.0038
G1 X-14.0287 Z-0.0065 F6.1
G1 X-14.0278 Z-0.0092
G1 X-14.0263 Z-0.0115
G1 X-14.0243 Z-0.0135
G1 X-14.0219 Z-0.015
G1 X-14.0193 Z-0.0159
G1 X-14.0165 Z-0.0163
G1 X-14.004
G3 X-13.9915 Y0.821 I0 J0.0125
G3 X-14.5 Y1.3295 I-0.5085 J0
G3 X-15.0085 Y0.821 I0 J-0.5085
G3 X-14.5 Y0.3125 I0.5085 J0
G3 X-13.9915 Y0.821 I0 J0.5085
G3 X-14.004 Y0.8335 I-0.0125 J0
G1 X-14.0165
G1 X-14.0193 Z-0.0159
G1 X-14.0219 Z-0.015
G1 X-14.0243 Z-0.0135
G1 X-14.0263 Z-0.0115
G1 X-14.0278 Z-0.0092
G1 X-14.0287 Z-0.0065
G1 X-14.029 Z-0.0038
G0 Z0.2
G0 Y0.8085
G1 Z0.0394 F30.
G1 Z-0.02
G1 X-14.0287 Z-0.0228 F6.1
G1 X-14.0278 Z-0.0254
G1 X-14.0263 Z-0.0278
G1 X-14.0243 Z-0.0298
G1 X-14.0219 Z-0.0313
G1 X-14.0193 Z-0.0322
G1 X-14.0165 Z-0.0325
G1 X-14.004
G3 X-13.9915 Y0.821 I0 J0.0125
G3 X-14.5 Y1.3295 I-0.5085 J0
G3 X-15.0085 Y0.821 I0 J-0.5085
G3 X-14.5 Y0.3125 I0.5085 J0
G3 X-13.9915 Y0.821 I0 J0.5085
G3 X-14.004 Y0.8335 I-0.0125 J0
G1 X-14.0165
G1 X-14.0193 Z-0.0322
G1 X-14.0219 Z-0.0313
G1 X-14.0243 Z-0.0298
G1 X-14.0263 Z-0.0278
G1 X-14.0278 Z-0.0254
G1 X-14.0287 Z-0.0228
G1 X-14.029 Z-0.02
G0 Z0.2
G0 Y0.8085
G1 Z0.0231 F30.
G1 Z-0.0363
G1 X-14.0287 Z-0.039 F6.1
G1 X-14.0278 Z-0.0417
G1 X-14.0263 Z-0.044
G1 X-14.0243 Z-0.046
G1 X-14.0219 Z-0.0475
G1 X-14.0193 Z-0.0484
G1 X-14.0165 Z-0.0488
G1 X-14.004
G3 X-13.9915 Y0.821 I0 J0.0125
G3 X-14.5 Y1.3295 I-0.5085 J0
G3 X-15.0085 Y0.821 I0 J-0.5085
G3 X-14.5 Y0.3125 I0.5085 J0
G3 X-13.9915 Y0.821 I0 J0.5085
G3 X-14.004 Y0.8335 I-0.0125 J0
G1 X-14.0165
G1 X-14.0193 Z-0.0484
G1 X-14.0219 Z-0.0475
G1 X-14.0243 Z-0.046
G1 X-14.0263 Z-0.044
G1 X-14.0278 Z-0.0417
G1 X-14.0287 Z-0.039
G1 X-14.029 Z-0.0363
G0 Z0.2
G0 Y0.8085
G1 Z0.0069 F30.
G1 Z-0.0525
G1 X-14.0287 Z-0.0553 F6.1
G1 X-14.0278 Z-0.0579
G1 X-14.0263 Z-0.0603
G1 X-14.0243 Z-0.0623
G1 X-14.0219 Z-0.0638
G1 X-14.0193 Z-0.0647
G1 X-14.0165 Z-0.065
G1 X-14.004
G3 X-13.9915 Y0.821 I0 J0.0125
G3 X-14.5 Y1.3295 I-0.5085 J0
G3 X-15.0085 Y0.821 I0 J-0.5085
G3 X-14.5 Y0.3125 I0.5085 J0
G3 X-13.9915 Y0.821 I0 J0.5085
G3 X-14.004 Y0.8335 I-0.0125 J0
G1 X-14.0165
G1 X-14.0193 Z-0.0647
G1 X-14.0219 Z-0.0638
G1 X-14.0243 Z-0.0623
G1 X-14.0263 Z-0.0603
G1 X-14.0278 Z-0.0579
G1 X-14.0287 Z-0.0553
G1 X-14.029 Z-0.0525
G0 Z0.2
G0 Y0.8085
G1 Z-0.0094 F30.
G1 Z-0.0688
G1 X-14.0287 Z-0.0715 F6.1
G1 X-14.0278 Z-0.0742
G1 X-14.0263 Z-0.0765
G1 X-14.0243 Z-0.0785
G1 X-14.0219 Z-0.08
G1 X-14.0193 Z-0.0809
G1 X-14.0165 Z-0.0813
G1 X-14.004
G3 X-13.9915 Y0.821 I0 J0.0125
G3 X-14.5 Y1.3295 I-0.5085 J0
G3 X-15.0085 Y0.821 I0 J-0.5085
G3 X-14.5 Y0.3125 I0.5085 J0
G3 X-13.9915 Y0.821 I0 J0.5085
G3 X-14.004 Y0.8335 I-0.0125 J0
G1 X-14.0165
G1 X-14.0193 Z-0.0809
G1 X-14.0219 Z-0.08
G1 X-14.0243 Z-0.0785
G1 X-14.0263 Z-0.0765
G1 X-14.0278 Z-0.0742
G1 X-14.0287 Z-0.0715
G1 X-14.029 Z-0.0688
G0 Z0.2
G0 Y0.8085
G1 Z-0.0256 F30.
G1 Z-0.085
G1 X-14.0287 Z-0.0878 F6.1
G1 X-14.0278 Z-0.0904
G1 X-14.0263 Z-0.0928
G1 X-14.0243 Z-0.0948
G1 X-14.0219 Z-0.0963
G1 X-14.0193 Z-0.0972
G1 X-14.0165 Z-0.0975
G1 X-14.004
G3 X-13.9915 Y0.821 I0 J0.0125
G3 X-14.5 Y1.3295 I-0.5085 J0
G3 X-15.0085 Y0.821 I0 J-0.5085
G3 X-14.5 Y0.3125 I0.5085 J0
G3 X-13.9915 Y0.821 I0 J0.5085
G3 X-14.004 Y0.8335 I-0.0125 J0
G1 X-14.0165
G1 X-14.0193 Z-0.0972
G1 X-14.0219 Z-0.0963
G1 X-14.0243 Z-0.0948
G1 X-14.0263 Z-0.0928
G1 X-14.0278 Z-0.0904
G1 X-14.0287 Z-0.0878
G1 X-14.029 Z-0.085
G0 Z0.2
G0 Y0.8085
G1 Z-0.0419 F30.
G1 Z-0.1013
G1 X-14.0287 Z-0.104 F6.1
G1 X-14.0278 Z-0.1067
G1 X-14.0263 Z-0.109
G1 X-14.0243 Z-0.111
G1 X-14.0219 Z-0.1125
G1 X-14.0193 Z-0.1134
G1 X-14.0165 Z-0.1138
G1 X-14.004
G3 X-13.9915 Y0.821 I0 J0.0125
G3 X-14.5 Y1.3295 I-0.5085 J0
G3 X-15.0085 Y0.821 I0 J-0.5085
G3 X-14.5 Y0.3125 I0.5085 J0
G3 X-13.9915 Y0.821 I0 J0.5085
G3 X-14.004 Y0.8335 I-0.0125 J0
G1 X-14.0165
G1 X-14.0193 Z-0.1134
G1 X-14.0219 Z-0.1125
G1 X-14.0243 Z-0.111
G1 X-14.0263 Z-0.109
G1 X-14.0278 Z-0.1067
G1 X-14.0287 Z-0.104
G1 X-14.029 Z-0.1013
G0 Z0.2
G0 Y0.8085
G1 Z-0.0581 F30.
G1 Z-0.1175
G1 X-14.0287 Z-0.1203 F6.1
G1 X-14.0278 Z-0.1229
G1 X-14.0263 Z-0.1253
G1 X-14.0243 Z-0.1273
G1 X-14.0219 Z-0.1288
G1 X-14.0193 Z-0.1297
G1 X-14.0165 Z-0.13
G1 X-14.004
G3 X-13.9915 Y0.821 I0 J0.0125
G3 X-14.5 Y1.3295 I-0.5085 J0
G3 X-15.0085 Y0.821 I0 J-0.5085
G3 X-14.5 Y0.3125 I0.5085 J0
G3 X-13.9915 Y0.821 I0 J0.5085
G3 X-14.004 Y0.8335 I-0.0125 J0
G1 X-14.0165
G1 X-14.0193 Z-0.1297
G1 X-14.0219 Z-0.1288
G1 X-14.0243 Z-0.1273
G1 X-14.0263 Z-0.1253
G1 X-14.0278 Z-0.1229
G1 X-14.0287 Z-0.1203
G1 X-14.029 Z-0.1175
G0 Z0.2
G0 Y0.8085
G1 Z-0.0744 F30.
G1 Z-0.1338
G1 X-14.0287 Z-0.1365 F6.1
G1 X-14.0278 Z-0.1392
G1 X-14.0263 Z-0.1415
G1 X-14.0243 Z-0.1435
G1 X-14.0219 Z-0.145
G1 X-14.0193 Z-0.1459
G1 X-14.0165 Z-0.1463
G1 X-14.004
G3 X-13.9915 Y0.821 I0 J0.0125
G3 X-14.5 Y1.3295 I-0.5085 J0
G3 X-15.0085 Y0.821 I0 J-0.5085
G3 X-14.5 Y0.3125 I0.5085 J0
G3 X-13.9915 Y0.821 I0 J0.5085
G3 X-14.004 Y0.8335 I-0.0125 J0
G1 X-14.0165
G1 X-14.0193 Z-0.1459
G1 X-14.0219 Z-0.145
G1 X-14.0243 Z-0.1435
G1 X-14.0263 Z-0.1415
G1 X-14.0278 Z-0.1392
G1 X-14.0287 Z-0.1365
G1 X-14.029 Z-0.1338
G0 Z0.2
G0 Y0.8085
G1 Z-0.0906 F30.
G1 Z-0.1438
G1 X-14.0287 Z-0.1465 F6.1
G1 X-14.0278 Z-0.1492
G1 X-14.0263 Z-0.1515
G1 X-14.0243 Z-0.1535
G1 X-14.0219 Z-0.155
G1 X-14.0193 Z-0.1559
G1 X-14.0165 Z-0.1563
G1 X-14.004
G3 X-13.9915 Y0.821 I0 J0.0125
G3 X-14.5 Y1.3295 I-0.5085 J0
G3 X-15.0085 Y0.821 I0 J-0.5085
G3 X-14.5 Y0.3125 I0.5085 J0
G3 X-13.9915 Y0.821 I0 J0.5085
G3 X-14.004 Y0.8335 I-0.0125 J0
G1 X-14.0165
G1 X-14.0193 Z-0.1559
G1 X-14.0219 Z-0.155
G1 X-14.0243 Z-0.1535
G1 X-14.0263 Z-0.1515
G1 X-14.0278 Z-0.1492
G1 X-14.0287 Z-0.1465
G1 X-14.029 Z-0.1438
G0 Z0.6

M5
M30
