(1001)
(T1  D=0.125 CR=0 - ZMIN=-0.1563 - FLAT END MILL)
G0 G40 G90 G17
G20

(2D CONTOUR3)
T1 M6
M3 S2440
G0 X8.403 Y1.3994
G0 Z0.6
G0 Z0.2
G1 Z0.0556 F30.
G1 Z-0.0038
G1 Y1.3998 Z-0.0065 F6.1
G1 X8.4031 Y1.4007 Z-0.0092
G1 X8.4033 Y1.4022 Z-0.0115
G1 X8.4036 Y1.4041 Z-0.0135
G1 X8.4038 Y1.4065 Z-0.015
G1 X8.4042 Y1.4091 Z-0.0159
G1 X8.4045 Y1.4119 Z-0.0163
G1 X8.406 Y1.4243
G3 X8.3951 Y1.4382 I-0.0124 J0.0015
G1 X6.063 Y1.7189
G3 X5.9934 Y1.6644 I-0.0075 J-0.0621
G3 X6.0317 Y1.5991 I0.0621 J-0.0075
G1 X8.5198 Y0.5767
G3 X8.5943 Y0.5981 I0.0237 J0.0578
G2 X8.8599 Y0.855 I0.8355 J-0.5981
G3 X8.8773 Y0.9416 I-0.0347 J0.052
G3 X8.8698 Y0.9508 I-0.052 J-0.0347
G2 X8.6563 Y1.3623 I0.56 J0.5516
G3 X8.6023 Y1.4132 I-0.0615 J-0.0111
G1 X8.3951 Y1.4382
G3 X8.3812 Y1.4273 I-0.0015 J-0.0124
G1 X8.3797 Y1.4148
G1 X8.3793 Y1.4121 Z-0.0159
G1 X8.379 Y1.4095 Z-0.015
G1 X8.3787 Y1.4071 Z-0.0135
G1 X8.3785 Y1.4051 Z-0.0115
G1 X8.3783 Y1.4037 Z-0.0092
G1 X8.3782 Y1.4027 Z-0.0065
G1 Y1.4024 Z-0.0038
G0 Z0.2
G0 X8.403 Y1.3994
G1 Z0.0394 F30.
G1 Z-0.02
G1 Y1.3998 Z-0.0228 F6.1
G1 X8.4031 Y1.4007 Z-0.0254
G1 X8.4033 Y1.4022 Z-0.0278
G1 X8.4036 Y1.4041 Z-0.0298
G1 X8.4038 Y1.4065 Z-0.0313
G1 X8.4042 Y1.4091 Z-0.0322
G1 X8.4045 Y1.4119 Z-0.0325
G1 X8.406 Y1.4243
G3 X8.3951 Y1.4382 I-0.0124 J0.0015
G1 X6.063 Y1.7189
G3 X5.9934 Y1.6644 I-0.0075 J-0.0621
G3 X6.0317 Y1.5991 I0.0621 J-0.0075
G1 X8.5198 Y0.5767
G3 X8.5943 Y0.5981 I0.0237 J0.0578
G2 X8.8599 Y0.855 I0.8355 J-0.5981
G3 X8.8773 Y0.9416 I-0.0347 J0.052
G3 X8.8698 Y0.9508 I-0.052 J-0.0347
G2 X8.6563 Y1.3623 I0.56 J0.5516
G3 X8.6023 Y1.4132 I-0.0615 J-0.0111
G1 X8.3951 Y1.4382
G3 X8.3812 Y1.4273 I-0.0015 J-0.0124
G1 X8.3797 Y1.4148
G1 X8.3793 Y1.4121 Z-0.0322
G1 X8.379 Y1.4095 Z-0.0313
G1 X8.3787 Y1.4071 Z-0.0298
G1 X8.3785 Y1.4051 Z-0.0278
G1 X8.3783 Y1.4037 Z-0.0254
G1 X8.3782 Y1.4027 Z-0.0228
G1 Y1.4024 Z-0.02
G0 Z0.2
G0 X8.403 Y1.3994
G1 Z0.0231 F30.
G1 Z-0.0363
G1 Y1.3998 Z-0.039 F6.1
G1 X8.4031 Y1.4007 Z-0.0417
G1 X8.4033 Y1.4022 Z-0.044
G1 X8.4036 Y1.4041 Z-0.046
G1 X8.4038 Y1.4065 Z-0.0475
G1 X8.4042 Y1.4091 Z-0.0484
G1 X8.4045 Y1.4119 Z-0.0488
G1 X8.406 Y1.4243
G3 X8.3951 Y1.4382 I-0.0124 J0.0015
G1 X6.063 Y1.7189
G3 X5.9934 Y1.6644 I-0.0075 J-0.0621
G3 X6.0317 Y1.5991 I0.0621 J-0.0075
G1 X8.5198 Y0.5767
G3 X8.5943 Y0.5981 I0.0237 J0.0578
G2 X8.8599 Y0.855 I0.8355 J-0.5981
G3 X8.8773 Y0.9416 I-0.0347 J0.052
G3 X8.8698 Y0.9508 I-0.052 J-0.0347
G2 X8.6563 Y1.3623 I0.56 J0.5516
G3 X8.6023 Y1.4132 I-0.0615 J-0.0111
G1 X8.3951 Y1.4382
G3 X8.3812 Y1.4273 I-0.0015 J-0.0124
G1 X8.3797 Y1.4148
G1 X8.3793 Y1.4121 Z-0.0484
G1 X8.379 Y1.4095 Z-0.0475
G1 X8.3787 Y1.4071 Z-0.046
G1 X8.3785 Y1.4051 Z-0.044
G1 X8.3783 Y1.4037 Z-0.0417
G1 X8.3782 Y1.4027 Z-0.039
G1 Y1.4024 Z-0.0363
G0 Z0.2
G0 X8.403 Y1.3994
G1 Z0.0069 F30.
G1 Z-0.0525
G1 Y1.3998 Z-0.0553 F6.1
G1 X8.4031 Y1.4007 Z-0.0579
G1 X8.4033 Y1.4022 Z-0.0603
G1 X8.4036 Y1.4041 Z-0.0623
G1 X8.4038 Y1.4065 Z-0.0638
G1 X8.4042 Y1.4091 Z-0.0647
G1 X8.4045 Y1.4119 Z-0.065
G1 X8.406 Y1.4243
G3 X8.3951 Y1.4382 I-0.0124 J0.0015
G1 X6.063 Y1.7189
G3 X5.9934 Y1.6644 I-0.0075 J-0.0621
G3 X6.0317 Y1.5991 I0.0621 J-0.0075
G1 X8.5198 Y0.5767
G3 X8.5943 Y0.5981 I0.0237 J0.0578
G2 X8.8599 Y0.855 I0.8355 J-0.5981
G3 X8.8773 Y0.9416 I-0.0347 J0.052
G3 X8.8698 Y0.9508 I-0.052 J-0.0347
G2 X8.6563 Y1.3623 I0.56 J0.5516
G3 X8.6023 Y1.4132 I-0.0615 J-0.0111
G1 X8.3951 Y1.4382
G3 X8.3812 Y1.4273 I-0.0015 J-0.0124
G1 X8.3797 Y1.4148
G1 X8.3793 Y1.4121 Z-0.0647
G1 X8.379 Y1.4095 Z-0.0638
G1 X8.3787 Y1.4071 Z-0.0623
G1 X8.3785 Y1.4051 Z-0.0603
G1 X8.3783 Y1.4037 Z-0.0579
G1 X8.3782 Y1.4027 Z-0.0553
G1 Y1.4024 Z-0.0525
G0 Z0.2
G0 X8.403 Y1.3994
G1 Z-0.0094 F30.
G1 Z-0.0688
G1 Y1.3998 Z-0.0715 F6.1
G1 X8.4031 Y1.4007 Z-0.0742
G1 X8.4033 Y1.4022 Z-0.0765
G1 X8.4036 Y1.4041 Z-0.0785
G1 X8.4038 Y1.4065 Z-0.08
G1 X8.4042 Y1.4091 Z-0.0809
G1 X8.4045 Y1.4119 Z-0.0813
G1 X8.406 Y1.4243
G3 X8.3951 Y1.4382 I-0.0124 J0.0015
G1 X6.063 Y1.7189
G3 X5.9934 Y1.6644 I-0.0075 J-0.0621
G3 X6.0317 Y1.5991 I0.0621 J-0.0075
G1 X8.5198 Y0.5767
G3 X8.5943 Y0.5981 I0.0237 J0.0578
G2 X8.8599 Y0.855 I0.8355 J-0.5981
G3 X8.8773 Y0.9416 I-0.0347 J0.052
G3 X8.8698 Y0.9508 I-0.052 J-0.0347
G2 X8.6563 Y1.3623 I0.56 J0.5516
G3 X8.6023 Y1.4132 I-0.0615 J-0.0111
G1 X8.3951 Y1.4382
G3 X8.3812 Y1.4273 I-0.0015 J-0.0124
G1 X8.3797 Y1.4148
G1 X8.3793 Y1.4121 Z-0.0809
G1 X8.379 Y1.4095 Z-0.08
G1 X8.3787 Y1.4071 Z-0.0785
G1 X8.3785 Y1.4051 Z-0.0765
G1 X8.3783 Y1.4037 Z-0.0742
G1 X8.3782 Y1.4027 Z-0.0715
G1 Y1.4024 Z-0.0688
G0 Z0.2
G0 X8.403 Y1.3994
G1 Z-0.0256 F30.
G1 Z-0.085
G1 Y1.3998 Z-0.0878 F6.1
G1 X8.4031 Y1.4007 Z-0.0904
G1 X8.4033 Y1.4022 Z-0.0928
G1 X8.4036 Y1.4041 Z-0.0948
G1 X8.4038 Y1.4065 Z-0.0963
G1 X8.4042 Y1.4091 Z-0.0972
G1 X8.4045 Y1.4119 Z-0.0975
G1 X8.406 Y1.4243
G3 X8.3951 Y1.4382 I-0.0124 J0.0015
G1 X6.063 Y1.7189
G3 X5.9934 Y1.6644 I-0.0075 J-0.0621
G3 X6.0317 Y1.5991 I0.0621 J-0.0075
G1 X8.5198 Y0.5767
G3 X8.5943 Y0.5981 I0.0237 J0.0578
G2 X8.8599 Y0.855 I0.8355 J-0.5981
G3 X8.8773 Y0.9416 I-0.0347 J0.052
G3 X8.8698 Y0.9508 I-0.052 J-0.0347
G2 X8.6563 Y1.3623 I0.56 J0.5516
G3 X8.6023 Y1.4132 I-0.0615 J-0.0111
G1 X8.3951 Y1.4382
G3 X8.3812 Y1.4273 I-0.0015 J-0.0124
G1 X8.3797 Y1.4148
G1 X8.3793 Y1.4121 Z-0.0972
G1 X8.379 Y1.4095 Z-0.0963
G1 X8.3787 Y1.4071 Z-0.0948
G1 X8.3785 Y1.4051 Z-0.0928
G1 X8.3783 Y1.4037 Z-0.0904
G1 X8.3782 Y1.4027 Z-0.0878
G1 Y1.4024 Z-0.085
G0 Z0.2
G0 X8.403 Y1.3994
G1 Z-0.0419 F30.
G1 Z-0.1013
G1 Y1.3998 Z-0.104 F6.1
G1 X8.4031 Y1.4007 Z-0.1067
G1 X8.4033 Y1.4022 Z-0.109
G1 X8.4036 Y1.4041 Z-0.111
G1 X8.4038 Y1.4065 Z-0.1125
G1 X8.4042 Y1.4091 Z-0.1134
G1 X8.4045 Y1.4119 Z-0.1138
G1 X8.406 Y1.4243
G3 X8.3951 Y1.4382 I-0.0124 J0.0015
G1 X6.063 Y1.7189
G3 X5.9934 Y1.6644 I-0.0075 J-0.0621
G3 X6.0317 Y1.5991 I0.0621 J-0.0075
G1 X8.5198 Y0.5767
G3 X8.5943 Y0.5981 I0.0237 J0.0578
G2 X8.8599 Y0.855 I0.8355 J-0.5981
G3 X8.8773 Y0.9416 I-0.0347 J0.052
G3 X8.8698 Y0.9508 I-0.052 J-0.0347
G2 X8.6563 Y1.3623 I0.56 J0.5516
G3 X8.6023 Y1.4132 I-0.0615 J-0.0111
G1 X8.3951 Y1.4382
G3 X8.3812 Y1.4273 I-0.0015 J-0.0124
G1 X8.3797 Y1.4148
G1 X8.3793 Y1.4121 Z-0.1134
G1 X8.379 Y1.4095 Z-0.1125
G1 X8.3787 Y1.4071 Z-0.111
G1 X8.3785 Y1.4051 Z-0.109
G1 X8.3783 Y1.4037 Z-0.1067
G1 X8.3782 Y1.4027 Z-0.104
G1 Y1.4024 Z-0.1013
G0 Z0.2
G0 X8.403 Y1.3994
G1 Z-0.0581 F30.
G1 Z-0.1175
G1 Y1.3998 Z-0.1203 F6.1
G1 X8.4031 Y1.4007 Z-0.1229
G1 X8.4033 Y1.4022 Z-0.1253
G1 X8.4036 Y1.4041 Z-0.1273
G1 X8.4038 Y1.4065 Z-0.1288
G1 X8.4042 Y1.4091 Z-0.1297
G1 X8.4045 Y1.4119 Z-0.13
G1 X8.406 Y1.4243
G3 X8.3951 Y1.4382 I-0.0124 J0.0015
G1 X6.063 Y1.7189
G3 X5.9934 Y1.6644 I-0.0075 J-0.0621
G3 X6.0317 Y1.5991 I0.0621 J-0.0075
G1 X8.5198 Y0.5767
G3 X8.5943 Y0.5981 I0.0237 J0.0578
G2 X8.8599 Y0.855 I0.8355 J-0.5981
G3 X8.8773 Y0.9416 I-0.0347 J0.052
G3 X8.8698 Y0.9508 I-0.052 J-0.0347
G2 X8.6563 Y1.3623 I0.56 J0.5516
G3 X8.6023 Y1.4132 I-0.0615 J-0.0111
G1 X8.3951 Y1.4382
G3 X8.3812 Y1.4273 I-0.0015 J-0.0124
G1 X8.3797 Y1.4148
G1 X8.3793 Y1.4121 Z-0.1297
G1 X8.379 Y1.4095 Z-0.1288
G1 X8.3787 Y1.4071 Z-0.1273
G1 X8.3785 Y1.4051 Z-0.1253
G1 X8.3783 Y1.4037 Z-0.1229
G1 X8.3782 Y1.4027 Z-0.1203
G1 Y1.4024 Z-0.1175
G0 Z0.2
G0 X8.403 Y1.3994
G1 Z-0.0744 F30.
G1 Z-0.1338
G1 Y1.3998 Z-0.1365 F6.1
G1 X8.4031 Y1.4007 Z-0.1392
G1 X8.4033 Y1.4022 Z-0.1415
G1 X8.4036 Y1.4041 Z-0.1435
G1 X8.4038 Y1.4065 Z-0.145
G1 X8.4042 Y1.4091 Z-0.1459
G1 X8.4045 Y1.4119 Z-0.1463
G1 X8.406 Y1.4243
G3 X8.3951 Y1.4382 I-0.0124 J0.0015
G1 X6.063 Y1.7189
G3 X5.9934 Y1.6644 I-0.0075 J-0.0621
G3 X6.0317 Y1.5991 I0.0621 J-0.0075
G1 X8.5198 Y0.5767
G3 X8.5943 Y0.5981 I0.0237 J0.0578
G2 X8.8599 Y0.855 I0.8355 J-0.5981
G3 X8.8773 Y0.9416 I-0.0347 J0.052
G3 X8.8698 Y0.9508 I-0.052 J-0.0347
G2 X8.6563 Y1.3623 I0.56 J0.5516
G3 X8.6023 Y1.4132 I-0.0615 J-0.0111
G1 X8.3951 Y1.4382
G3 X8.3812 Y1.4273 I-0.0015 J-0.0124
G1 X8.3797 Y1.4148
G1 X8.3793 Y1.4121 Z-0.1459
G1 X8.379 Y1.4095 Z-0.145
G1 X8.3787 Y1.4071 Z-0.1435
G1 X8.3785 Y1.4051 Z-0.1415
G1 X8.3783 Y1.4037 Z-0.1392
G1 X8.3782 Y1.4027 Z-0.1365
G1 Y1.4024 Z-0.1338
G0 Z0.2
G0 X8.403 Y1.3994
G1 Z-0.0906 F30.
G1 Z-0.1438
G1 Y1.3998 Z-0.1465 F6.1
G1 X8.4031 Y1.4007 Z-0.1492
G1 X8.4033 Y1.4022 Z-0.1515
G1 X8.4036 Y1.4041 Z-0.1535
G1 X8.4038 Y1.4065 Z-0.155
G1 X8.4042 Y1.4091 Z-0.1559
G1 X8.4045 Y1.4119 Z-0.1563
G1 X8.406 Y1.4243
G3 X8.3951 Y1.4382 I-0.0124 J0.0015
G1 X6.063 Y1.7189
G3 X5.9934 Y1.6644 I-0.0075 J-0.0621
G3 X6.0317 Y1.5991 I0.0621 J-0.0075
G1 X8.5198 Y0.5767
G3 X8.5943 Y0.5981 I0.0237 J0.0578
G2 X8.8599 Y0.855 I0.8355 J-0.5981
G3 X8.8773 Y0.9416 I-0.0347 J0.052
G3 X8.8698 Y0.9508 I-0.052 J-0.0347
G2 X8.6563 Y1.3623 I0.56 J0.5516
G3 X8.6023 Y1.4132 I-0.0615 J-0.0111
G1 X8.3951 Y1.4382
G3 X8.3812 Y1.4273 I-0.0015 J-0.0124
G1 X8.3797 Y1.4148
G1 X8.3793 Y1.4121 Z-0.1559
G1 X8.379 Y1.4095 Z-0.155
G1 X8.3787 Y1.4071 Z-0.1535
G1 X8.3785 Y1.4051 Z-0.1515
G1 X8.3783 Y1.4037 Z-0.1492
G1 X8.3782 Y1.4027 Z-0.1465
G1 Y1.4024 Z-0.1438
G0 Z0.2
G0 X8.5287 Y2.4
G1 Z0.0556 F30.
G1 Z-0.0038
G1 Y2.4003 Z-0.0065 F6.1
G1 Y2.4012 Z-0.0092
G1 Y2.4027 Z-0.0115
G1 Y2.4047 Z-0.0135
G1 Y2.4071 Z-0.015
G1 Y2.4097 Z-0.0159
G1 Y2.4125 Z-0.0163
G1 Y2.425
G3 X8.5162 Y2.4375 I-0.0125 J0
G1 X4.8591
G3 X4.7965 Y2.375 I0 J-0.0625
G3 X4.8013 Y2.351 I0.0625 J0
G2 X4.8244 Y2.2845 I-0.5428 J-0.226
G3 X4.8771 Y2.2394 I0.0602 J0.0169
G1 X8.6471 Y1.7855
G3 X8.7117 Y1.8222 I0.0075 J0.062
G2 X9.7495 Y2.2206 I0.7182 J-0.3197
G2 X10.1335 Y1.8528 I-0.3197 J-0.7182
G3 X10.1996 Y1.819 I0.0559 J0.0279
G1 X13.2078 Y2.3133
G3 X13.2594 Y2.3851 I-0.0101 J0.0617
G3 X13.1977 Y2.4375 I-0.0617 J-0.0101
G1 X8.5162
G3 X8.5037 Y2.425 I0 J-0.0125
G1 Y2.4125
G1 Y2.4097 Z-0.0159
G1 Y2.4071 Z-0.015
G1 Y2.4047 Z-0.0135
G1 Y2.4027 Z-0.0115
G1 Y2.4012 Z-0.0092
G1 Y2.4003 Z-0.0065
G1 Y2.4 Z-0.0038
G0 Z0.2
G0 X8.5287
G1 Z0.0394 F30.
G1 Z-0.02
G1 Y2.4003 Z-0.0228 F6.1
G1 Y2.4012 Z-0.0254
G1 Y2.4027 Z-0.0278
G1 Y2.4047 Z-0.0298
G1 Y2.4071 Z-0.0313
G1 Y2.4097 Z-0.0322
G1 Y2.4125 Z-0.0325
G1 Y2.425
G3 X8.5162 Y2.4375 I-0.0125 J0
G1 X4.8591
G3 X4.7965 Y2.375 I0 J-0.0625
G3 X4.8013 Y2.351 I0.0625 J0
G2 X4.8244 Y2.2845 I-0.5428 J-0.226
G3 X4.8771 Y2.2394 I0.0602 J0.0169
G1 X8.6471 Y1.7855
G3 X8.7117 Y1.8222 I0.0075 J0.062
G2 X9.7495 Y2.2206 I0.7182 J-0.3197
G2 X10.1335 Y1.8528 I-0.3197 J-0.7182
G3 X10.1996 Y1.819 I0.0559 J0.0279
G1 X13.2078 Y2.3133
G3 X13.2594 Y2.3851 I-0.0101 J0.0617
G3 X13.1977 Y2.4375 I-0.0617 J-0.0101
G1 X8.5162
G3 X8.5037 Y2.425 I0 J-0.0125
G1 Y2.4125
G1 Y2.4097 Z-0.0322
G1 Y2.4071 Z-0.0313
G1 Y2.4047 Z-0.0298
G1 Y2.4027 Z-0.0278
G1 Y2.4012 Z-0.0254
G1 Y2.4003 Z-0.0228
G1 Y2.4 Z-0.02
G0 Z0.2
G0 X8.5287
G1 Z0.0231 F30.
G1 Z-0.0363
G1 Y2.4003 Z-0.039 F6.1
G1 Y2.4012 Z-0.0417
G1 Y2.4027 Z-0.044
G1 Y2.4047 Z-0.046
G1 Y2.4071 Z-0.0475
G1 Y2.4097 Z-0.0484
G1 Y2.4125 Z-0.0488
G1 Y2.425
G3 X8.5162 Y2.4375 I-0.0125 J0
G1 X4.8591
G3 X4.7965 Y2.375 I0 J-0.0625
G3 X4.8013 Y2.351 I0.0625 J0
G2 X4.8244 Y2.2845 I-0.5428 J-0.226
G3 X4.8771 Y2.2394 I0.0602 J0.0169
G1 X8.6471 Y1.7855
G3 X8.7117 Y1.8222 I0.0075 J0.062
G2 X9.7495 Y2.2206 I0.7182 J-0.3197
G2 X10.1335 Y1.8528 I-0.3197 J-0.7182
G3 X10.1996 Y1.819 I0.0559 J0.0279
G1 X13.2078 Y2.3133
G3 X13.2594 Y2.3851 I-0.0101 J0.0617
G3 X13.1977 Y2.4375 I-0.0617 J-0.0101
G1 X8.5162
G3 X8.5037 Y2.425 I0 J-0.0125
G1 Y2.4125
G1 Y2.4097 Z-0.0484
G1 Y2.4071 Z-0.0475
G1 Y2.4047 Z-0.046
G1 Y2.4027 Z-0.044
G1 Y2.4012 Z-0.0417
G1 Y2.4003 Z-0.039
G1 Y2.4 Z-0.0363
G0 Z0.2
G0 X8.5287
G1 Z0.0069 F30.
G1 Z-0.0525
G1 Y2.4003 Z-0.0553 F6.1
G1 Y2.4012 Z-0.0579
G1 Y2.4027 Z-0.0603
G1 Y2.4047 Z-0.0623
G1 Y2.4071 Z-0.0638
G1 Y2.4097 Z-0.0647
G1 Y2.4125 Z-0.065
G1 Y2.425
G3 X8.5162 Y2.4375 I-0.0125 J0
G1 X4.8591
G3 X4.7965 Y2.375 I0 J-0.0625
G3 X4.8013 Y2.351 I0.0625 J0
G2 X4.8244 Y2.2845 I-0.5428 J-0.226
G3 X4.8771 Y2.2394 I0.0602 J0.0169
G1 X8.6471 Y1.7855
G3 X8.7117 Y1.8222 I0.0075 J0.062
G2 X9.7495 Y2.2206 I0.7182 J-0.3197
G2 X10.1335 Y1.8528 I-0.3197 J-0.7182
G3 X10.1996 Y1.819 I0.0559 J0.0279
G1 X13.2078 Y2.3133
G3 X13.2594 Y2.3851 I-0.0101 J0.0617
G3 X13.1977 Y2.4375 I-0.0617 J-0.0101
G1 X8.5162
G3 X8.5037 Y2.425 I0 J-0.0125
G1 Y2.4125
G1 Y2.4097 Z-0.0647
G1 Y2.4071 Z-0.0638
G1 Y2.4047 Z-0.0623
G1 Y2.4027 Z-0.0603
G1 Y2.4012 Z-0.0579
G1 Y2.4003 Z-0.0553
G1 Y2.4 Z-0.0525
G0 Z0.2
G0 X8.5287
G1 Z-0.0094 F30.
G1 Z-0.0688
G1 Y2.4003 Z-0.0715 F6.1
G1 Y2.4012 Z-0.0742
G1 Y2.4027 Z-0.0765
G1 Y2.4047 Z-0.0785
G1 Y2.4071 Z-0.08
G1 Y2.4097 Z-0.0809
G1 Y2.4125 Z-0.0813
G1 Y2.425
G3 X8.5162 Y2.4375 I-0.0125 J0
G1 X4.8591
G3 X4.7965 Y2.375 I0 J-0.0625
G3 X4.8013 Y2.351 I0.0625 J0
G2 X4.8244 Y2.2845 I-0.5428 J-0.226
G3 X4.8771 Y2.2394 I0.0602 J0.0169
G1 X8.6471 Y1.7855
G3 X8.7117 Y1.8222 I0.0075 J0.062
G2 X9.7495 Y2.2206 I0.7182 J-0.3197
G2 X10.1335 Y1.8528 I-0.3197 J-0.7182
G3 X10.1996 Y1.819 I0.0559 J0.0279
G1 X13.2078 Y2.3133
G3 X13.2594 Y2.3851 I-0.0101 J0.0617
G3 X13.1977 Y2.4375 I-0.0617 J-0.0101
G1 X8.5162
G3 X8.5037 Y2.425 I0 J-0.0125
G1 Y2.4125
G1 Y2.4097 Z-0.0809
G1 Y2.4071 Z-0.08
G1 Y2.4047 Z-0.0785
G1 Y2.4027 Z-0.0765
G1 Y2.4012 Z-0.0742
G1 Y2.4003 Z-0.0715
G1 Y2.4 Z-0.0688
G0 Z0.2
G0 X8.5287
G1 Z-0.0256 F30.
G1 Z-0.085
G1 Y2.4003 Z-0.0878 F6.1
G1 Y2.4012 Z-0.0904
G1 Y2.4027 Z-0.0928
G1 Y2.4047 Z-0.0948
G1 Y2.4071 Z-0.0963
G1 Y2.4097 Z-0.0972
G1 Y2.4125 Z-0.0975
G1 Y2.425
G3 X8.5162 Y2.4375 I-0.0125 J0
G1 X4.8591
G3 X4.7965 Y2.375 I0 J-0.0625
G3 X4.8013 Y2.351 I0.0625 J0
G2 X4.8244 Y2.2845 I-0.5428 J-0.226
G3 X4.8771 Y2.2394 I0.0602 J0.0169
G1 X8.6471 Y1.7855
G3 X8.7117 Y1.8222 I0.0075 J0.062
G2 X9.7495 Y2.2206 I0.7182 J-0.3197
G2 X10.1335 Y1.8528 I-0.3197 J-0.7182
G3 X10.1996 Y1.819 I0.0559 J0.0279
G1 X13.2078 Y2.3133
G3 X13.2594 Y2.3851 I-0.0101 J0.0617
G3 X13.1977 Y2.4375 I-0.0617 J-0.0101
G1 X8.5162
G3 X8.5037 Y2.425 I0 J-0.0125
G1 Y2.4125
G1 Y2.4097 Z-0.0972
G1 Y2.4071 Z-0.0963
G1 Y2.4047 Z-0.0948
G1 Y2.4027 Z-0.0928
G1 Y2.4012 Z-0.0904
G1 Y2.4003 Z-0.0878
G1 Y2.4 Z-0.085
G0 Z0.2
G0 X8.5287
G1 Z-0.0419 F30.
G1 Z-0.1013
G1 Y2.4003 Z-0.104 F6.1
G1 Y2.4012 Z-0.1067
G1 Y2.4027 Z-0.109
G1 Y2.4047 Z-0.111
G1 Y2.4071 Z-0.1125
G1 Y2.4097 Z-0.1134
G1 Y2.4125 Z-0.1138
G1 Y2.425
G3 X8.5162 Y2.4375 I-0.0125 J0
G1 X4.8591
G3 X4.7965 Y2.375 I0 J-0.0625
G3 X4.8013 Y2.351 I0.0625 J0
G2 X4.8244 Y2.2845 I-0.5428 J-0.226
G3 X4.8771 Y2.2394 I0.0602 J0.0169
G1 X8.6471 Y1.7855
G3 X8.7117 Y1.8222 I0.0075 J0.062
G2 X9.7495 Y2.2206 I0.7182 J-0.3197
G2 X10.1335 Y1.8528 I-0.3197 J-0.7182
G3 X10.1996 Y1.819 I0.0559 J0.0279
G1 X13.2078 Y2.3133
G3 X13.2594 Y2.3851 I-0.0101 J0.0617
G3 X13.1977 Y2.4375 I-0.0617 J-0.0101
G1 X8.5162
G3 X8.5037 Y2.425 I0 J-0.0125
G1 Y2.4125
G1 Y2.4097 Z-0.1134
G1 Y2.4071 Z-0.1125
G1 Y2.4047 Z-0.111
G1 Y2.4027 Z-0.109
G1 Y2.4012 Z-0.1067
G1 Y2.4003 Z-0.104
G1 Y2.4 Z-0.1013
G0 Z0.2
G0 X8.5287
G1 Z-0.0581 F30.
G1 Z-0.1175
G1 Y2.4003 Z-0.1203 F6.1
G1 Y2.4012 Z-0.1229
G1 Y2.4027 Z-0.1253
G1 Y2.4047 Z-0.1273
G1 Y2.4071 Z-0.1288
G1 Y2.4097 Z-0.1297
G1 Y2.4125 Z-0.13
G1 Y2.425
G3 X8.5162 Y2.4375 I-0.0125 J0
G1 X4.8591
G3 X4.7965 Y2.375 I0 J-0.0625
G3 X4.8013 Y2.351 I0.0625 J0
G2 X4.8244 Y2.2845 I-0.5428 J-0.226
G3 X4.8771 Y2.2394 I0.0602 J0.0169
G1 X8.6471 Y1.7855
G3 X8.7117 Y1.8222 I0.0075 J0.062
G2 X9.7495 Y2.2206 I0.7182 J-0.3197
G2 X10.1335 Y1.8528 I-0.3197 J-0.7182
G3 X10.1996 Y1.819 I0.0559 J0.0279
G1 X13.2078 Y2.3133
G3 X13.2594 Y2.3851 I-0.0101 J0.0617
G3 X13.1977 Y2.4375 I-0.0617 J-0.0101
G1 X8.5162
G3 X8.5037 Y2.425 I0 J-0.0125
G1 Y2.4125
G1 Y2.4097 Z-0.1297
G1 Y2.4071 Z-0.1288
G1 Y2.4047 Z-0.1273
G1 Y2.4027 Z-0.1253
G1 Y2.4012 Z-0.1229
G1 Y2.4003 Z-0.1203
G1 Y2.4 Z-0.1175
G0 Z0.2
G0 X8.5287
G1 Z-0.0744 F30.
G1 Z-0.1338
G1 Y2.4003 Z-0.1365 F6.1
G1 Y2.4012 Z-0.1392
G1 Y2.4027 Z-0.1415
G1 Y2.4047 Z-0.1435
G1 Y2.4071 Z-0.145
G1 Y2.4097 Z-0.1459
G1 Y2.4125 Z-0.1463
G1 Y2.425
G3 X8.5162 Y2.4375 I-0.0125 J0
G1 X4.8591
G3 X4.7965 Y2.375 I0 J-0.0625
G3 X4.8013 Y2.351 I0.0625 J0
G2 X4.8244 Y2.2845 I-0.5428 J-0.226
G3 X4.8771 Y2.2394 I0.0602 J0.0169
G1 X8.6471 Y1.7855
G3 X8.7117 Y1.8222 I0.0075 J0.062
G2 X9.7495 Y2.2206 I0.7182 J-0.3197
G2 X10.1335 Y1.8528 I-0.3197 J-0.7182
G3 X10.1996 Y1.819 I0.0559 J0.0279
G1 X13.2078 Y2.3133
G3 X13.2594 Y2.3851 I-0.0101 J0.0617
G3 X13.1977 Y2.4375 I-0.0617 J-0.0101
G1 X8.5162
G3 X8.5037 Y2.425 I0 J-0.0125
G1 Y2.4125
G1 Y2.4097 Z-0.1459
G1 Y2.4071 Z-0.145
G1 Y2.4047 Z-0.1435
G1 Y2.4027 Z-0.1415
G1 Y2.4012 Z-0.1392
G1 Y2.4003 Z-0.1365
G1 Y2.4 Z-0.1338
G0 Z0.2
G0 X8.5287
G1 Z-0.0906 F30.
G1 Z-0.1438
G1 Y2.4003 Z-0.1465 F6.1
G1 Y2.4012 Z-0.1492
G1 Y2.4027 Z-0.1515
G1 Y2.4047 Z-0.1535
G1 Y2.4071 Z-0.155
G1 Y2.4097 Z-0.1559
G1 Y2.4125 Z-0.1563
G1 Y2.425
G3 X8.5162 Y2.4375 I-0.0125 J0
G1 X4.8591
G3 X4.7965 Y2.375 I0 J-0.0625
G3 X4.8013 Y2.351 I0.0625 J0
G2 X4.8244 Y2.2845 I-0.5428 J-0.226
G3 X4.8771 Y2.2394 I0.0602 J0.0169
G1 X8.6471 Y1.7855
G3 X8.7117 Y1.8222 I0.0075 J0.062
G2 X9.7495 Y2.2206 I0.7182 J-0.3197
G2 X10.1335 Y1.8528 I-0.3197 J-0.7182
G3 X10.1996 Y1.819 I0.0559 J0.0279
G1 X13.2078 Y2.3133
G3 X13.2594 Y2.3851 I-0.0101 J0.0617
G3 X13.1977 Y2.4375 I-0.0617 J-0.0101
G1 X8.5162
G3 X8.5037 Y2.425 I0 J-0.0125
G1 Y2.4125
G1 Y2.4097 Z-0.1559
G1 Y2.4071 Z-0.155
G1 Y2.4047 Z-0.1535
G1 Y2.4027 Z-0.1515
G1 Y2.4012 Z-0.1492
G1 Y2.4003 Z-0.1465
G1 Y2.4 Z-0.1438
G0 Z0.2
G0 X12.3797 Y1.0067
G1 Z0.0556 F30.
G1 Z-0.0038
G1 X12.3799 Y1.0065 Z-0.0065 F6.1
G1 X12.3806 Y1.0058 Z-0.0092
G1 X12.3816 Y1.0047 Z-0.0115
G1 X12.383 Y1.0033 Z-0.0135
G1 X12.3846 Y1.0016 Z-0.015
G1 X12.3865 Y0.9997 Z-0.0159
G1 X12.3884 Y0.9977 Z-0.0163
G1 X12.3971 Y0.9887
G3 X12.4059 Y0.985 I0.009 J0.0087
G3 X12.4148 Y0.9885 I0.0002 J0.0125
G2 X12.9771 Y1.2052 I0.5352 J-0.551
G2 X13.5228 Y0.9493 I-0.0271 J-0.7677
G3 X13.611 Y0.9443 I0.0466 J0.0416
G3 X13.6309 Y0.9797 I-0.0416 J0.0466
G2 X14.0305 Y1.5694 I0.8691 J-0.1587
G2 X14.7354 Y1.6726 I0.4695 J-0.7484
G3 X14.8058 Y1.7008 I0.0167 J0.0602
G1 X15.0639 Y2.1342
G3 X15.0422 Y2.2198 I-0.0537 J0.032
G3 X15.0001 Y2.2278 I-0.032 J-0.0537
G1 X10.2604 Y1.4489
G3 X10.2087 Y1.3958 I0.0101 J-0.0617
G2 X10.2061 Y1.3784 I-0.7789 J0.1063
G3 X10.2402 Y1.3125 I0.0617 J-0.0099
G1 X11.0098 Y0.9335
G3 X11.0786 Y0.9425 I0.0276 J0.0561
G2 X11.9083 Y0.8872 I0.3872 J-0.4425
G2 X12.0176 Y0.7029 I-0.4425 J-0.3872
G3 X12.0737 Y0.6621 I0.0586 J0.0216
G1 X12.1665 Y0.6582
G3 X12.2279 Y0.6993 I0.0026 J0.0624
G2 X12.4148 Y0.9885 I0.7221 J-0.2618
G3 X12.4151 Y1.0062 I-0.0087 J0.009
G1 X12.4063 Y1.0151
G1 X12.4044 Y1.0171 Z-0.0159
G1 X12.4026 Y1.019 Z-0.015
G1 X12.4009 Y1.0207 Z-0.0135
G1 X12.3995 Y1.0221 Z-0.0115
G1 X12.3985 Y1.0232 Z-0.0092
G1 X12.3979 Y1.0239 Z-0.0065
G1 X12.3976 Y1.0241 Z-0.0038
G0 Z0.2
G0 X12.3797 Y1.0067
G1 Z0.0394 F30.
G1 Z-0.02
G1 X12.3799 Y1.0065 Z-0.0228 F6.1
G1 X12.3806 Y1.0058 Z-0.0254
G1 X12.3816 Y1.0047 Z-0.0278
G1 X12.383 Y1.0033 Z-0.0298
G1 X12.3846 Y1.0016 Z-0.0313
G1 X12.3865 Y0.9997 Z-0.0322
G1 X12.3884 Y0.9977 Z-0.0325
G1 X12.3971 Y0.9887
G3 X12.4059 Y0.985 I0.009 J0.0087
G3 X12.4148 Y0.9885 I0.0002 J0.0125
G2 X12.9771 Y1.2052 I0.5352 J-0.551
G2 X13.5228 Y0.9493 I-0.0271 J-0.7677
G3 X13.611 Y0.9443 I0.0466 J0.0416
G3 X13.6309 Y0.9797 I-0.0416 J0.0466
G2 X14.0305 Y1.5694 I0.8691 J-0.1587
G2 X14.7354 Y1.6726 I0.4695 J-0.7484
G3 X14.8058 Y1.7008 I0.0167 J0.0602
G1 X15.0639 Y2.1342
G3 X15.0422 Y2.2198 I-0.0537 J0.032
G3 X15.0001 Y2.2278 I-0.032 J-0.0537
G1 X10.2604 Y1.4489
G3 X10.2087 Y1.3958 I0.0101 J-0.0617
G2 X10.2061 Y1.3784 I-0.7789 J0.1063
G3 X10.2402 Y1.3125 I0.0617 J-0.0099
G1 X11.0098 Y0.9335
G3 X11.0786 Y0.9425 I0.0276 J0.0561
G2 X11.9083 Y0.8872 I0.3872 J-0.4425
G2 X12.0176 Y0.7029 I-0.4425 J-0.3872
G3 X12.0737 Y0.6621 I0.0586 J0.0216
G1 X12.1665 Y0.6582
G3 X12.2279 Y0.6993 I0.0026 J0.0624
G2 X12.4148 Y0.9885 I0.7221 J-0.2618
G3 X12.4151 Y1.0062 I-0.0087 J0.009
G1 X12.4063 Y1.0151
G1 X12.4044 Y1.0171 Z-0.0322
G1 X12.4026 Y1.019 Z-0.0313
G1 X12.4009 Y1.0207 Z-0.0298
G1 X12.3995 Y1.0221 Z-0.0278
G1 X12.3985 Y1.0232 Z-0.0254
G1 X12.3979 Y1.0239 Z-0.0228
G1 X12.3976 Y1.0241 Z-0.02
G0 Z0.2
G0 X12.3797 Y1.0067
G1 Z0.0231 F30.
G1 Z-0.0363
G1 X12.3799 Y1.0065 Z-0.039 F6.1
G1 X12.3806 Y1.0058 Z-0.0417
G1 X12.3816 Y1.0047 Z-0.044
G1 X12.383 Y1.0033 Z-0.046
G1 X12.3846 Y1.0016 Z-0.0475
G1 X12.3865 Y0.9997 Z-0.0484
G1 X12.3884 Y0.9977 Z-0.0488
G1 X12.3971 Y0.9887
G3 X12.4059 Y0.985 I0.009 J0.0087
G3 X12.4148 Y0.9885 I0.0002 J0.0125
G2 X12.9771 Y1.2052 I0.5352 J-0.551
G2 X13.5228 Y0.9493 I-0.0271 J-0.7677
G3 X13.611 Y0.9443 I0.0466 J0.0416
G3 X13.6309 Y0.9797 I-0.0416 J0.0466
G2 X14.0305 Y1.5694 I0.8691 J-0.1587
G2 X14.7354 Y1.6726 I0.4695 J-0.7484
G3 X14.8058 Y1.7008 I0.0167 J0.0602
G1 X15.0639 Y2.1342
G3 X15.0422 Y2.2198 I-0.0537 J0.032
G3 X15.0001 Y2.2278 I-0.032 J-0.0537
G1 X10.2604 Y1.4489
G3 X10.2087 Y1.3958 I0.0101 J-0.0617
G2 X10.2061 Y1.3784 I-0.7789 J0.1063
G3 X10.2402 Y1.3125 I0.0617 J-0.0099
G1 X11.0098 Y0.9335
G3 X11.0786 Y0.9425 I0.0276 J0.0561
G2 X11.9083 Y0.8872 I0.3872 J-0.4425
G2 X12.0176 Y0.7029 I-0.4425 J-0.3872
G3 X12.0737 Y0.6621 I0.0586 J0.0216
G1 X12.1665 Y0.6582
G3 X12.2279 Y0.6993 I0.0026 J0.0624
G2 X12.4148 Y0.9885 I0.7221 J-0.2618
G3 X12.4151 Y1.0062 I-0.0087 J0.009
G1 X12.4063 Y1.0151
G1 X12.4044 Y1.0171 Z-0.0484
G1 X12.4026 Y1.019 Z-0.0475
G1 X12.4009 Y1.0207 Z-0.046
G1 X12.3995 Y1.0221 Z-0.044
G1 X12.3985 Y1.0232 Z-0.0417
G1 X12.3979 Y1.0239 Z-0.039
G1 X12.3976 Y1.0241 Z-0.0363
G0 Z0.2
G0 X12.3797 Y1.0067
G1 Z0.0069 F30.
G1 Z-0.0525
G1 X12.3799 Y1.0065 Z-0.0553 F6.1
G1 X12.3806 Y1.0058 Z-0.0579
G1 X12.3816 Y1.0047 Z-0.0603
G1 X12.383 Y1.0033 Z-0.0623
G1 X12.3846 Y1.0016 Z-0.0638
G1 X12.3865 Y0.9997 Z-0.0647
G1 X12.3884 Y0.9977 Z-0.065
G1 X12.3971 Y0.9887
G3 X12.4059 Y0.985 I0.009 J0.0087
G3 X12.4148 Y0.9885 I0.0002 J0.0125
G2 X12.9771 Y1.2052 I0.5352 J-0.551
G2 X13.5228 Y0.9493 I-0.0271 J-0.7677
G3 X13.611 Y0.9443 I0.0466 J0.0416
G3 X13.6309 Y0.9797 I-0.0416 J0.0466
G2 X14.0305 Y1.5694 I0.8691 J-0.1587
G2 X14.7354 Y1.6726 I0.4695 J-0.7484
G3 X14.8058 Y1.7008 I0.0167 J0.0602
G1 X15.0639 Y2.1342
G3 X15.0422 Y2.2198 I-0.0537 J0.032
G3 X15.0001 Y2.2278 I-0.032 J-0.0537
G1 X10.2604 Y1.4489
G3 X10.2087 Y1.3958 I0.0101 J-0.0617
G2 X10.2061 Y1.3784 I-0.7789 J0.1063
G3 X10.2402 Y1.3125 I0.0617 J-0.0099
G1 X11.0098 Y0.9335
G3 X11.0786 Y0.9425 I0.0276 J0.0561
G2 X11.9083 Y0.8872 I0.3872 J-0.4425
G2 X12.0176 Y0.7029 I-0.4425 J-0.3872
G3 X12.0737 Y0.6621 I0.0586 J0.0216
G1 X12.1665 Y0.6582
G3 X12.2279 Y0.6993 I0.0026 J0.0624
G2 X12.4148 Y0.9885 I0.7221 J-0.2618
G3 X12.4151 Y1.0062 I-0.0087 J0.009
G1 X12.4063 Y1.0151
G1 X12.4044 Y1.0171 Z-0.0647
G1 X12.4026 Y1.019 Z-0.0638
G1 X12.4009 Y1.0207 Z-0.0623
G1 X12.3995 Y1.0221 Z-0.0603
G1 X12.3985 Y1.0232 Z-0.0579
G1 X12.3979 Y1.0239 Z-0.0553
G1 X12.3976 Y1.0241 Z-0.0525
G0 Z0.2
G0 X12.3797 Y1.0067
G1 Z-0.0094 F30.
G1 Z-0.0688
G1 X12.3799 Y1.0065 Z-0.0715 F6.1
G1 X12.3806 Y1.0058 Z-0.0742
G1 X12.3816 Y1.0047 Z-0.0765
G1 X12.383 Y1.0033 Z-0.0785
G1 X12.3846 Y1.0016 Z-0.08
G1 X12.3865 Y0.9997 Z-0.0809
G1 X12.3884 Y0.9977 Z-0.0813
G1 X12.3971 Y0.9887
G3 X12.4059 Y0.985 I0.009 J0.0087
G3 X12.4148 Y0.9885 I0.0002 J0.0125
G2 X12.9771 Y1.2052 I0.5352 J-0.551
G2 X13.5228 Y0.9493 I-0.0271 J-0.7677
G3 X13.611 Y0.9443 I0.0466 J0.0416
G3 X13.6309 Y0.9797 I-0.0416 J0.0466
G2 X14.0305 Y1.5694 I0.8691 J-0.1587
G2 X14.7354 Y1.6726 I0.4695 J-0.7484
G3 X14.8058 Y1.7008 I0.0167 J0.0602
G1 X15.0639 Y2.1342
G3 X15.0422 Y2.2198 I-0.0537 J0.032
G3 X15.0001 Y2.2278 I-0.032 J-0.0537
G1 X10.2604 Y1.4489
G3 X10.2087 Y1.3958 I0.0101 J-0.0617
G2 X10.2061 Y1.3784 I-0.7789 J0.1063
G3 X10.2402 Y1.3125 I0.0617 J-0.0099
G1 X11.0098 Y0.9335
G3 X11.0786 Y0.9425 I0.0276 J0.0561
G2 X11.9083 Y0.8872 I0.3872 J-0.4425
G2 X12.0176 Y0.7029 I-0.4425 J-0.3872
G3 X12.0737 Y0.6621 I0.0586 J0.0216
G1 X12.1665 Y0.6582
G3 X12.2279 Y0.6993 I0.0026 J0.0624
G2 X12.4148 Y0.9885 I0.7221 J-0.2618
G3 X12.4151 Y1.0062 I-0.0087 J0.009
G1 X12.4063 Y1.0151
G1 X12.4044 Y1.0171 Z-0.0809
G1 X12.4026 Y1.019 Z-0.08
G1 X12.4009 Y1.0207 Z-0.0785
G1 X12.3995 Y1.0221 Z-0.0765
G1 X12.3985 Y1.0232 Z-0.0742
G1 X12.3979 Y1.0239 Z-0.0715
G1 X12.3976 Y1.0241 Z-0.0688
G0 Z0.2
G0 X12.3797 Y1.0067
G1 Z-0.0256 F30.
G1 Z-0.085
G1 X12.3799 Y1.0065 Z-0.0878 F6.1
G1 X12.3806 Y1.0058 Z-0.0904
G1 X12.3816 Y1.0047 Z-0.0928
G1 X12.383 Y1.0033 Z-0.0948
G1 X12.3846 Y1.0016 Z-0.0963
G1 X12.3865 Y0.9997 Z-0.0972
G1 X12.3884 Y0.9977 Z-0.0975
G1 X12.3971 Y0.9887
G3 X12.4059 Y0.985 I0.009 J0.0087
G3 X12.4148 Y0.9885 I0.0002 J0.0125
G2 X12.9771 Y1.2052 I0.5352 J-0.551
G2 X13.5228 Y0.9493 I-0.0271 J-0.7677
G3 X13.611 Y0.9443 I0.0466 J0.0416
G3 X13.6309 Y0.9797 I-0.0416 J0.0466
G2 X14.0305 Y1.5694 I0.8691 J-0.1587
G2 X14.7354 Y1.6726 I0.4695 J-0.7484
G3 X14.8058 Y1.7008 I0.0167 J0.0602
G1 X15.0639 Y2.1342
G3 X15.0422 Y2.2198 I-0.0537 J0.032
G3 X15.0001 Y2.2278 I-0.032 J-0.0537
G1 X10.2604 Y1.4489
G3 X10.2087 Y1.3958 I0.0101 J-0.0617
G2 X10.2061 Y1.3784 I-0.7789 J0.1063
G3 X10.2402 Y1.3125 I0.0617 J-0.0099
G1 X11.0098 Y0.9335
G3 X11.0786 Y0.9425 I0.0276 J0.0561
G2 X11.9083 Y0.8872 I0.3872 J-0.4425
G2 X12.0176 Y0.7029 I-0.4425 J-0.3872
G3 X12.0737 Y0.6621 I0.0586 J0.0216
G1 X12.1665 Y0.6582
G3 X12.2279 Y0.6993 I0.0026 J0.0624
G2 X12.4148 Y0.9885 I0.7221 J-0.2618
G3 X12.4151 Y1.0062 I-0.0087 J0.009
G1 X12.4063 Y1.0151
G1 X12.4044 Y1.0171 Z-0.0972
G1 X12.4026 Y1.019 Z-0.0963
G1 X12.4009 Y1.0207 Z-0.0948
G1 X12.3995 Y1.0221 Z-0.0928
G1 X12.3985 Y1.0232 Z-0.0904
G1 X12.3979 Y1.0239 Z-0.0878
G1 X12.3976 Y1.0241 Z-0.085
G0 Z0.2
G0 X12.3797 Y1.0067
G1 Z-0.0419 F30.
G1 Z-0.1013
G1 X12.3799 Y1.0065 Z-0.104 F6.1
G1 X12.3806 Y1.0058 Z-0.1067
G1 X12.3816 Y1.0047 Z-0.109
G1 X12.383 Y1.0033 Z-0.111
G1 X12.3846 Y1.0016 Z-0.1125
G1 X12.3865 Y0.9997 Z-0.1134
G1 X12.3884 Y0.9977 Z-0.1138
G1 X12.3971 Y0.9887
G3 X12.4059 Y0.985 I0.009 J0.0087
G3 X12.4148 Y0.9885 I0.0002 J0.0125
G2 X12.9771 Y1.2052 I0.5352 J-0.551
G2 X13.5228 Y0.9493 I-0.0271 J-0.7677
G3 X13.611 Y0.9443 I0.0466 J0.0416
G3 X13.6309 Y0.9797 I-0.0416 J0.0466
G2 X14.0305 Y1.5694 I0.8691 J-0.1587
G2 X14.7354 Y1.6726 I0.4695 J-0.7484
G3 X14.8058 Y1.7008 I0.0167 J0.0602
G1 X15.0639 Y2.1342
G3 X15.0422 Y2.2198 I-0.0537 J0.032
G3 X15.0001 Y2.2278 I-0.032 J-0.0537
G1 X10.2604 Y1.4489
G3 X10.2087 Y1.3958 I0.0101 J-0.0617
G2 X10.2061 Y1.3784 I-0.7789 J0.1063
G3 X10.2402 Y1.3125 I0.0617 J-0.0099
G1 X11.0098 Y0.9335
G3 X11.0786 Y0.9425 I0.0276 J0.0561
G2 X11.9083 Y0.8872 I0.3872 J-0.4425
G2 X12.0176 Y0.7029 I-0.4425 J-0.3872
G3 X12.0737 Y0.6621 I0.0586 J0.0216
G1 X12.1665 Y0.6582
G3 X12.2279 Y0.6993 I0.0026 J0.0624
G2 X12.4148 Y0.9885 I0.7221 J-0.2618
G3 X12.4151 Y1.0062 I-0.0087 J0.009
G1 X12.4063 Y1.0151
G1 X12.4044 Y1.0171 Z-0.1134
G1 X12.4026 Y1.019 Z-0.1125
G1 X12.4009 Y1.0207 Z-0.111
G1 X12.3995 Y1.0221 Z-0.109
G1 X12.3985 Y1.0232 Z-0.1067
G1 X12.3979 Y1.0239 Z-0.104
G1 X12.3976 Y1.0241 Z-0.1013
G0 Z0.2
G0 X12.3797 Y1.0067
G1 Z-0.0581 F30.
G1 Z-0.1175
G1 X12.3799 Y1.0065 Z-0.1203 F6.1
G1 X12.3806 Y1.0058 Z-0.1229
G1 X12.3816 Y1.0047 Z-0.1253
G1 X12.383 Y1.0033 Z-0.1273
G1 X12.3846 Y1.0016 Z-0.1288
G1 X12.3865 Y0.9997 Z-0.1297
G1 X12.3884 Y0.9977 Z-0.13
G1 X12.3971 Y0.9887
G3 X12.4059 Y0.985 I0.009 J0.0087
G3 X12.4148 Y0.9885 I0.0002 J0.0125
G2 X12.9771 Y1.2052 I0.5352 J-0.551
G2 X13.5228 Y0.9493 I-0.0271 J-0.7677
G3 X13.611 Y0.9443 I0.0466 J0.0416
G3 X13.6309 Y0.9797 I-0.0416 J0.0466
G2 X14.0305 Y1.5694 I0.8691 J-0.1587
G2 X14.7354 Y1.6726 I0.4695 J-0.7484
G3 X14.8058 Y1.7008 I0.0167 J0.0602
G1 X15.0639 Y2.1342
G3 X15.0422 Y2.2198 I-0.0537 J0.032
G3 X15.0001 Y2.2278 I-0.032 J-0.0537
G1 X10.2604 Y1.4489
G3 X10.2087 Y1.3958 I0.0101 J-0.0617
G2 X10.2061 Y1.3784 I-0.7789 J0.1063
G3 X10.2402 Y1.3125 I0.0617 J-0.0099
G1 X11.0098 Y0.9335
G3 X11.0786 Y0.9425 I0.0276 J0.0561
G2 X11.9083 Y0.8872 I0.3872 J-0.4425
G2 X12.0176 Y0.7029 I-0.4425 J-0.3872
G3 X12.0737 Y0.6621 I0.0586 J0.0216
G1 X12.1665 Y0.6582
G3 X12.2279 Y0.6993 I0.0026 J0.0624
G2 X12.4148 Y0.9885 I0.7221 J-0.2618
G3 X12.4151 Y1.0062 I-0.0087 J0.009
G1 X12.4063 Y1.0151
G1 X12.4044 Y1.0171 Z-0.1297
G1 X12.4026 Y1.019 Z-0.1288
G1 X12.4009 Y1.0207 Z-0.1273
G1 X12.3995 Y1.0221 Z-0.1253
G1 X12.3985 Y1.0232 Z-0.1229
G1 X12.3979 Y1.0239 Z-0.1203
G1 X12.3976 Y1.0241 Z-0.1175
G0 Z0.2
G0 X12.3797 Y1.0067
G1 Z-0.0744 F30.
G1 Z-0.1338
G1 X12.3799 Y1.0065 Z-0.1365 F6.1
G1 X12.3806 Y1.0058 Z-0.1392
G1 X12.3816 Y1.0047 Z-0.1415
G1 X12.383 Y1.0033 Z-0.1435
G1 X12.3846 Y1.0016 Z-0.145
G1 X12.3865 Y0.9997 Z-0.1459
G1 X12.3884 Y0.9977 Z-0.1463
G1 X12.3971 Y0.9887
G3 X12.4059 Y0.985 I0.009 J0.0087
G3 X12.4148 Y0.9885 I0.0002 J0.0125
G2 X12.9771 Y1.2052 I0.5352 J-0.551
G2 X13.5228 Y0.9493 I-0.0271 J-0.7677
G3 X13.611 Y0.9443 I0.0466 J0.0416
G3 X13.6309 Y0.9797 I-0.0416 J0.0466
G2 X14.0305 Y1.5694 I0.8691 J-0.1587
G2 X14.7354 Y1.6726 I0.4695 J-0.7484
G3 X14.8058 Y1.7008 I0.0167 J0.0602
G1 X15.0639 Y2.1342
G3 X15.0422 Y2.2198 I-0.0537 J0.032
G3 X15.0001 Y2.2278 I-0.032 J-0.0537
G1 X10.2604 Y1.4489
G3 X10.2087 Y1.3958 I0.0101 J-0.0617
G2 X10.2061 Y1.3784 I-0.7789 J0.1063
G3 X10.2402 Y1.3125 I0.0617 J-0.0099
G1 X11.0098 Y0.9335
G3 X11.0786 Y0.9425 I0.0276 J0.0561
G2 X11.9083 Y0.8872 I0.3872 J-0.4425
G2 X12.0176 Y0.7029 I-0.4425 J-0.3872
G3 X12.0737 Y0.6621 I0.0586 J0.0216
G1 X12.1665 Y0.6582
G3 X12.2279 Y0.6993 I0.0026 J0.0624
G2 X12.4148 Y0.9885 I0.7221 J-0.2618
G3 X12.4151 Y1.0062 I-0.0087 J0.009
G1 X12.4063 Y1.0151
G1 X12.4044 Y1.0171 Z-0.1459
G1 X12.4026 Y1.019 Z-0.145
G1 X12.4009 Y1.0207 Z-0.1435
G1 X12.3995 Y1.0221 Z-0.1415
G1 X12.3985 Y1.0232 Z-0.1392
G1 X12.3979 Y1.0239 Z-0.1365
G1 X12.3976 Y1.0241 Z-0.1338
G0 Z0.2
G0 X12.3797 Y1.0067
G1 Z-0.0906 F30.
G1 Z-0.1438
G1 X12.3799 Y1.0065 Z-0.1465 F6.1
G1 X12.3806 Y1.0058 Z-0.1492
G1 X12.3816 Y1.0047 Z-0.1515
G1 X12.383 Y1.0033 Z-0.1535
G1 X12.3846 Y1.0016 Z-0.155
G1 X12.3865 Y0.9997 Z-0.1559
G1 X12.3884 Y0.9977 Z-0.1563
G1 X12.3971 Y0.9887
G3 X12.4059 Y0.985 I0.009 J0.0087
G3 X12.4148 Y0.9885 I0.0002 J0.0125
G2 X12.9771 Y1.2052 I0.5352 J-0.551
G2 X13.5228 Y0.9493 I-0.0271 J-0.7677
G3 X13.611 Y0.9443 I0.0466 J0.0416
G3 X13.6309 Y0.9797 I-0.0416 J0.0466
G2 X14.0305 Y1.5694 I0.8691 J-0.1587
G2 X14.7354 Y1.6726 I0.4695 J-0.7484
G3 X14.8058 Y1.7008 I0.0167 J0.0602
G1 X15.0639 Y2.1342
G3 X15.0422 Y2.2198 I-0.0537 J0.032
G3 X15.0001 Y2.2278 I-0.032 J-0.0537
G1 X10.2604 Y1.4489
G3 X10.2087 Y1.3958 I0.0101 J-0.0617
G2 X10.2061 Y1.3784 I-0.7789 J0.1063
G3 X10.2402 Y1.3125 I0.0617 J-0.0099
G1 X11.0098 Y0.9335
G3 X11.0786 Y0.9425 I0.0276 J0.0561
G2 X11.9083 Y0.8872 I0.3872 J-0.4425
G2 X12.0176 Y0.7029 I-0.4425 J-0.3872
G3 X12.0737 Y0.6621 I0.0586 J0.0216
G1 X12.1665 Y0.6582
G3 X12.2279 Y0.6993 I0.0026 J0.0624
G2 X12.4148 Y0.9885 I0.7221 J-0.2618
G3 X12.4151 Y1.0062 I-0.0087 J0.009
G1 X12.4063 Y1.0151
G1 X12.4044 Y1.0171 Z-0.1559
G1 X12.4026 Y1.019 Z-0.155
G1 X12.4009 Y1.0207 Z-0.1535
G1 X12.3995 Y1.0221 Z-0.1515
G1 X12.3985 Y1.0232 Z-0.1492
G1 X12.3979 Y1.0239 Z-0.1465
G1 X12.3976 Y1.0241 Z-0.1438
G0 Z0.2
G0 X11.6412 Y0.4875
G1 Z0.0556 F30.
G1 Z-0.0038
G1 X11.6416 Z-0.0065 F6.1
G1 X11.6425 Z-0.0092
G1 X11.644 Z-0.0115
G1 X11.646 Z-0.0135
G1 X11.6483 Z-0.015
G1 X11.651 Z-0.0159
G1 X11.6537 Z-0.0163
G1 X11.6662
G3 X11.6787 Y0.5 I0 J0.0125
G3 X11.4657 Y0.713 I-0.213 J0
G3 X11.2527 Y0.5 I0 J-0.213
G3 X11.4657 Y0.287 I0.213 J0
G3 X11.6787 Y0.5 I0 J0.213
G3 X11.6662 Y0.5125 I-0.0125 J0
G1 X11.6537
G1 X11.651 Z-0.0159
G1 X11.6483 Z-0.015
G1 X11.646 Z-0.0135
G1 X11.644 Z-0.0115
G1 X11.6425 Z-0.0092
G1 X11.6416 Z-0.0065
G1 X11.6412 Z-0.0038
G0 Z0.2
G0 Y0.4875
G1 Z0.0394 F30.
G1 Z-0.02
G1 X11.6416 Z-0.0228 F6.1
G1 X11.6425 Z-0.0254
G1 X11.644 Z-0.0278
G1 X11.646 Z-0.0298
G1 X11.6483 Z-0.0313
G1 X11.651 Z-0.0322
G1 X11.6537 Z-0.0325
G1 X11.6662
G3 X11.6787 Y0.5 I0 J0.0125
G3 X11.4657 Y0.713 I-0.213 J0
G3 X11.2527 Y0.5 I0 J-0.213
G3 X11.4657 Y0.287 I0.213 J0
G3 X11.6787 Y0.5 I0 J0.213
G3 X11.6662 Y0.5125 I-0.0125 J0
G1 X11.6537
G1 X11.651 Z-0.0322
G1 X11.6483 Z-0.0313
G1 X11.646 Z-0.0298
G1 X11.644 Z-0.0278
G1 X11.6425 Z-0.0254
G1 X11.6416 Z-0.0228
G1 X11.6412 Z-0.02
G0 Z0.2
G0 Y0.4875
G1 Z0.0231 F30.
G1 Z-0.0363
G1 X11.6416 Z-0.039 F6.1
G1 X11.6425 Z-0.0417
G1 X11.644 Z-0.044
G1 X11.646 Z-0.046
G1 X11.6483 Z-0.0475
G1 X11.651 Z-0.0484
G1 X11.6537 Z-0.0488
G1 X11.6662
G3 X11.6787 Y0.5 I0 J0.0125
G3 X11.4657 Y0.713 I-0.213 J0
G3 X11.2527 Y0.5 I0 J-0.213
G3 X11.4657 Y0.287 I0.213 J0
G3 X11.6787 Y0.5 I0 J0.213
G3 X11.6662 Y0.5125 I-0.0125 J0
G1 X11.6537
G1 X11.651 Z-0.0484
G1 X11.6483 Z-0.0475
G1 X11.646 Z-0.046
G1 X11.644 Z-0.044
G1 X11.6425 Z-0.0417
G1 X11.6416 Z-0.039
G1 X11.6412 Z-0.0363
G0 Z0.2
G0 Y0.4875
G1 Z0.0069 F30.
G1 Z-0.0525
G1 X11.6416 Z-0.0553 F6.1
G1 X11.6425 Z-0.0579
G1 X11.644 Z-0.0603
G1 X11.646 Z-0.0623
G1 X11.6483 Z-0.0638
G1 X11.651 Z-0.0647
G1 X11.6537 Z-0.065
G1 X11.6662
G3 X11.6787 Y0.5 I0 J0.0125
G3 X11.4657 Y0.713 I-0.213 J0
G3 X11.2527 Y0.5 I0 J-0.213
G3 X11.4657 Y0.287 I0.213 J0
G3 X11.6787 Y0.5 I0 J0.213
G3 X11.6662 Y0.5125 I-0.0125 J0
G1 X11.6537
G1 X11.651 Z-0.0647
G1 X11.6483 Z-0.0638
G1 X11.646 Z-0.0623
G1 X11.644 Z-0.0603
G1 X11.6425 Z-0.0579
G1 X11.6416 Z-0.0553
G1 X11.6412 Z-0.0525
G0 Z0.2
G0 Y0.4875
G1 Z-0.0094 F30.
G1 Z-0.0688
G1 X11.6416 Z-0.0715 F6.1
G1 X11.6425 Z-0.0742
G1 X11.644 Z-0.0765
G1 X11.646 Z-0.0785
G1 X11.6483 Z-0.08
G1 X11.651 Z-0.0809
G1 X11.6537 Z-0.0813
G1 X11.6662
G3 X11.6787 Y0.5 I0 J0.0125
G3 X11.4657 Y0.713 I-0.213 J0
G3 X11.2527 Y0.5 I0 J-0.213
G3 X11.4657 Y0.287 I0.213 J0
G3 X11.6787 Y0.5 I0 J0.213
G3 X11.6662 Y0.5125 I-0.0125 J0
G1 X11.6537
G1 X11.651 Z-0.0809
G1 X11.6483 Z-0.08
G1 X11.646 Z-0.0785
G1 X11.644 Z-0.0765
G1 X11.6425 Z-0.0742
G1 X11.6416 Z-0.0715
G1 X11.6412 Z-0.0688
G0 Z0.2
G0 Y0.4875
G1 Z-0.0256 F30.
G1 Z-0.085
G1 X11.6416 Z-0.0878 F6.1
G1 X11.6425 Z-0.0904
G1 X11.644 Z-0.0928
G1 X11.646 Z-0.0948
G1 X11.6483 Z-0.0963
G1 X11.651 Z-0.0972
G1 X11.6537 Z-0.0975
G1 X11.6662
G3 X11.6787 Y0.5 I0 J0.0125
G3 X11.4657 Y0.713 I-0.213 J0
G3 X11.2527 Y0.5 I0 J-0.213
G3 X11.4657 Y0.287 I0.213 J0
G3 X11.6787 Y0.5 I0 J0.213
G3 X11.6662 Y0.5125 I-0.0125 J0
G1 X11.6537
G1 X11.651 Z-0.0972
G1 X11.6483 Z-0.0963
G1 X11.646 Z-0.0948
G1 X11.644 Z-0.0928
G1 X11.6425 Z-0.0904
G1 X11.6416 Z-0.0878
G1 X11.6412 Z-0.085
G0 Z0.2
G0 Y0.4875
G1 Z-0.0419 F30.
G1 Z-0.1013
G1 X11.6416 Z-0.104 F6.1
G1 X11.6425 Z-0.1067
G1 X11.644 Z-0.109
G1 X11.646 Z-0.111
G1 X11.6483 Z-0.1125
G1 X11.651 Z-0.1134
G1 X11.6537 Z-0.1138
G1 X11.6662
G3 X11.6787 Y0.5 I0 J0.0125
G3 X11.4657 Y0.713 I-0.213 J0
G3 X11.2527 Y0.5 I0 J-0.213
G3 X11.4657 Y0.287 I0.213 J0
G3 X11.6787 Y0.5 I0 J0.213
G3 X11.6662 Y0.5125 I-0.0125 J0
G1 X11.6537
G1 X11.651 Z-0.1134
G1 X11.6483 Z-0.1125
G1 X11.646 Z-0.111
G1 X11.644 Z-0.109
G1 X11.6425 Z-0.1067
G1 X11.6416 Z-0.104
G1 X11.6412 Z-0.1013
G0 Z0.2
G0 Y0.4875
G1 Z-0.0581 F30.
G1 Z-0.1175
G1 X11.6416 Z-0.1203 F6.1
G1 X11.6425 Z-0.1229
G1 X11.644 Z-0.1253
G1 X11.646 Z-0.1273
G1 X11.6483 Z-0.1288
G1 X11.651 Z-0.1297
G1 X11.6537 Z-0.13
G1 X11.6662
G3 X11.6787 Y0.5 I0 J0.0125
G3 X11.4657 Y0.713 I-0.213 J0
G3 X11.2527 Y0.5 I0 J-0.213
G3 X11.4657 Y0.287 I0.213 J0
G3 X11.6787 Y0.5 I0 J0.213
G3 X11.6662 Y0.5125 I-0.0125 J0
G1 X11.6537
G1 X11.651 Z-0.1297
G1 X11.6483 Z-0.1288
G1 X11.646 Z-0.1273
G1 X11.644 Z-0.1253
G1 X11.6425 Z-0.1229
G1 X11.6416 Z-0.1203
G1 X11.6412 Z-0.1175
G0 Z0.2
G0 Y0.4875
G1 Z-0.0744 F30.
G1 Z-0.1338
G1 X11.6416 Z-0.1365 F6.1
G1 X11.6425 Z-0.1392
G1 X11.644 Z-0.1415
G1 X11.646 Z-0.1435
G1 X11.6483 Z-0.145
G1 X11.651 Z-0.1459
G1 X11.6537 Z-0.1463
G1 X11.6662
G3 X11.6787 Y0.5 I0 J0.0125
G3 X11.4657 Y0.713 I-0.213 J0
G3 X11.2527 Y0.5 I0 J-0.213
G3 X11.4657 Y0.287 I0.213 J0
G3 X11.6787 Y0.5 I0 J0.213
G3 X11.6662 Y0.5125 I-0.0125 J0
G1 X11.6537
G1 X11.651 Z-0.1459
G1 X11.6483 Z-0.145
G1 X11.646 Z-0.1435
G1 X11.644 Z-0.1415
G1 X11.6425 Z-0.1392
G1 X11.6416 Z-0.1365
G1 X11.6412 Z-0.1338
G0 Z0.2
G0 Y0.4875
G1 Z-0.0906 F30.
G1 Z-0.1438
G1 X11.6416 Z-0.1465 F6.1
G1 X11.6425 Z-0.1492
G1 X11.644 Z-0.1515
G1 X11.646 Z-0.1535
G1 X11.6483 Z-0.155
G1 X11.651 Z-0.1559
G1 X11.6537 Z-0.1563
G1 X11.6662
G3 X11.6787 Y0.5 I0 J0.0125
G3 X11.4657 Y0.713 I-0.213 J0
G3 X11.2527 Y0.5 I0 J-0.213
G3 X11.4657 Y0.287 I0.213 J0
G3 X11.6787 Y0.5 I0 J0.213
G3 X11.6662 Y0.5125 I-0.0125 J0
G1 X11.6537
G1 X11.651 Z-0.1559
G1 X11.6483 Z-0.155
G1 X11.646 Z-0.1535
G1 X11.644 Z-0.1515
G1 X11.6425 Z-0.1492
G1 X11.6416 Z-0.1465
G1 X11.6412 Z-0.1438
G0 Z0.2
G0 X10.4092 Y0.7694
G1 Z0.0556 F30.
G1 Z-0.0038
G1 X10.4094 Y0.7697 Z-0.0065 F6.1
G1 X10.4098 Y0.7705 Z-0.0092
G1 X10.4104 Y0.7719 Z-0.0115
G1 X10.4113 Y0.7736 Z-0.0135
G1 X10.4124 Y0.7758 Z-0.015
G1 X10.4135 Y0.7781 Z-0.0159
G1 X10.4148 Y0.7806 Z-0.0163
G1 X10.4203 Y0.7919
G3 X10.4209 Y0.8014 I-0.0112 J0.0055
G3 X10.4146 Y0.8086 I-0.0118 J-0.004
G1 X10.0745 Y0.976
G3 X10.0015 Y0.9629 I-0.0276 J-0.0561
G2 X9.9899 Y0.9508 I-0.5717 J0.5396
G3 X9.9905 Y0.8624 I0.0445 J-0.0439
G3 X9.9997 Y0.855 I0.0439 J0.0445
G2 X10.2717 Y0.5891 I-0.5699 J-0.855
G3 X10.3228 Y0.5625 I0.0512 J0.0358
G1 X10.6463 Y0.5623
G3 X10.7088 Y0.6248 I0 J0.0625
G3 X10.674 Y0.6809 I-0.0625 J0
G1 X10.4146 Y0.8086
G3 X10.3978 Y0.8029 I-0.0055 J-0.0112
G1 X10.3923 Y0.7917
G1 X10.3911 Y0.7892 Z-0.0159
G1 X10.3899 Y0.7868 Z-0.015
G1 X10.3889 Y0.7847 Z-0.0135
G1 X10.388 Y0.7829 Z-0.0115
G1 X10.3873 Y0.7816 Z-0.0092
G1 X10.3869 Y0.7807 Z-0.0065
G1 X10.3868 Y0.7805 Z-0.0038
G0 Z0.2
G0 X10.4092 Y0.7694
G1 Z0.0394 F30.
G1 Z-0.02
G1 X10.4094 Y0.7697 Z-0.0228 F6.1
G1 X10.4098 Y0.7705 Z-0.0254
G1 X10.4104 Y0.7719 Z-0.0278
G1 X10.4113 Y0.7736 Z-0.0298
G1 X10.4124 Y0.7758 Z-0.0313
G1 X10.4135 Y0.7781 Z-0.0322
G1 X10.4148 Y0.7806 Z-0.0325
G1 X10.4203 Y0.7919
G3 X10.4209 Y0.8014 I-0.0112 J0.0055
G3 X10.4146 Y0.8086 I-0.0118 J-0.004
G1 X10.0745 Y0.976
G3 X10.0015 Y0.9629 I-0.0276 J-0.0561
G2 X9.9899 Y0.9508 I-0.5717 J0.5396
G3 X9.9905 Y0.8624 I0.0445 J-0.0439
G3 X9.9997 Y0.855 I0.0439 J0.0445
G2 X10.2717 Y0.5891 I-0.5699 J-0.855
G3 X10.3228 Y0.5625 I0.0512 J0.0358
G1 X10.6463 Y0.5623
G3 X10.7088 Y0.6248 I0 J0.0625
G3 X10.674 Y0.6809 I-0.0625 J0
G1 X10.4146 Y0.8086
G3 X10.3978 Y0.8029 I-0.0055 J-0.0112
G1 X10.3923 Y0.7917
G1 X10.3911 Y0.7892 Z-0.0322
G1 X10.3899 Y0.7868 Z-0.0313
G1 X10.3889 Y0.7847 Z-0.0298
G1 X10.388 Y0.7829 Z-0.0278
G1 X10.3873 Y0.7816 Z-0.0254
G1 X10.3869 Y0.7807 Z-0.0228
G1 X10.3868 Y0.7805 Z-0.02
G0 Z0.2
G0 X10.4092 Y0.7694
G1 Z0.0231 F30.
G1 Z-0.0363
G1 X10.4094 Y0.7697 Z-0.039 F6.1
G1 X10.4098 Y0.7705 Z-0.0417
G1 X10.4104 Y0.7719 Z-0.044
G1 X10.4113 Y0.7736 Z-0.046
G1 X10.4124 Y0.7758 Z-0.0475
G1 X10.4135 Y0.7781 Z-0.0484
G1 X10.4148 Y0.7806 Z-0.0488
G1 X10.4203 Y0.7919
G3 X10.4209 Y0.8014 I-0.0112 J0.0055
G3 X10.4146 Y0.8086 I-0.0118 J-0.004
G1 X10.0745 Y0.976
G3 X10.0015 Y0.9629 I-0.0276 J-0.0561
G2 X9.9899 Y0.9508 I-0.5717 J0.5396
G3 X9.9905 Y0.8624 I0.0445 J-0.0439
G3 X9.9997 Y0.855 I0.0439 J0.0445
G2 X10.2717 Y0.5891 I-0.5699 J-0.855
G3 X10.3228 Y0.5625 I0.0512 J0.0358
G1 X10.6463 Y0.5623
G3 X10.7088 Y0.6248 I0 J0.0625
G3 X10.674 Y0.6809 I-0.0625 J0
G1 X10.4146 Y0.8086
G3 X10.3978 Y0.8029 I-0.0055 J-0.0112
G1 X10.3923 Y0.7917
G1 X10.3911 Y0.7892 Z-0.0484
G1 X10.3899 Y0.7868 Z-0.0475
G1 X10.3889 Y0.7847 Z-0.046
G1 X10.388 Y0.7829 Z-0.044
G1 X10.3873 Y0.7816 Z-0.0417
G1 X10.3869 Y0.7807 Z-0.039
G1 X10.3868 Y0.7805 Z-0.0363
G0 Z0.2
G0 X10.4092 Y0.7694
G1 Z0.0069 F30.
G1 Z-0.0525
G1 X10.4094 Y0.7697 Z-0.0553 F6.1
G1 X10.4098 Y0.7705 Z-0.0579
G1 X10.4104 Y0.7719 Z-0.0603
G1 X10.4113 Y0.7736 Z-0.0623
G1 X10.4124 Y0.7758 Z-0.0638
G1 X10.4135 Y0.7781 Z-0.0647
G1 X10.4148 Y0.7806 Z-0.065
G1 X10.4203 Y0.7919
G3 X10.4209 Y0.8014 I-0.0112 J0.0055
G3 X10.4146 Y0.8086 I-0.0118 J-0.004
G1 X10.0745 Y0.976
G3 X10.0015 Y0.9629 I-0.0276 J-0.0561
G2 X9.9899 Y0.9508 I-0.5717 J0.5396
G3 X9.9905 Y0.8624 I0.0445 J-0.0439
G3 X9.9997 Y0.855 I0.0439 J0.0445
G2 X10.2717 Y0.5891 I-0.5699 J-0.855
G3 X10.3228 Y0.5625 I0.0512 J0.0358
G1 X10.6463 Y0.5623
G3 X10.7088 Y0.6248 I0 J0.0625
G3 X10.674 Y0.6809 I-0.0625 J0
G1 X10.4146 Y0.8086
G3 X10.3978 Y0.8029 I-0.0055 J-0.0112
G1 X10.3923 Y0.7917
G1 X10.3911 Y0.7892 Z-0.0647
G1 X10.3899 Y0.7868 Z-0.0638
G1 X10.3889 Y0.7847 Z-0.0623
G1 X10.388 Y0.7829 Z-0.0603
G1 X10.3873 Y0.7816 Z-0.0579
G1 X10.3869 Y0.7807 Z-0.0553
G1 X10.3868 Y0.7805 Z-0.0525
G0 Z0.2
G0 X10.4092 Y0.7694
G1 Z-0.0094 F30.
G1 Z-0.0688
G1 X10.4094 Y0.7697 Z-0.0715 F6.1
G1 X10.4098 Y0.7705 Z-0.0742
G1 X10.4104 Y0.7719 Z-0.0765
G1 X10.4113 Y0.7736 Z-0.0785
G1 X10.4124 Y0.7758 Z-0.08
G1 X10.4135 Y0.7781 Z-0.0809
G1 X10.4148 Y0.7806 Z-0.0813
G1 X10.4203 Y0.7919
G3 X10.4209 Y0.8014 I-0.0112 J0.0055
G3 X10.4146 Y0.8086 I-0.0118 J-0.004
G1 X10.0745 Y0.976
G3 X10.0015 Y0.9629 I-0.0276 J-0.0561
G2 X9.9899 Y0.9508 I-0.5717 J0.5396
G3 X9.9905 Y0.8624 I0.0445 J-0.0439
G3 X9.9997 Y0.855 I0.0439 J0.0445
G2 X10.2717 Y0.5891 I-0.5699 J-0.855
G3 X10.3228 Y0.5625 I0.0512 J0.0358
G1 X10.6463 Y0.5623
G3 X10.7088 Y0.6248 I0 J0.0625
G3 X10.674 Y0.6809 I-0.0625 J0
G1 X10.4146 Y0.8086
G3 X10.3978 Y0.8029 I-0.0055 J-0.0112
G1 X10.3923 Y0.7917
G1 X10.3911 Y0.7892 Z-0.0809
G1 X10.3899 Y0.7868 Z-0.08
G1 X10.3889 Y0.7847 Z-0.0785
G1 X10.388 Y0.7829 Z-0.0765
G1 X10.3873 Y0.7816 Z-0.0742
G1 X10.3869 Y0.7807 Z-0.0715
G1 X10.3868 Y0.7805 Z-0.0688
G0 Z0.2
G0 X10.4092 Y0.7694
G1 Z-0.0256 F30.
G1 Z-0.085
G1 X10.4094 Y0.7697 Z-0.0878 F6.1
G1 X10.4098 Y0.7705 Z-0.0904
G1 X10.4104 Y0.7719 Z-0.0928
G1 X10.4113 Y0.7736 Z-0.0948
G1 X10.4124 Y0.7758 Z-0.0963
G1 X10.4135 Y0.7781 Z-0.0972
G1 X10.4148 Y0.7806 Z-0.0975
G1 X10.4203 Y0.7919
G3 X10.4209 Y0.8014 I-0.0112 J0.0055
G3 X10.4146 Y0.8086 I-0.0118 J-0.004
G1 X10.0745 Y0.976
G3 X10.0015 Y0.9629 I-0.0276 J-0.0561
G2 X9.9899 Y0.9508 I-0.5717 J0.5396
G3 X9.9905 Y0.8624 I0.0445 J-0.0439
G3 X9.9997 Y0.855 I0.0439 J0.0445
G2 X10.2717 Y0.5891 I-0.5699 J-0.855
G3 X10.3228 Y0.5625 I0.0512 J0.0358
G1 X10.6463 Y0.5623
G3 X10.7088 Y0.6248 I0 J0.0625
G3 X10.674 Y0.6809 I-0.0625 J0
G1 X10.4146 Y0.8086
G3 X10.3978 Y0.8029 I-0.0055 J-0.0112
G1 X10.3923 Y0.7917
G1 X10.3911 Y0.7892 Z-0.0972
G1 X10.3899 Y0.7868 Z-0.0963
G1 X10.3889 Y0.7847 Z-0.0948
G1 X10.388 Y0.7829 Z-0.0928
G1 X10.3873 Y0.7816 Z-0.0904
G1 X10.3869 Y0.7807 Z-0.0878
G1 X10.3868 Y0.7805 Z-0.085
G0 Z0.2
G0 X10.4092 Y0.7694
G1 Z-0.0419 F30.
G1 Z-0.1013
G1 X10.4094 Y0.7697 Z-0.104 F6.1
G1 X10.4098 Y0.7705 Z-0.1067
G1 X10.4104 Y0.7719 Z-0.109
G1 X10.4113 Y0.7736 Z-0.111
G1 X10.4124 Y0.7758 Z-0.1125
G1 X10.4135 Y0.7781 Z-0.1134
G1 X10.4148 Y0.7806 Z-0.1138
G1 X10.4203 Y0.7919
G3 X10.4209 Y0.8014 I-0.0112 J0.0055
G3 X10.4146 Y0.8086 I-0.0118 J-0.004
G1 X10.0745 Y0.976
G3 X10.0015 Y0.9629 I-0.0276 J-0.0561
G2 X9.9899 Y0.9508 I-0.5717 J0.5396
G3 X9.9905 Y0.8624 I0.0445 J-0.0439
G3 X9.9997 Y0.855 I0.0439 J0.0445
G2 X10.2717 Y0.5891 I-0.5699 J-0.855
G3 X10.3228 Y0.5625 I0.0512 J0.0358
G1 X10.6463 Y0.5623
G3 X10.7088 Y0.6248 I0 J0.0625
G3 X10.674 Y0.6809 I-0.0625 J0
G1 X10.4146 Y0.8086
G3 X10.3978 Y0.8029 I-0.0055 J-0.0112
G1 X10.3923 Y0.7917
G1 X10.3911 Y0.7892 Z-0.1134
G1 X10.3899 Y0.7868 Z-0.1125
G1 X10.3889 Y0.7847 Z-0.111
G1 X10.388 Y0.7829 Z-0.109
G1 X10.3873 Y0.7816 Z-0.1067
G1 X10.3869 Y0.7807 Z-0.104
G1 X10.3868 Y0.7805 Z-0.1013
G0 Z0.2
G0 X10.4092 Y0.7694
G1 Z-0.0581 F30.
G1 Z-0.1175
G1 X10.4094 Y0.7697 Z-0.1203 F6.1
G1 X10.4098 Y0.7705 Z-0.1229
G1 X10.4104 Y0.7719 Z-0.1253
G1 X10.4113 Y0.7736 Z-0.1273
G1 X10.4124 Y0.7758 Z-0.1288
G1 X10.4135 Y0.7781 Z-0.1297
G1 X10.4148 Y0.7806 Z-0.13
G1 X10.4203 Y0.7919
G3 X10.4209 Y0.8014 I-0.0112 J0.0055
G3 X10.4146 Y0.8086 I-0.0118 J-0.004
G1 X10.0745 Y0.976
G3 X10.0015 Y0.9629 I-0.0276 J-0.0561
G2 X9.9899 Y0.9508 I-0.5717 J0.5396
G3 X9.9905 Y0.8624 I0.0445 J-0.0439
G3 X9.9997 Y0.855 I0.0439 J0.0445
G2 X10.2717 Y0.5891 I-0.5699 J-0.855
G3 X10.3228 Y0.5625 I0.0512 J0.0358
G1 X10.6463 Y0.5623
G3 X10.7088 Y0.6248 I0 J0.0625
G3 X10.674 Y0.6809 I-0.0625 J0
G1 X10.4146 Y0.8086
G3 X10.3978 Y0.8029 I-0.0055 J-0.0112
G1 X10.3923 Y0.7917
G1 X10.3911 Y0.7892 Z-0.1297
G1 X10.3899 Y0.7868 Z-0.1288
G1 X10.3889 Y0.7847 Z-0.1273
G1 X10.388 Y0.7829 Z-0.1253
G1 X10.3873 Y0.7816 Z-0.1229
G1 X10.3869 Y0.7807 Z-0.1203
G1 X10.3868 Y0.7805 Z-0.1175
G0 Z0.2
G0 X10.4092 Y0.7694
G1 Z-0.0744 F30.
G1 Z-0.1338
G1 X10.4094 Y0.7697 Z-0.1365 F6.1
G1 X10.4098 Y0.7705 Z-0.1392
G1 X10.4104 Y0.7719 Z-0.1415
G1 X10.4113 Y0.7736 Z-0.1435
G1 X10.4124 Y0.7758 Z-0.145
G1 X10.4135 Y0.7781 Z-0.1459
G1 X10.4148 Y0.7806 Z-0.1463
G1 X10.4203 Y0.7919
G3 X10.4209 Y0.8014 I-0.0112 J0.0055
G3 X10.4146 Y0.8086 I-0.0118 J-0.004
G1 X10.0745 Y0.976
G3 X10.0015 Y0.9629 I-0.0276 J-0.0561
G2 X9.9899 Y0.9508 I-0.5717 J0.5396
G3 X9.9905 Y0.8624 I0.0445 J-0.0439
G3 X9.9997 Y0.855 I0.0439 J0.0445
G2 X10.2717 Y0.5891 I-0.5699 J-0.855
G3 X10.3228 Y0.5625 I0.0512 J0.0358
G1 X10.6463 Y0.5623
G3 X10.7088 Y0.6248 I0 J0.0625
G3 X10.674 Y0.6809 I-0.0625 J0
G1 X10.4146 Y0.8086
G3 X10.3978 Y0.8029 I-0.0055 J-0.0112
G1 X10.3923 Y0.7917
G1 X10.3911 Y0.7892 Z-0.1459
G1 X10.3899 Y0.7868 Z-0.145
G1 X10.3889 Y0.7847 Z-0.1435
G1 X10.388 Y0.7829 Z-0.1415
G1 X10.3873 Y0.7816 Z-0.1392
G1 X10.3869 Y0.7807 Z-0.1365
G1 X10.3868 Y0.7805 Z-0.1338
G0 Z0.2
G0 X10.4092 Y0.7694
G1 Z-0.0906 F30.
G1 Z-0.1438
G1 X10.4094 Y0.7697 Z-0.1465 F6.1
G1 X10.4098 Y0.7705 Z-0.1492
G1 X10.4104 Y0.7719 Z-0.1515
G1 X10.4113 Y0.7736 Z-0.1535
G1 X10.4124 Y0.7758 Z-0.155
G1 X10.4135 Y0.7781 Z-0.1559
G1 X10.4148 Y0.7806 Z-0.1563
G1 X10.4203 Y0.7919
G3 X10.4209 Y0.8014 I-0.0112 J0.0055
G3 X10.4146 Y0.8086 I-0.0118 J-0.004
G1 X10.0745 Y0.976
G3 X10.0015 Y0.9629 I-0.0276 J-0.0561
G2 X9.9899 Y0.9508 I-0.5717 J0.5396
G3 X9.9905 Y0.8624 I0.0445 J-0.0439
G3 X9.9997 Y0.855 I0.0439 J0.0445
G2 X10.2717 Y0.5891 I-0.5699 J-0.855
G3 X10.3228 Y0.5625 I0.0512 J0.0358
G1 X10.6463 Y0.5623
G3 X10.7088 Y0.6248 I0 J0.0625
G3 X10.674 Y0.6809 I-0.0625 J0
G1 X10.4146 Y0.8086
G3 X10.3978 Y0.8029 I-0.0055 J-0.0112
G1 X10.3923 Y0.7917
G1 X10.3911 Y0.7892 Z-0.1559
G1 X10.3899 Y0.7868 Z-0.155
G1 X10.3889 Y0.7847 Z-0.1535
G1 X10.388 Y0.7829 Z-0.1515
G1 X10.3873 Y0.7816 Z-0.1492
G1 X10.3869 Y0.7807 Z-0.1465
G1 X10.3868 Y0.7805 Z-0.1438
G0 Z0.2
G0 X4.9637 Y1.592
G1 Z0.0556 F30.
G1 Z-0.0038
G1 X4.9638 Y1.5923 Z-0.0065 F6.1
G1 X4.9641 Y1.5931 Z-0.0092
G1 X4.9647 Y1.5945 Z-0.0115
G1 X4.9654 Y1.5963 Z-0.0135
G1 X4.9663 Y1.5985 Z-0.015
G1 X4.9674 Y1.601 Z-0.0159
G1 X4.9684 Y1.6035 Z-0.0163
G1 X4.9732 Y1.6151
G3 X4.9663 Y1.6314 I-0.0116 J0.0048
G1 X4.7027 Y1.7398
G2 X4.2737 Y1.5372 I-0.4442 J0.3852
G2 X3.8348 Y1.7173 I-0.0152 J0.5878
G1 X2.5718 Y1.1203
G3 X2.5375 Y1.0503 I0.0267 J-0.0565
G2 X2.5547 Y0.9492 I-1.0375 J-0.2293
G3 X2.6103 Y0.8945 I0.062 J0.0075
G1 X5.8143 Y0.5628
G1 X5.8175 Y0.5626
G1 X5.8207 Y0.5625
G1 X7.2511
G3 X7.3136 Y0.625 I0 J0.0625
G3 X7.2749 Y0.6828 I-0.0625 J0
G1 X4.9663 Y1.6314
G3 X4.9568 I-0.0048 J-0.0116
G3 X4.95 Y1.6246 I0.0048 J-0.0115
G1 X4.9453 Y1.6131
G1 X4.9442 Y1.6105 Z-0.0159
G1 X4.9432 Y1.608 Z-0.015
G1 X4.9423 Y1.6058 Z-0.0135
G1 X4.9416 Y1.604 Z-0.0115
G1 X4.941 Y1.6026 Z-0.0092
G1 X4.9407 Y1.6018 Z-0.0065
G1 X4.9405 Y1.6015 Z-0.0038
G0 Z0.2
G0 X4.9637 Y1.592
G1 Z0.0394 F30.
G1 Z-0.02
G1 X4.9638 Y1.5923 Z-0.0228 F6.1
G1 X4.9641 Y1.5931 Z-0.0254
G1 X4.9647 Y1.5945 Z-0.0278
G1 X4.9654 Y1.5963 Z-0.0298
G1 X4.9663 Y1.5985 Z-0.0313
G1 X4.9674 Y1.601 Z-0.0322
G1 X4.9684 Y1.6035 Z-0.0325
G1 X4.9732 Y1.6151
G3 X4.9663 Y1.6314 I-0.0116 J0.0048
G1 X4.7027 Y1.7398
G2 X4.2737 Y1.5372 I-0.4442 J0.3852
G2 X3.8348 Y1.7173 I-0.0152 J0.5878
G1 X2.5718 Y1.1203
G3 X2.5375 Y1.0503 I0.0267 J-0.0565
G2 X2.5547 Y0.9492 I-1.0375 J-0.2293
G3 X2.6103 Y0.8945 I0.062 J0.0075
G1 X5.8143 Y0.5628
G1 X5.8175 Y0.5626
G1 X5.8207 Y0.5625
G1 X7.2511
G3 X7.3136 Y0.625 I0 J0.0625
G3 X7.2749 Y0.6828 I-0.0625 J0
G1 X4.9663 Y1.6314
G3 X4.9568 I-0.0048 J-0.0116
G3 X4.95 Y1.6246 I0.0048 J-0.0115
G1 X4.9453 Y1.6131
G1 X4.9442 Y1.6105 Z-0.0322
G1 X4.9432 Y1.608 Z-0.0313
G1 X4.9423 Y1.6058 Z-0.0298
G1 X4.9416 Y1.604 Z-0.0278
G1 X4.941 Y1.6026 Z-0.0254
G1 X4.9407 Y1.6018 Z-0.0228
G1 X4.9405 Y1.6015 Z-0.02
G0 Z0.2
G0 X4.9637 Y1.592
G1 Z0.0231 F30.
G1 Z-0.0363
G1 X4.9638 Y1.5923 Z-0.039 F6.1
G1 X4.9641 Y1.5931 Z-0.0417
G1 X4.9647 Y1.5945 Z-0.044
G1 X4.9654 Y1.5963 Z-0.046
G1 X4.9663 Y1.5985 Z-0.0475
G1 X4.9674 Y1.601 Z-0.0484
G1 X4.9684 Y1.6035 Z-0.0488
G1 X4.9732 Y1.6151
G3 X4.9663 Y1.6314 I-0.0116 J0.0048
G1 X4.7027 Y1.7398
G2 X4.2737 Y1.5372 I-0.4442 J0.3852
G2 X3.8348 Y1.7173 I-0.0152 J0.5878
G1 X2.5718 Y1.1203
G3 X2.5375 Y1.0503 I0.0267 J-0.0565
G2 X2.5547 Y0.9492 I-1.0375 J-0.2293
G3 X2.6103 Y0.8945 I0.062 J0.0075
G1 X5.8143 Y0.5628
G1 X5.8175 Y0.5626
G1 X5.8207 Y0.5625
G1 X7.2511
G3 X7.3136 Y0.625 I0 J0.0625
G3 X7.2749 Y0.6828 I-0.0625 J0
G1 X4.9663 Y1.6314
G3 X4.9568 I-0.0048 J-0.0116
G3 X4.95 Y1.6246 I0.0048 J-0.0115
G1 X4.9453 Y1.6131
G1 X4.9442 Y1.6105 Z-0.0484
G1 X4.9432 Y1.608 Z-0.0475
G1 X4.9423 Y1.6058 Z-0.046
G1 X4.9416 Y1.604 Z-0.044
G1 X4.941 Y1.6026 Z-0.0417
G1 X4.9407 Y1.6018 Z-0.039
G1 X4.9405 Y1.6015 Z-0.0363
G0 Z0.2
G0 X4.9637 Y1.592
G1 Z0.0069 F30.
G1 Z-0.0525
G1 X4.9638 Y1.5923 Z-0.0553 F6.1
G1 X4.9641 Y1.5931 Z-0.0579
G1 X4.9647 Y1.5945 Z-0.0603
G1 X4.9654 Y1.5963 Z-0.0623
G1 X4.9663 Y1.5985 Z-0.0638
G1 X4.9674 Y1.601 Z-0.0647
G1 X4.9684 Y1.6035 Z-0.065
G1 X4.9732 Y1.6151
G3 X4.9663 Y1.6314 I-0.0116 J0.0048
G1 X4.7027 Y1.7398
G2 X4.2737 Y1.5372 I-0.4442 J0.3852
G2 X3.8348 Y1.7173 I-0.0152 J0.5878
G1 X2.5718 Y1.1203
G3 X2.5375 Y1.0503 I0.0267 J-0.0565
G2 X2.5547 Y0.9492 I-1.0375 J-0.2293
G3 X2.6103 Y0.8945 I0.062 J0.0075
G1 X5.8143 Y0.5628
G1 X5.8175 Y0.5626
G1 X5.8207 Y0.5625
G1 X7.2511
G3 X7.3136 Y0.625 I0 J0.0625
G3 X7.2749 Y0.6828 I-0.0625 J0
G1 X4.9663 Y1.6314
G3 X4.9568 I-0.0048 J-0.0116
G3 X4.95 Y1.6246 I0.0048 J-0.0115
G1 X4.9453 Y1.6131
G1 X4.9442 Y1.6105 Z-0.0647
G1 X4.9432 Y1.608 Z-0.0638
G1 X4.9423 Y1.6058 Z-0.0623
G1 X4.9416 Y1.604 Z-0.0603
G1 X4.941 Y1.6026 Z-0.0579
G1 X4.9407 Y1.6018 Z-0.0553
G1 X4.9405 Y1.6015 Z-0.0525
G0 Z0.2
G0 X4.9637 Y1.592
G1 Z-0.0094 F30.
G1 Z-0.0688
G1 X4.9638 Y1.5923 Z-0.0715 F6.1
G1 X4.9641 Y1.5931 Z-0.0742
G1 X4.9647 Y1.5945 Z-0.0765
G1 X4.9654 Y1.5963 Z-0.0785
G1 X4.9663 Y1.5985 Z-0.08
G1 X4.9674 Y1.601 Z-0.0809
G1 X4.9684 Y1.6035 Z-0.0813
G1 X4.9732 Y1.6151
G3 X4.9663 Y1.6314 I-0.0116 J0.0048
G1 X4.7027 Y1.7398
G2 X4.2737 Y1.5372 I-0.4442 J0.3852
G2 X3.8348 Y1.7173 I-0.0152 J0.5878
G1 X2.5718 Y1.1203
G3 X2.5375 Y1.0503 I0.0267 J-0.0565
G2 X2.5547 Y0.9492 I-1.0375 J-0.2293
G3 X2.6103 Y0.8945 I0.062 J0.0075
G1 X5.8143 Y0.5628
G1 X5.8175 Y0.5626
G1 X5.8207 Y0.5625
G1 X7.2511
G3 X7.3136 Y0.625 I0 J0.0625
G3 X7.2749 Y0.6828 I-0.0625 J0
G1 X4.9663 Y1.6314
G3 X4.9568 I-0.0048 J-0.0116
G3 X4.95 Y1.6246 I0.0048 J-0.0115
G1 X4.9453 Y1.6131
G1 X4.9442 Y1.6105 Z-0.0809
G1 X4.9432 Y1.608 Z-0.08
G1 X4.9423 Y1.6058 Z-0.0785
G1 X4.9416 Y1.604 Z-0.0765
G1 X4.941 Y1.6026 Z-0.0742
G1 X4.9407 Y1.6018 Z-0.0715
G1 X4.9405 Y1.6015 Z-0.0688
G0 Z0.2
G0 X4.9637 Y1.592
G1 Z-0.0256 F30.
G1 Z-0.085
G1 X4.9638 Y1.5923 Z-0.0878 F6.1
G1 X4.9641 Y1.5931 Z-0.0904
G1 X4.9647 Y1.5945 Z-0.0928
G1 X4.9654 Y1.5963 Z-0.0948
G1 X4.9663 Y1.5985 Z-0.0963
G1 X4.9674 Y1.601 Z-0.0972
G1 X4.9684 Y1.6035 Z-0.0975
G1 X4.9732 Y1.6151
G3 X4.9663 Y1.6314 I-0.0116 J0.0048
G1 X4.7027 Y1.7398
G2 X4.2737 Y1.5372 I-0.4442 J0.3852
G2 X3.8348 Y1.7173 I-0.0152 J0.5878
G1 X2.5718 Y1.1203
G3 X2.5375 Y1.0503 I0.0267 J-0.0565
G2 X2.5547 Y0.9492 I-1.0375 J-0.2293
G3 X2.6103 Y0.8945 I0.062 J0.0075
G1 X5.8143 Y0.5628
G1 X5.8175 Y0.5626
G1 X5.8207 Y0.5625
G1 X7.2511
G3 X7.3136 Y0.625 I0 J0.0625
G3 X7.2749 Y0.6828 I-0.0625 J0
G1 X4.9663 Y1.6314
G3 X4.9568 I-0.0048 J-0.0116
G3 X4.95 Y1.6246 I0.0048 J-0.0115
G1 X4.9453 Y1.6131
G1 X4.9442 Y1.6105 Z-0.0972
G1 X4.9432 Y1.608 Z-0.0963
G1 X4.9423 Y1.6058 Z-0.0948
G1 X4.9416 Y1.604 Z-0.0928
G1 X4.941 Y1.6026 Z-0.0904
G1 X4.9407 Y1.6018 Z-0.0878
G1 X4.9405 Y1.6015 Z-0.085
G0 Z0.2
G0 X4.9637 Y1.592
G1 Z-0.0419 F30.
G1 Z-0.1013
G1 X4.9638 Y1.5923 Z-0.104 F6.1
G1 X4.9641 Y1.5931 Z-0.1067
G1 X4.9647 Y1.5945 Z-0.109
G1 X4.9654 Y1.5963 Z-0.111
G1 X4.9663 Y1.5985 Z-0.1125
G1 X4.9674 Y1.601 Z-0.1134
G1 X4.9684 Y1.6035 Z-0.1138
G1 X4.9732 Y1.6151
G3 X4.9663 Y1.6314 I-0.0116 J0.0048
G1 X4.7027 Y1.7398
G2 X4.2737 Y1.5372 I-0.4442 J0.3852
G2 X3.8348 Y1.7173 I-0.0152 J0.5878
G1 X2.5718 Y1.1203
G3 X2.5375 Y1.0503 I0.0267 J-0.0565
G2 X2.5547 Y0.9492 I-1.0375 J-0.2293
G3 X2.6103 Y0.8945 I0.062 J0.0075
G1 X5.8143 Y0.5628
G1 X5.8175 Y0.5626
G1 X5.8207 Y0.5625
G1 X7.2511
G3 X7.3136 Y0.625 I0 J0.0625
G3 X7.2749 Y0.6828 I-0.0625 J0
G1 X4.9663 Y1.6314
G3 X4.9568 I-0.0048 J-0.0116
G3 X4.95 Y1.6246 I0.0048 J-0.0115
G1 X4.9453 Y1.6131
G1 X4.9442 Y1.6105 Z-0.1134
G1 X4.9432 Y1.608 Z-0.1125
G1 X4.9423 Y1.6058 Z-0.111
G1 X4.9416 Y1.604 Z-0.109
G1 X4.941 Y1.6026 Z-0.1067
G1 X4.9407 Y1.6018 Z-0.104
G1 X4.9405 Y1.6015 Z-0.1013
G0 Z0.2
G0 X4.9637 Y1.592
G1 Z-0.0581 F30.
G1 Z-0.1175
G1 X4.9638 Y1.5923 Z-0.1203 F6.1
G1 X4.9641 Y1.5931 Z-0.1229
G1 X4.9647 Y1.5945 Z-0.1253
G1 X4.9654 Y1.5963 Z-0.1273
G1 X4.9663 Y1.5985 Z-0.1288
G1 X4.9674 Y1.601 Z-0.1297
G1 X4.9684 Y1.6035 Z-0.13
G1 X4.9732 Y1.6151
G3 X4.9663 Y1.6314 I-0.0116 J0.0048
G1 X4.7027 Y1.7398
G2 X4.2737 Y1.5372 I-0.4442 J0.3852
G2 X3.8348 Y1.7173 I-0.0152 J0.5878
G1 X2.5718 Y1.1203
G3 X2.5375 Y1.0503 I0.0267 J-0.0565
G2 X2.5547 Y0.9492 I-1.0375 J-0.2293
G3 X2.6103 Y0.8945 I0.062 J0.0075
G1 X5.8143 Y0.5628
G1 X5.8175 Y0.5626
G1 X5.8207 Y0.5625
G1 X7.2511
G3 X7.3136 Y0.625 I0 J0.0625
G3 X7.2749 Y0.6828 I-0.0625 J0
G1 X4.9663 Y1.6314
G3 X4.9568 I-0.0048 J-0.0116
G3 X4.95 Y1.6246 I0.0048 J-0.0115
G1 X4.9453 Y1.6131
G1 X4.9442 Y1.6105 Z-0.1297
G1 X4.9432 Y1.608 Z-0.1288
G1 X4.9423 Y1.6058 Z-0.1273
G1 X4.9416 Y1.604 Z-0.1253
G1 X4.941 Y1.6026 Z-0.1229
G1 X4.9407 Y1.6018 Z-0.1203
G1 X4.9405 Y1.6015 Z-0.1175
G0 Z0.2
G0 X4.9637 Y1.592
G1 Z-0.0744 F30.
G1 Z-0.1338
G1 X4.9638 Y1.5923 Z-0.1365 F6.1
G1 X4.9641 Y1.5931 Z-0.1392
G1 X4.9647 Y1.5945 Z-0.1415
G1 X4.9654 Y1.5963 Z-0.1435
G1 X4.9663 Y1.5985 Z-0.145
G1 X4.9674 Y1.601 Z-0.1459
G1 X4.9684 Y1.6035 Z-0.1463
G1 X4.9732 Y1.6151
G3 X4.9663 Y1.6314 I-0.0116 J0.0048
G1 X4.7027 Y1.7398
G2 X4.2737 Y1.5372 I-0.4442 J0.3852
G2 X3.8348 Y1.7173 I-0.0152 J0.5878
G1 X2.5718 Y1.1203
G3 X2.5375 Y1.0503 I0.0267 J-0.0565
G2 X2.5547 Y0.9492 I-1.0375 J-0.2293
G3 X2.6103 Y0.8945 I0.062 J0.0075
G1 X5.8143 Y0.5628
G1 X5.8175 Y0.5626
G1 X5.8207 Y0.5625
G1 X7.2511
G3 X7.3136 Y0.625 I0 J0.0625
G3 X7.2749 Y0.6828 I-0.0625 J0
G1 X4.9663 Y1.6314
G3 X4.9568 I-0.0048 J-0.0116
G3 X4.95 Y1.6246 I0.0048 J-0.0115
G1 X4.9453 Y1.6131
G1 X4.9442 Y1.6105 Z-0.1459
G1 X4.9432 Y1.608 Z-0.145
G1 X4.9423 Y1.6058 Z-0.1435
G1 X4.9416 Y1.604 Z-0.1415
G1 X4.941 Y1.6026 Z-0.1392
G1 X4.9407 Y1.6018 Z-0.1365
G1 X4.9405 Y1.6015 Z-0.1338
G0 Z0.2
G0 X4.9637 Y1.592
G1 Z-0.0906 F30.
G1 Z-0.1438
G1 X4.9638 Y1.5923 Z-0.1465 F6.1
G1 X4.9641 Y1.5931 Z-0.1492
G1 X4.9647 Y1.5945 Z-0.1515
G1 X4.9654 Y1.5963 Z-0.1535
G1 X4.9663 Y1.5985 Z-0.155
G1 X4.9674 Y1.601 Z-0.1559
G1 X4.9684 Y1.6035 Z-0.1563
G1 X4.9732 Y1.6151
G3 X4.9663 Y1.6314 I-0.0116 J0.0048
G1 X4.7027 Y1.7398
G2 X4.2737 Y1.5372 I-0.4442 J0.3852
G2 X3.8348 Y1.7173 I-0.0152 J0.5878
G1 X2.5718 Y1.1203
G3 X2.5375 Y1.0503 I0.0267 J-0.0565
G2 X2.5547 Y0.9492 I-1.0375 J-0.2293
G3 X2.6103 Y0.8945 I0.062 J0.0075
G1 X5.8143 Y0.5628
G1 X5.8175 Y0.5626
G1 X5.8207 Y0.5625
G1 X7.2511
G3 X7.3136 Y0.625 I0 J0.0625
G3 X7.2749 Y0.6828 I-0.0625 J0
G1 X4.9663 Y1.6314
G3 X4.9568 I-0.0048 J-0.0116
G3 X4.95 Y1.6246 I0.0048 J-0.0115
G1 X4.9453 Y1.6131
G1 X4.9442 Y1.6105 Z-0.1559
G1 X4.9432 Y1.608 Z-0.155
G1 X4.9423 Y1.6058 Z-0.1535
G1 X4.9416 Y1.604 Z-0.1515
G1 X4.941 Y1.6026 Z-0.1492
G1 X4.9407 Y1.6018 Z-0.1465
G1 X4.9405 Y1.6015 Z-0.1438
G0 Z0.2
G0 X4.4343 Y2.1168
G1 Z0.0556 F30.
G1 Z-0.0038
G1 X4.4346 Z-0.0065 F6.1
G1 X4.4355 Z-0.0092
G1 X4.437 Y2.1169 Z-0.0115
G1 X4.439 Z-0.0135
G1 X4.4413 Y2.117 Z-0.015
G1 X4.444 Z-0.0159
G1 X4.4468 Y2.1171 Z-0.0163
G1 X4.4593 Y2.1174
G3 X4.4714 Y2.1302 I-0.0003 J0.0125
G3 X4.2533 Y2.3379 I-0.2129 J-0.0052
G3 X4.0456 Y2.1198 I0.0052 J-0.2129
G3 X4.2637 Y1.9121 I0.2129 J0.0052
G3 X4.4714 Y2.1302 I-0.0052 J0.2129
G3 X4.4586 Y2.1424 I-0.0125 J-0.0003
G1 X4.4461 Y2.1421
G1 X4.4434 Y2.142 Z-0.0159
G1 X4.4407 Z-0.015
G1 X4.4383 Y2.1419 Z-0.0135
G1 X4.4364 Z-0.0115
G1 X4.4349 Y2.1418 Z-0.0092
G1 X4.434 Z-0.0065
G1 X4.4336 Z-0.0038
G0 Z0.2
G0 X4.4343 Y2.1168
G1 Z0.0394 F30.
G1 Z-0.02
G1 X4.4346 Z-0.0228 F6.1
G1 X4.4355 Z-0.0254
G1 X4.437 Y2.1169 Z-0.0278
G1 X4.439 Z-0.0298
G1 X4.4413 Y2.117 Z-0.0313
G1 X4.444 Z-0.0322
G1 X4.4468 Y2.1171 Z-0.0325
G1 X4.4593 Y2.1174
G3 X4.4714 Y2.1302 I-0.0003 J0.0125
G3 X4.2533 Y2.3379 I-0.2129 J-0.0052
G3 X4.0456 Y2.1198 I0.0052 J-0.2129
G3 X4.2637 Y1.9121 I0.2129 J0.0052
G3 X4.4714 Y2.1302 I-0.0052 J0.2129
G3 X4.4586 Y2.1424 I-0.0125 J-0.0003
G1 X4.4461 Y2.1421
G1 X4.4434 Y2.142 Z-0.0322
G1 X4.4407 Z-0.0313
G1 X4.4383 Y2.1419 Z-0.0298
G1 X4.4364 Z-0.0278
G1 X4.4349 Y2.1418 Z-0.0254
G1 X4.434 Z-0.0228
G1 X4.4336 Z-0.02
G0 Z0.2
G0 X4.4343 Y2.1168
G1 Z0.0231 F30.
G1 Z-0.0363
G1 X4.4346 Z-0.039 F6.1
G1 X4.4355 Z-0.0417
G1 X4.437 Y2.1169 Z-0.044
G1 X4.439 Z-0.046
G1 X4.4413 Y2.117 Z-0.0475
G1 X4.444 Z-0.0484
G1 X4.4468 Y2.1171 Z-0.0488
G1 X4.4593 Y2.1174
G3 X4.4714 Y2.1302 I-0.0003 J0.0125
G3 X4.2533 Y2.3379 I-0.2129 J-0.0052
G3 X4.0456 Y2.1198 I0.0052 J-0.2129
G3 X4.2637 Y1.9121 I0.2129 J0.0052
G3 X4.4714 Y2.1302 I-0.0052 J0.2129
G3 X4.4586 Y2.1424 I-0.0125 J-0.0003
G1 X4.4461 Y2.1421
G1 X4.4434 Y2.142 Z-0.0484
G1 X4.4407 Z-0.0475
G1 X4.4383 Y2.1419 Z-0.046
G1 X4.4364 Z-0.044
G1 X4.4349 Y2.1418 Z-0.0417
G1 X4.434 Z-0.039
G1 X4.4336 Z-0.0363
G0 Z0.2
G0 X4.4343 Y2.1168
G1 Z0.0069 F30.
G1 Z-0.0525
G1 X4.4346 Z-0.0553 F6.1
G1 X4.4355 Z-0.0579
G1 X4.437 Y2.1169 Z-0.0603
G1 X4.439 Z-0.0623
G1 X4.4413 Y2.117 Z-0.0638
G1 X4.444 Z-0.0647
G1 X4.4468 Y2.1171 Z-0.065
G1 X4.4593 Y2.1174
G3 X4.4714 Y2.1302 I-0.0003 J0.0125
G3 X4.2533 Y2.3379 I-0.2129 J-0.0052
G3 X4.0456 Y2.1198 I0.0052 J-0.2129
G3 X4.2637 Y1.9121 I0.2129 J0.0052
G3 X4.4714 Y2.1302 I-0.0052 J0.2129
G3 X4.4586 Y2.1424 I-0.0125 J-0.0003
G1 X4.4461 Y2.1421
G1 X4.4434 Y2.142 Z-0.0647
G1 X4.4407 Z-0.0638
G1 X4.4383 Y2.1419 Z-0.0623
G1 X4.4364 Z-0.0603
G1 X4.4349 Y2.1418 Z-0.0579
G1 X4.434 Z-0.0553
G1 X4.4336 Z-0.0525
G0 Z0.2
G0 X4.4343 Y2.1168
G1 Z-0.0094 F30.
G1 Z-0.0688
G1 X4.4346 Z-0.0715 F6.1
G1 X4.4355 Z-0.0742
G1 X4.437 Y2.1169 Z-0.0765
G1 X4.439 Z-0.0785
G1 X4.4413 Y2.117 Z-0.08
G1 X4.444 Z-0.0809
G1 X4.4468 Y2.1171 Z-0.0813
G1 X4.4593 Y2.1174
G3 X4.4714 Y2.1302 I-0.0003 J0.0125
G3 X4.2533 Y2.3379 I-0.2129 J-0.0052
G3 X4.0456 Y2.1198 I0.0052 J-0.2129
G3 X4.2637 Y1.9121 I0.2129 J0.0052
G3 X4.4714 Y2.1302 I-0.0052 J0.2129
G3 X4.4586 Y2.1424 I-0.0125 J-0.0003
G1 X4.4461 Y2.1421
G1 X4.4434 Y2.142 Z-0.0809
G1 X4.4407 Z-0.08
G1 X4.4383 Y2.1419 Z-0.0785
G1 X4.4364 Z-0.0765
G1 X4.4349 Y2.1418 Z-0.0742
G1 X4.434 Z-0.0715
G1 X4.4336 Z-0.0688
G0 Z0.2
G0 X4.4343 Y2.1168
G1 Z-0.0256 F30.
G1 Z-0.085
G1 X4.4346 Z-0.0878 F6.1
G1 X4.4355 Z-0.0904
G1 X4.437 Y2.1169 Z-0.0928
G1 X4.439 Z-0.0948
G1 X4.4413 Y2.117 Z-0.0963
G1 X4.444 Z-0.0972
G1 X4.4468 Y2.1171 Z-0.0975
G1 X4.4593 Y2.1174
G3 X4.4714 Y2.1302 I-0.0003 J0.0125
G3 X4.2533 Y2.3379 I-0.2129 J-0.0052
G3 X4.0456 Y2.1198 I0.0052 J-0.2129
G3 X4.2637 Y1.9121 I0.2129 J0.0052
G3 X4.4714 Y2.1302 I-0.0052 J0.2129
G3 X4.4586 Y2.1424 I-0.0125 J-0.0003
G1 X4.4461 Y2.1421
G1 X4.4434 Y2.142 Z-0.0972
G1 X4.4407 Z-0.0963
G1 X4.4383 Y2.1419 Z-0.0948
G1 X4.4364 Z-0.0928
G1 X4.4349 Y2.1418 Z-0.0904
G1 X4.434 Z-0.0878
G1 X4.4336 Z-0.085
G0 Z0.2
G0 X4.4343 Y2.1168
G1 Z-0.0419 F30.
G1 Z-0.1013
G1 X4.4346 Z-0.104 F6.1
G1 X4.4355 Z-0.1067
G1 X4.437 Y2.1169 Z-0.109
G1 X4.439 Z-0.111
G1 X4.4413 Y2.117 Z-0.1125
G1 X4.444 Z-0.1134
G1 X4.4468 Y2.1171 Z-0.1138
G1 X4.4593 Y2.1174
G3 X4.4714 Y2.1302 I-0.0003 J0.0125
G3 X4.2533 Y2.3379 I-0.2129 J-0.0052
G3 X4.0456 Y2.1198 I0.0052 J-0.2129
G3 X4.2637 Y1.9121 I0.2129 J0.0052
G3 X4.4714 Y2.1302 I-0.0052 J0.2129
G3 X4.4586 Y2.1424 I-0.0125 J-0.0003
G1 X4.4461 Y2.1421
G1 X4.4434 Y2.142 Z-0.1134
G1 X4.4407 Z-0.1125
G1 X4.4383 Y2.1419 Z-0.111
G1 X4.4364 Z-0.109
G1 X4.4349 Y2.1418 Z-0.1067
G1 X4.434 Z-0.104
G1 X4.4336 Z-0.1013
G0 Z0.2
G0 X4.4343 Y2.1168
G1 Z-0.0581 F30.
G1 Z-0.1175
G1 X4.4346 Z-0.1203 F6.1
G1 X4.4355 Z-0.1229
G1 X4.437 Y2.1169 Z-0.1253
G1 X4.439 Z-0.1273
G1 X4.4413 Y2.117 Z-0.1288
G1 X4.444 Z-0.1297
G1 X4.4468 Y2.1171 Z-0.13
G1 X4.4593 Y2.1174
G3 X4.4714 Y2.1302 I-0.0003 J0.0125
G3 X4.2533 Y2.3379 I-0.2129 J-0.0052
G3 X4.0456 Y2.1198 I0.0052 J-0.2129
G3 X4.2637 Y1.9121 I0.2129 J0.0052
G3 X4.4714 Y2.1302 I-0.0052 J0.2129
G3 X4.4586 Y2.1424 I-0.0125 J-0.0003
G1 X4.4461 Y2.1421
G1 X4.4434 Y2.142 Z-0.1297
G1 X4.4407 Z-0.1288
G1 X4.4383 Y2.1419 Z-0.1273
G1 X4.4364 Z-0.1253
G1 X4.4349 Y2.1418 Z-0.1229
G1 X4.434 Z-0.1203
G1 X4.4336 Z-0.1175
G0 Z0.2
G0 X4.4343 Y2.1168
G1 Z-0.0744 F30.
G1 Z-0.1338
G1 X4.4346 Z-0.1365 F6.1
G1 X4.4355 Z-0.1392
G1 X4.437 Y2.1169 Z-0.1415
G1 X4.439 Z-0.1435
G1 X4.4413 Y2.117 Z-0.145
G1 X4.444 Z-0.1459
G1 X4.4468 Y2.1171 Z-0.1463
G1 X4.4593 Y2.1174
G3 X4.4714 Y2.1302 I-0.0003 J0.0125
G3 X4.2533 Y2.3379 I-0.2129 J-0.0052
G3 X4.0456 Y2.1198 I0.0052 J-0.2129
G3 X4.2637 Y1.9121 I0.2129 J0.0052
G3 X4.4714 Y2.1302 I-0.0052 J0.2129
G3 X4.4586 Y2.1424 I-0.0125 J-0.0003
G1 X4.4461 Y2.1421
G1 X4.4434 Y2.142 Z-0.1459
G1 X4.4407 Z-0.145
G1 X4.4383 Y2.1419 Z-0.1435
G1 X4.4364 Z-0.1415
G1 X4.4349 Y2.1418 Z-0.1392
G1 X4.434 Z-0.1365
G1 X4.4336 Z-0.1338
G0 Z0.2
G0 X4.4343 Y2.1168
G1 Z-0.0906 F30.
G1 Z-0.1438
G1 X4.4346 Z-0.1465 F6.1
G1 X4.4355 Z-0.1492
G1 X4.437 Y2.1169 Z-0.1515
G1 X4.439 Z-0.1535
G1 X4.4413 Y2.117 Z-0.155
G1 X4.444 Z-0.1559
G1 X4.4468 Y2.1171 Z-0.1563
G1 X4.4593 Y2.1174
G3 X4.4714 Y2.1302 I-0.0003 J0.0125
G3 X4.2533 Y2.3379 I-0.2129 J-0.0052
G3 X4.0456 Y2.1198 I0.0052 J-0.2129
G3 X4.2637 Y1.9121 I0.2129 J0.0052
G3 X4.4714 Y2.1302 I-0.0052 J0.2129
G3 X4.4586 Y2.1424 I-0.0125 J-0.0003
G1 X4.4461 Y2.1421
G1 X4.4434 Y2.142 Z-0.1559
G1 X4.4407 Z-0.155
G1 X4.4383 Y2.1419 Z-0.1535
G1 X4.4364 Z-0.1515
G1 X4.4349 Y2.1418 Z-0.1492
G1 X4.434 Z-0.1465
G1 X4.4336 Z-0.1438
G0 Z0.2
G0 X2.6336 Y1.6058
G1 Z0.0556 F30.
G1 Z-0.0038
G1 X2.6338 Y1.6055 Z-0.0065 F6.1
G1 X2.6341 Y1.6046 Z-0.0092
G1 X2.6348 Y1.6033 Z-0.0115
G1 X2.6356 Y1.6015 Z-0.0135
G1 X2.6366 Y1.5994 Z-0.015
G1 X2.6378 Y1.597 Z-0.0159
G1 X2.639 Y1.5945 Z-0.0163
G1 X2.6443 Y1.5832
G3 X2.6514 Y1.5767 I0.0113 J0.0053
G3 X2.6609 Y1.5772 I0.0042 J0.0118
G1 X3.6354 Y2.0379
G3 X3.6711 Y2.0973 I-0.0267 J0.0565
G2 X3.7157 Y2.351 I0.5874 J0.0277
G3 X3.682 Y2.4327 I-0.0577 J0.024
G3 X3.658 Y2.4375 I-0.024 J-0.0577
G1 X0.625
G3 X0.5625 Y2.375 I0 J-0.0625
G1 Y1.5281
G3 X0.625 Y1.4656 I0.0625 J0
G3 X0.6736 Y1.4888 I0 J0.0625
G2 X2.1678 Y1.6474 I0.8264 J-0.6678
G2 X2.3357 Y1.4772 I-0.6678 J-0.8264
G3 X2.4115 Y1.4593 I0.0492 J0.0386
G1 X2.6609 Y1.5772
G3 X2.6669 Y1.5938 I-0.0053 J0.0113
G1 X2.6616 Y1.6051
G1 X2.6604 Y1.6077 Z-0.0159
G1 X2.6592 Y1.61 Z-0.015
G1 X2.6582 Y1.6122 Z-0.0135
G1 X2.6574 Y1.614 Z-0.0115
G1 X2.6567 Y1.6153 Z-0.0092
G1 X2.6564 Y1.6162 Z-0.0065
G1 X2.6562 Y1.6164 Z-0.0038
G0 Z0.2
G0 X2.6336 Y1.6058
G1 Z0.0394 F30.
G1 Z-0.02
G1 X2.6338 Y1.6055 Z-0.0228 F6.1
G1 X2.6341 Y1.6046 Z-0.0254
G1 X2.6348 Y1.6033 Z-0.0278
G1 X2.6356 Y1.6015 Z-0.0298
G1 X2.6366 Y1.5994 Z-0.0313
G1 X2.6378 Y1.597 Z-0.0322
G1 X2.639 Y1.5945 Z-0.0325
G1 X2.6443 Y1.5832
G3 X2.6514 Y1.5767 I0.0113 J0.0053
G3 X2.6609 Y1.5772 I0.0042 J0.0118
G1 X3.6354 Y2.0379
G3 X3.6711 Y2.0973 I-0.0267 J0.0565
G2 X3.7157 Y2.351 I0.5874 J0.0277
G3 X3.682 Y2.4327 I-0.0577 J0.024
G3 X3.658 Y2.4375 I-0.024 J-0.0577
G1 X0.625
G3 X0.5625 Y2.375 I0 J-0.0625
G1 Y1.5281
G3 X0.625 Y1.4656 I0.0625 J0
G3 X0.6736 Y1.4888 I0 J0.0625
G2 X2.1678 Y1.6474 I0.8264 J-0.6678
G2 X2.3357 Y1.4772 I-0.6678 J-0.8264
G3 X2.4115 Y1.4593 I0.0492 J0.0386
G1 X2.6609 Y1.5772
G3 X2.6669 Y1.5938 I-0.0053 J0.0113
G1 X2.6616 Y1.6051
G1 X2.6604 Y1.6077 Z-0.0322
G1 X2.6592 Y1.61 Z-0.0313
G1 X2.6582 Y1.6122 Z-0.0298
G1 X2.6574 Y1.614 Z-0.0278
G1 X2.6567 Y1.6153 Z-0.0254
G1 X2.6564 Y1.6162 Z-0.0228
G1 X2.6562 Y1.6164 Z-0.02
G0 Z0.2
G0 X2.6336 Y1.6058
G1 Z0.0231 F30.
G1 Z-0.0363
G1 X2.6338 Y1.6055 Z-0.039 F6.1
G1 X2.6341 Y1.6046 Z-0.0417
G1 X2.6348 Y1.6033 Z-0.044
G1 X2.6356 Y1.6015 Z-0.046
G1 X2.6366 Y1.5994 Z-0.0475
G1 X2.6378 Y1.597 Z-0.0484
G1 X2.639 Y1.5945 Z-0.0488
G1 X2.6443 Y1.5832
G3 X2.6514 Y1.5767 I0.0113 J0.0053
G3 X2.6609 Y1.5772 I0.0042 J0.0118
G1 X3.6354 Y2.0379
G3 X3.6711 Y2.0973 I-0.0267 J0.0565
G2 X3.7157 Y2.351 I0.5874 J0.0277
G3 X3.682 Y2.4327 I-0.0577 J0.024
G3 X3.658 Y2.4375 I-0.024 J-0.0577
G1 X0.625
G3 X0.5625 Y2.375 I0 J-0.0625
G1 Y1.5281
G3 X0.625 Y1.4656 I0.0625 J0
G3 X0.6736 Y1.4888 I0 J0.0625
G2 X2.1678 Y1.6474 I0.8264 J-0.6678
G2 X2.3357 Y1.4772 I-0.6678 J-0.8264
G3 X2.4115 Y1.4593 I0.0492 J0.0386
G1 X2.6609 Y1.5772
G3 X2.6669 Y1.5938 I-0.0053 J0.0113
G1 X2.6616 Y1.6051
G1 X2.6604 Y1.6077 Z-0.0484
G1 X2.6592 Y1.61 Z-0.0475
G1 X2.6582 Y1.6122 Z-0.046
G1 X2.6574 Y1.614 Z-0.044
G1 X2.6567 Y1.6153 Z-0.0417
G1 X2.6564 Y1.6162 Z-0.039
G1 X2.6562 Y1.6164 Z-0.0363
G0 Z0.2
G0 X2.6336 Y1.6058
G1 Z0.0069 F30.
G1 Z-0.0525
G1 X2.6338 Y1.6055 Z-0.0553 F6.1
G1 X2.6341 Y1.6046 Z-0.0579
G1 X2.6348 Y1.6033 Z-0.0603
G1 X2.6356 Y1.6015 Z-0.0623
G1 X2.6366 Y1.5994 Z-0.0638
G1 X2.6378 Y1.597 Z-0.0647
G1 X2.639 Y1.5945 Z-0.065
G1 X2.6443 Y1.5832
G3 X2.6514 Y1.5767 I0.0113 J0.0053
G3 X2.6609 Y1.5772 I0.0042 J0.0118
G1 X3.6354 Y2.0379
G3 X3.6711 Y2.0973 I-0.0267 J0.0565
G2 X3.7157 Y2.351 I0.5874 J0.0277
G3 X3.682 Y2.4327 I-0.0577 J0.024
G3 X3.658 Y2.4375 I-0.024 J-0.0577
G1 X0.625
G3 X0.5625 Y2.375 I0 J-0.0625
G1 Y1.5281
G3 X0.625 Y1.4656 I0.0625 J0
G3 X0.6736 Y1.4888 I0 J0.0625
G2 X2.1678 Y1.6474 I0.8264 J-0.6678
G2 X2.3357 Y1.4772 I-0.6678 J-0.8264
G3 X2.4115 Y1.4593 I0.0492 J0.0386
G1 X2.6609 Y1.5772
G3 X2.6669 Y1.5938 I-0.0053 J0.0113
G1 X2.6616 Y1.6051
G1 X2.6604 Y1.6077 Z-0.0647
G1 X2.6592 Y1.61 Z-0.0638
G1 X2.6582 Y1.6122 Z-0.0623
G1 X2.6574 Y1.614 Z-0.0603
G1 X2.6567 Y1.6153 Z-0.0579
G1 X2.6564 Y1.6162 Z-0.0553
G1 X2.6562 Y1.6164 Z-0.0525
G0 Z0.2
G0 X2.6336 Y1.6058
G1 Z-0.0094 F30.
G1 Z-0.0688
G1 X2.6338 Y1.6055 Z-0.0715 F6.1
G1 X2.6341 Y1.6046 Z-0.0742
G1 X2.6348 Y1.6033 Z-0.0765
G1 X2.6356 Y1.6015 Z-0.0785
G1 X2.6366 Y1.5994 Z-0.08
G1 X2.6378 Y1.597 Z-0.0809
G1 X2.639 Y1.5945 Z-0.0813
G1 X2.6443 Y1.5832
G3 X2.6514 Y1.5767 I0.0113 J0.0053
G3 X2.6609 Y1.5772 I0.0042 J0.0118
G1 X3.6354 Y2.0379
G3 X3.6711 Y2.0973 I-0.0267 J0.0565
G2 X3.7157 Y2.351 I0.5874 J0.0277
G3 X3.682 Y2.4327 I-0.0577 J0.024
G3 X3.658 Y2.4375 I-0.024 J-0.0577
G1 X0.625
G3 X0.5625 Y2.375 I0 J-0.0625
G1 Y1.5281
G3 X0.625 Y1.4656 I0.0625 J0
G3 X0.6736 Y1.4888 I0 J0.0625
G2 X2.1678 Y1.6474 I0.8264 J-0.6678
G2 X2.3357 Y1.4772 I-0.6678 J-0.8264
G3 X2.4115 Y1.4593 I0.0492 J0.0386
G1 X2.6609 Y1.5772
G3 X2.6669 Y1.5938 I-0.0053 J0.0113
G1 X2.6616 Y1.6051
G1 X2.6604 Y1.6077 Z-0.0809
G1 X2.6592 Y1.61 Z-0.08
G1 X2.6582 Y1.6122 Z-0.0785
G1 X2.6574 Y1.614 Z-0.0765
G1 X2.6567 Y1.6153 Z-0.0742
G1 X2.6564 Y1.6162 Z-0.0715
G1 X2.6562 Y1.6164 Z-0.0688
G0 Z0.2
G0 X2.6336 Y1.6058
G1 Z-0.0256 F30.
G1 Z-0.085
G1 X2.6338 Y1.6055 Z-0.0878 F6.1
G1 X2.6341 Y1.6046 Z-0.0904
G1 X2.6348 Y1.6033 Z-0.0928
G1 X2.6356 Y1.6015 Z-0.0948
G1 X2.6366 Y1.5994 Z-0.0963
G1 X2.6378 Y1.597 Z-0.0972
G1 X2.639 Y1.5945 Z-0.0975
G1 X2.6443 Y1.5832
G3 X2.6514 Y1.5767 I0.0113 J0.0053
G3 X2.6609 Y1.5772 I0.0042 J0.0118
G1 X3.6354 Y2.0379
G3 X3.6711 Y2.0973 I-0.0267 J0.0565
G2 X3.7157 Y2.351 I0.5874 J0.0277
G3 X3.682 Y2.4327 I-0.0577 J0.024
G3 X3.658 Y2.4375 I-0.024 J-0.0577
G1 X0.625
G3 X0.5625 Y2.375 I0 J-0.0625
G1 Y1.5281
G3 X0.625 Y1.4656 I0.0625 J0
G3 X0.6736 Y1.4888 I0 J0.0625
G2 X2.1678 Y1.6474 I0.8264 J-0.6678
G2 X2.3357 Y1.4772 I-0.6678 J-0.8264
G3 X2.4115 Y1.4593 I0.0492 J0.0386
G1 X2.6609 Y1.5772
G3 X2.6669 Y1.5938 I-0.0053 J0.0113
G1 X2.6616 Y1.6051
G1 X2.6604 Y1.6077 Z-0.0972
G1 X2.6592 Y1.61 Z-0.0963
G1 X2.6582 Y1.6122 Z-0.0948
G1 X2.6574 Y1.614 Z-0.0928
G1 X2.6567 Y1.6153 Z-0.0904
G1 X2.6564 Y1.6162 Z-0.0878
G1 X2.6562 Y1.6164 Z-0.085
G0 Z0.2
G0 X2.6336 Y1.6058
G1 Z-0.0419 F30.
G1 Z-0.1013
G1 X2.6338 Y1.6055 Z-0.104 F6.1
G1 X2.6341 Y1.6046 Z-0.1067
G1 X2.6348 Y1.6033 Z-0.109
G1 X2.6356 Y1.6015 Z-0.111
G1 X2.6366 Y1.5994 Z-0.1125
G1 X2.6378 Y1.597 Z-0.1134
G1 X2.639 Y1.5945 Z-0.1138
G1 X2.6443 Y1.5832
G3 X2.6514 Y1.5767 I0.0113 J0.0053
G3 X2.6609 Y1.5772 I0.0042 J0.0118
G1 X3.6354 Y2.0379
G3 X3.6711 Y2.0973 I-0.0267 J0.0565
G2 X3.7157 Y2.351 I0.5874 J0.0277
G3 X3.682 Y2.4327 I-0.0577 J0.024
G3 X3.658 Y2.4375 I-0.024 J-0.0577
G1 X0.625
G3 X0.5625 Y2.375 I0 J-0.0625
G1 Y1.5281
G3 X0.625 Y1.4656 I0.0625 J0
G3 X0.6736 Y1.4888 I0 J0.0625
G2 X2.1678 Y1.6474 I0.8264 J-0.6678
G2 X2.3357 Y1.4772 I-0.6678 J-0.8264
G3 X2.4115 Y1.4593 I0.0492 J0.0386
G1 X2.6609 Y1.5772
G3 X2.6669 Y1.5938 I-0.0053 J0.0113
G1 X2.6616 Y1.6051
G1 X2.6604 Y1.6077 Z-0.1134
G1 X2.6592 Y1.61 Z-0.1125
G1 X2.6582 Y1.6122 Z-0.111
G1 X2.6574 Y1.614 Z-0.109
G1 X2.6567 Y1.6153 Z-0.1067
G1 X2.6564 Y1.6162 Z-0.104
G1 X2.6562 Y1.6164 Z-0.1013
G0 Z0.2
G0 X2.6336 Y1.6058
G1 Z-0.0581 F30.
G1 Z-0.1175
G1 X2.6338 Y1.6055 Z-0.1203 F6.1
G1 X2.6341 Y1.6046 Z-0.1229
G1 X2.6348 Y1.6033 Z-0.1253
G1 X2.6356 Y1.6015 Z-0.1273
G1 X2.6366 Y1.5994 Z-0.1288
G1 X2.6378 Y1.597 Z-0.1297
G1 X2.639 Y1.5945 Z-0.13
G1 X2.6443 Y1.5832
G3 X2.6514 Y1.5767 I0.0113 J0.0053
G3 X2.6609 Y1.5772 I0.0042 J0.0118
G1 X3.6354 Y2.0379
G3 X3.6711 Y2.0973 I-0.0267 J0.0565
G2 X3.7157 Y2.351 I0.5874 J0.0277
G3 X3.682 Y2.4327 I-0.0577 J0.024
G3 X3.658 Y2.4375 I-0.024 J-0.0577
G1 X0.625
G3 X0.5625 Y2.375 I0 J-0.0625
G1 Y1.5281
G3 X0.625 Y1.4656 I0.0625 J0
G3 X0.6736 Y1.4888 I0 J0.0625
G2 X2.1678 Y1.6474 I0.8264 J-0.6678
G2 X2.3357 Y1.4772 I-0.6678 J-0.8264
G3 X2.4115 Y1.4593 I0.0492 J0.0386
G1 X2.6609 Y1.5772
G3 X2.6669 Y1.5938 I-0.0053 J0.0113
G1 X2.6616 Y1.6051
G1 X2.6604 Y1.6077 Z-0.1297
G1 X2.6592 Y1.61 Z-0.1288
G1 X2.6582 Y1.6122 Z-0.1273
G1 X2.6574 Y1.614 Z-0.1253
G1 X2.6567 Y1.6153 Z-0.1229
G1 X2.6564 Y1.6162 Z-0.1203
G1 X2.6562 Y1.6164 Z-0.1175
G0 Z0.2
G0 X2.6336 Y1.6058
G1 Z-0.0744 F30.
G1 Z-0.1338
G1 X2.6338 Y1.6055 Z-0.1365 F6.1
G1 X2.6341 Y1.6046 Z-0.1392
G1 X2.6348 Y1.6033 Z-0.1415
G1 X2.6356 Y1.6015 Z-0.1435
G1 X2.6366 Y1.5994 Z-0.145
G1 X2.6378 Y1.597 Z-0.1459
G1 X2.639 Y1.5945 Z-0.1463
G1 X2.6443 Y1.5832
G3 X2.6514 Y1.5767 I0.0113 J0.0053
G3 X2.6609 Y1.5772 I0.0042 J0.0118
G1 X3.6354 Y2.0379
G3 X3.6711 Y2.0973 I-0.0267 J0.0565
G2 X3.7157 Y2.351 I0.5874 J0.0277
G3 X3.682 Y2.4327 I-0.0577 J0.024
G3 X3.658 Y2.4375 I-0.024 J-0.0577
G1 X0.625
G3 X0.5625 Y2.375 I0 J-0.0625
G1 Y1.5281
G3 X0.625 Y1.4656 I0.0625 J0
G3 X0.6736 Y1.4888 I0 J0.0625
G2 X2.1678 Y1.6474 I0.8264 J-0.6678
G2 X2.3357 Y1.4772 I-0.6678 J-0.8264
G3 X2.4115 Y1.4593 I0.0492 J0.0386
G1 X2.6609 Y1.5772
G3 X2.6669 Y1.5938 I-0.0053 J0.0113
G1 X2.6616 Y1.6051
G1 X2.6604 Y1.6077 Z-0.1459
G1 X2.6592 Y1.61 Z-0.145
G1 X2.6582 Y1.6122 Z-0.1435
G1 X2.6574 Y1.614 Z-0.1415
G1 X2.6567 Y1.6153 Z-0.1392
G1 X2.6564 Y1.6162 Z-0.1365
G1 X2.6562 Y1.6164 Z-0.1338
G0 Z0.2
G0 X2.6336 Y1.6058
G1 Z-0.0906 F30.
G1 Z-0.1438
G1 X2.6338 Y1.6055 Z-0.1465 F6.1
G1 X2.6341 Y1.6046 Z-0.1492
G1 X2.6348 Y1.6033 Z-0.1515
G1 X2.6356 Y1.6015 Z-0.1535
G1 X2.6366 Y1.5994 Z-0.155
G1 X2.6378 Y1.597 Z-0.1559
G1 X2.639 Y1.5945 Z-0.1563
G1 X2.6443 Y1.5832
G3 X2.6514 Y1.5767 I0.0113 J0.0053
G3 X2.6609 Y1.5772 I0.0042 J0.0118
G1 X3.6354 Y2.0379
G3 X3.6711 Y2.0973 I-0.0267 J0.0565
G2 X3.7157 Y2.351 I0.5874 J0.0277
G3 X3.682 Y2.4327 I-0.0577 J0.024
G3 X3.658 Y2.4375 I-0.024 J-0.0577
G1 X0.625
G3 X0.5625 Y2.375 I0 J-0.0625
G1 Y1.5281
G3 X0.625 Y1.4656 I0.0625 J0
G3 X0.6736 Y1.4888 I0 J0.0625
G2 X2.1678 Y1.6474 I0.8264 J-0.6678
G2 X2.3357 Y1.4772 I-0.6678 J-0.8264
G3 X2.4115 Y1.4593 I0.0492 J0.0386
G1 X2.6609 Y1.5772
G3 X2.6669 Y1.5938 I-0.0053 J0.0113
G1 X2.6616 Y1.6051
G1 X2.6604 Y1.6077 Z-0.1559
G1 X2.6592 Y1.61 Z-0.155
G1 X2.6582 Y1.6122 Z-0.1535
G1 X2.6574 Y1.614 Z-0.1515
G1 X2.6567 Y1.6153 Z-0.1492
G1 X2.6564 Y1.6162 Z-0.1465
G1 X2.6562 Y1.6164 Z-0.1438
G0 Z0.2
G0 X1.9712 Y0.8201
G1 Z0.0556 F30.
G1 Z-0.0038
G1 X1.9715 Z-0.0065 F6.1
G1 X1.9724 Z-0.0092
G1 X1.9739 Z-0.0115
G1 X1.9759 Y0.8202 Z-0.0135
G1 X1.9782 Z-0.015
G1 X1.9809 Y0.8203 Z-0.0159
G1 X1.9837 Y0.8204 Z-0.0163
G1 X1.9962 Y0.8207
G3 X2.0049 Y0.8246 I-0.0003 J0.0125
G3 X2.0083 Y0.8335 I-0.0091 J0.0086
G3 X1.4875 Y1.3293 I-0.5083 J-0.0125
G3 X0.9917 Y0.8085 I0.0125 J-0.5083
G3 X1.5125 Y0.3127 I0.5083 J0.0125
G3 X2.0083 Y0.8335 I-0.0125 J0.5083
G3 X2.0045 Y0.8422 I-0.0125 J-0.0003
G3 X1.9955 Y0.8457 I-0.0086 J-0.0091
G1 X1.983 Y0.8454
G1 X1.9803 Y0.8453 Z-0.0159
G1 X1.9776 Y0.8452 Z-0.015
G1 X1.9753 Z-0.0135
G1 X1.9733 Y0.8451 Z-0.0115
G1 X1.9718 Z-0.0092
G1 X1.9709 Z-0.0065
G1 X1.9706 Z-0.0038
G0 Z0.2
G0 X1.9712 Y0.8201
G1 Z0.0394 F30.
G1 Z-0.02
G1 X1.9715 Z-0.0228 F6.1
G1 X1.9724 Z-0.0254
G1 X1.9739 Z-0.0278
G1 X1.9759 Y0.8202 Z-0.0298
G1 X1.9782 Z-0.0313
G1 X1.9809 Y0.8203 Z-0.0322
G1 X1.9837 Y0.8204 Z-0.0325
G1 X1.9962 Y0.8207
G3 X2.0049 Y0.8246 I-0.0003 J0.0125
G3 X2.0083 Y0.8335 I-0.0091 J0.0086
G3 X1.4875 Y1.3293 I-0.5083 J-0.0125
G3 X0.9917 Y0.8085 I0.0125 J-0.5083
G3 X1.5125 Y0.3127 I0.5083 J0.0125
G3 X2.0083 Y0.8335 I-0.0125 J0.5083
G3 X2.0045 Y0.8422 I-0.0125 J-0.0003
G3 X1.9955 Y0.8457 I-0.0086 J-0.0091
G1 X1.983 Y0.8454
G1 X1.9803 Y0.8453 Z-0.0322
G1 X1.9776 Y0.8452 Z-0.0313
G1 X1.9753 Z-0.0298
G1 X1.9733 Y0.8451 Z-0.0278
G1 X1.9718 Z-0.0254
G1 X1.9709 Z-0.0228
G1 X1.9706 Z-0.02
G0 Z0.2
G0 X1.9712 Y0.8201
G1 Z0.0231 F30.
G1 Z-0.0363
G1 X1.9715 Z-0.039 F6.1
G1 X1.9724 Z-0.0417
G1 X1.9739 Z-0.044
G1 X1.9759 Y0.8202 Z-0.046
G1 X1.9782 Z-0.0475
G1 X1.9809 Y0.8203 Z-0.0484
G1 X1.9837 Y0.8204 Z-0.0488
G1 X1.9962 Y0.8207
G3 X2.0049 Y0.8246 I-0.0003 J0.0125
G3 X2.0083 Y0.8335 I-0.0091 J0.0086
G3 X1.4875 Y1.3293 I-0.5083 J-0.0125
G3 X0.9917 Y0.8085 I0.0125 J-0.5083
G3 X1.5125 Y0.3127 I0.5083 J0.0125
G3 X2.0083 Y0.8335 I-0.0125 J0.5083
G3 X2.0045 Y0.8422 I-0.0125 J-0.0003
G3 X1.9955 Y0.8457 I-0.0086 J-0.0091
G1 X1.983 Y0.8454
G1 X1.9803 Y0.8453 Z-0.0484
G1 X1.9776 Y0.8452 Z-0.0475
G1 X1.9753 Z-0.046
G1 X1.9733 Y0.8451 Z-0.044
G1 X1.9718 Z-0.0417
G1 X1.9709 Z-0.039
G1 X1.9706 Z-0.0363
G0 Z0.2
G0 X1.9712 Y0.8201
G1 Z0.0069 F30.
G1 Z-0.0525
G1 X1.9715 Z-0.0553 F6.1
G1 X1.9724 Z-0.0579
G1 X1.9739 Z-0.0603
G1 X1.9759 Y0.8202 Z-0.0623
G1 X1.9782 Z-0.0638
G1 X1.9809 Y0.8203 Z-0.0647
G1 X1.9837 Y0.8204 Z-0.065
G1 X1.9962 Y0.8207
G3 X2.0049 Y0.8246 I-0.0003 J0.0125
G3 X2.0083 Y0.8335 I-0.0091 J0.0086
G3 X1.4875 Y1.3293 I-0.5083 J-0.0125
G3 X0.9917 Y0.8085 I0.0125 J-0.5083
G3 X1.5125 Y0.3127 I0.5083 J0.0125
G3 X2.0083 Y0.8335 I-0.0125 J0.5083
G3 X2.0045 Y0.8422 I-0.0125 J-0.0003
G3 X1.9955 Y0.8457 I-0.0086 J-0.0091
G1 X1.983 Y0.8454
G1 X1.9803 Y0.8453 Z-0.0647
G1 X1.9776 Y0.8452 Z-0.0638
G1 X1.9753 Z-0.0623
G1 X1.9733 Y0.8451 Z-0.0603
G1 X1.9718 Z-0.0579
G1 X1.9709 Z-0.0553
G1 X1.9706 Z-0.0525
G0 Z0.2
G0 X1.9712 Y0.8201
G1 Z-0.0094 F30.
G1 Z-0.0688
G1 X1.9715 Z-0.0715 F6.1
G1 X1.9724 Z-0.0742
G1 X1.9739 Z-0.0765
G1 X1.9759 Y0.8202 Z-0.0785
G1 X1.9782 Z-0.08
G1 X1.9809 Y0.8203 Z-0.0809
G1 X1.9837 Y0.8204 Z-0.0813
G1 X1.9962 Y0.8207
G3 X2.0049 Y0.8246 I-0.0003 J0.0125
G3 X2.0083 Y0.8335 I-0.0091 J0.0086
G3 X1.4875 Y1.3293 I-0.5083 J-0.0125
G3 X0.9917 Y0.8085 I0.0125 J-0.5083
G3 X1.5125 Y0.3127 I0.5083 J0.0125
G3 X2.0083 Y0.8335 I-0.0125 J0.5083
G3 X2.0045 Y0.8422 I-0.0125 J-0.0003
G3 X1.9955 Y0.8457 I-0.0086 J-0.0091
G1 X1.983 Y0.8454
G1 X1.9803 Y0.8453 Z-0.0809
G1 X1.9776 Y0.8452 Z-0.08
G1 X1.9753 Z-0.0785
G1 X1.9733 Y0.8451 Z-0.0765
G1 X1.9718 Z-0.0742
G1 X1.9709 Z-0.0715
G1 X1.9706 Z-0.0688
G0 Z0.2
G0 X1.9712 Y0.8201
G1 Z-0.0256 F30.
G1 Z-0.085
G1 X1.9715 Z-0.0878 F6.1
G1 X1.9724 Z-0.0904
G1 X1.9739 Z-0.0928
G1 X1.9759 Y0.8202 Z-0.0948
G1 X1.9782 Z-0.0963
G1 X1.9809 Y0.8203 Z-0.0972
G1 X1.9837 Y0.8204 Z-0.0975
G1 X1.9962 Y0.8207
G3 X2.0049 Y0.8246 I-0.0003 J0.0125
G3 X2.0083 Y0.8335 I-0.0091 J0.0086
G3 X1.4875 Y1.3293 I-0.5083 J-0.0125
G3 X0.9917 Y0.8085 I0.0125 J-0.5083
G3 X1.5125 Y0.3127 I0.5083 J0.0125
G3 X2.0083 Y0.8335 I-0.0125 J0.5083
G3 X2.0045 Y0.8422 I-0.0125 J-0.0003
G3 X1.9955 Y0.8457 I-0.0086 J-0.0091
G1 X1.983 Y0.8454
G1 X1.9803 Y0.8453 Z-0.0972
G1 X1.9776 Y0.8452 Z-0.0963
G1 X1.9753 Z-0.0948
G1 X1.9733 Y0.8451 Z-0.0928
G1 X1.9718 Z-0.0904
G1 X1.9709 Z-0.0878
G1 X1.9706 Z-0.085
G0 Z0.2
G0 X1.9712 Y0.8201
G1 Z-0.0419 F30.
G1 Z-0.1013
G1 X1.9715 Z-0.104 F6.1
G1 X1.9724 Z-0.1067
G1 X1.9739 Z-0.109
G1 X1.9759 Y0.8202 Z-0.111
G1 X1.9782 Z-0.1125
G1 X1.9809 Y0.8203 Z-0.1134
G1 X1.9837 Y0.8204 Z-0.1138
G1 X1.9962 Y0.8207
G3 X2.0049 Y0.8246 I-0.0003 J0.0125
G3 X2.0083 Y0.8335 I-0.0091 J0.0086
G3 X1.4875 Y1.3293 I-0.5083 J-0.0125
G3 X0.9917 Y0.8085 I0.0125 J-0.5083
G3 X1.5125 Y0.3127 I0.5083 J0.0125
G3 X2.0083 Y0.8335 I-0.0125 J0.5083
G3 X2.0045 Y0.8422 I-0.0125 J-0.0003
G3 X1.9955 Y0.8457 I-0.0086 J-0.0091
G1 X1.983 Y0.8454
G1 X1.9803 Y0.8453 Z-0.1134
G1 X1.9776 Y0.8452 Z-0.1125
G1 X1.9753 Z-0.111
G1 X1.9733 Y0.8451 Z-0.109
G1 X1.9718 Z-0.1067
G1 X1.9709 Z-0.104
G1 X1.9706 Z-0.1013
G0 Z0.2
G0 X1.9712 Y0.8201
G1 Z-0.0581 F30.
G1 Z-0.1175
G1 X1.9715 Z-0.1203 F6.1
G1 X1.9724 Z-0.1229
G1 X1.9739 Z-0.1253
G1 X1.9759 Y0.8202 Z-0.1273
G1 X1.9782 Z-0.1288
G1 X1.9809 Y0.8203 Z-0.1297
G1 X1.9837 Y0.8204 Z-0.13
G1 X1.9962 Y0.8207
G3 X2.0049 Y0.8246 I-0.0003 J0.0125
G3 X2.0083 Y0.8335 I-0.0091 J0.0086
G3 X1.4875 Y1.3293 I-0.5083 J-0.0125
G3 X0.9917 Y0.8085 I0.0125 J-0.5083
G3 X1.5125 Y0.3127 I0.5083 J0.0125
G3 X2.0083 Y0.8335 I-0.0125 J0.5083
G3 X2.0045 Y0.8422 I-0.0125 J-0.0003
G3 X1.9955 Y0.8457 I-0.0086 J-0.0091
G1 X1.983 Y0.8454
G1 X1.9803 Y0.8453 Z-0.1297
G1 X1.9776 Y0.8452 Z-0.1288
G1 X1.9753 Z-0.1273
G1 X1.9733 Y0.8451 Z-0.1253
G1 X1.9718 Z-0.1229
G1 X1.9709 Z-0.1203
G1 X1.9706 Z-0.1175
G0 Z0.2
G0 X1.9712 Y0.8201
G1 Z-0.0744 F30.
G1 Z-0.1338
G1 X1.9715 Z-0.1365 F6.1
G1 X1.9724 Z-0.1392
G1 X1.9739 Z-0.1415
G1 X1.9759 Y0.8202 Z-0.1435
G1 X1.9782 Z-0.145
G1 X1.9809 Y0.8203 Z-0.1459
G1 X1.9837 Y0.8204 Z-0.1463
G1 X1.9962 Y0.8207
G3 X2.0049 Y0.8246 I-0.0003 J0.0125
G3 X2.0083 Y0.8335 I-0.0091 J0.0086
G3 X1.4875 Y1.3293 I-0.5083 J-0.0125
G3 X0.9917 Y0.8085 I0.0125 J-0.5083
G3 X1.5125 Y0.3127 I0.5083 J0.0125
G3 X2.0083 Y0.8335 I-0.0125 J0.5083
G3 X2.0045 Y0.8422 I-0.0125 J-0.0003
G3 X1.9955 Y0.8457 I-0.0086 J-0.0091
G1 X1.983 Y0.8454
G1 X1.9803 Y0.8453 Z-0.1459
G1 X1.9776 Y0.8452 Z-0.145
G1 X1.9753 Z-0.1435
G1 X1.9733 Y0.8451 Z-0.1415
G1 X1.9718 Z-0.1392
G1 X1.9709 Z-0.1365
G1 X1.9706 Z-0.1338
G0 Z0.2
G0 X1.9712 Y0.8201
G1 Z-0.0906 F30.
G1 Z-0.1438
G1 X1.9715 Z-0.1465 F6.1
G1 X1.9724 Z-0.1492
G1 X1.9739 Z-0.1515
G1 X1.9759 Y0.8202 Z-0.1535
G1 X1.9782 Z-0.155
G1 X1.9809 Y0.8203 Z-0.1559
G1 X1.9837 Y0.8204 Z-0.1563
G1 X1.9962 Y0.8207
G3 X2.0049 Y0.8246 I-0.0003 J0.0125
G3 X2.0083 Y0.8335 I-0.0091 J0.0086
G3 X1.4875 Y1.3293 I-0.5083 J-0.0125
G3 X0.9917 Y0.8085 I0.0125 J-0.5083
G3 X1.5125 Y0.3127 I0.5083 J0.0125
G3 X2.0083 Y0.8335 I-0.0125 J0.5083
G3 X2.0045 Y0.8422 I-0.0125 J-0.0003
G3 X1.9955 Y0.8457 I-0.0086 J-0.0091
G1 X1.983 Y0.8454
G1 X1.9803 Y0.8453 Z-0.1559
G1 X1.9776 Y0.8452 Z-0.155
G1 X1.9753 Z-0.1535
G1 X1.9733 Y0.8451 Z-0.1515
G1 X1.9718 Z-0.1492
G1 X1.9709 Z-0.1465
G1 X1.9706 Z-0.1438
G0 Z0.2
G0 X14.971 Y0.8085
G1 Z0.0556 F30.
G1 Z-0.0038
G1 X14.9713 Z-0.0065 F6.1
G1 X14.9722 Z-0.0092
G1 X14.9737 Z-0.0115
G1 X14.9757 Z-0.0135
G1 X14.9781 Z-0.015
G1 X14.9807 Z-0.0159
G1 X14.9835 Z-0.0163
G1 X14.996
G3 X15.0085 Y0.821 I0 J0.0125
G3 X14.5 Y1.3295 I-0.5085 J0
G3 X13.9915 Y0.821 I0 J-0.5085
G3 X14.5 Y0.3125 I0.5085 J0
G3 X15.0085 Y0.821 I0 J0.5085
G3 X14.996 Y0.8335 I-0.0125 J0
G1 X14.9835
G1 X14.9807 Z-0.0159
G1 X14.9781 Z-0.015
G1 X14.9757 Z-0.0135
G1 X14.9737 Z-0.0115
G1 X14.9722 Z-0.0092
G1 X14.9713 Z-0.0065
G1 X14.971 Z-0.0038
G0 Z0.2
G0 Y0.8085
G1 Z0.0394 F30.
G1 Z-0.02
G1 X14.9713 Z-0.0228 F6.1
G1 X14.9722 Z-0.0254
G1 X14.9737 Z-0.0278
G1 X14.9757 Z-0.0298
G1 X14.9781 Z-0.0313
G1 X14.9807 Z-0.0322
G1 X14.9835 Z-0.0325
G1 X14.996
G3 X15.0085 Y0.821 I0 J0.0125
G3 X14.5 Y1.3295 I-0.5085 J0
G3 X13.9915 Y0.821 I0 J-0.5085
G3 X14.5 Y0.3125 I0.5085 J0
G3 X15.0085 Y0.821 I0 J0.5085
G3 X14.996 Y0.8335 I-0.0125 J0
G1 X14.9835
G1 X14.9807 Z-0.0322
G1 X14.9781 Z-0.0313
G1 X14.9757 Z-0.0298
G1 X14.9737 Z-0.0278
G1 X14.9722 Z-0.0254
G1 X14.9713 Z-0.0228
G1 X14.971 Z-0.02
G0 Z0.2
G0 Y0.8085
G1 Z0.0231 F30.
G1 Z-0.0363
G1 X14.9713 Z-0.039 F6.1
G1 X14.9722 Z-0.0417
G1 X14.9737 Z-0.044
G1 X14.9757 Z-0.046
G1 X14.9781 Z-0.0475
G1 X14.9807 Z-0.0484
G1 X14.9835 Z-0.0488
G1 X14.996
G3 X15.0085 Y0.821 I0 J0.0125
G3 X14.5 Y1.3295 I-0.5085 J0
G3 X13.9915 Y0.821 I0 J-0.5085
G3 X14.5 Y0.3125 I0.5085 J0
G3 X15.0085 Y0.821 I0 J0.5085
G3 X14.996 Y0.8335 I-0.0125 J0
G1 X14.9835
G1 X14.9807 Z-0.0484
G1 X14.9781 Z-0.0475
G1 X14.9757 Z-0.046
G1 X14.9737 Z-0.044
G1 X14.9722 Z-0.0417
G1 X14.9713 Z-0.039
G1 X14.971 Z-0.0363
G0 Z0.2
G0 Y0.8085
G1 Z0.0069 F30.
G1 Z-0.0525
G1 X14.9713 Z-0.0553 F6.1
G1 X14.9722 Z-0.0579
G1 X14.9737 Z-0.0603
G1 X14.9757 Z-0.0623
G1 X14.9781 Z-0.0638
G1 X14.9807 Z-0.0647
G1 X14.9835 Z-0.065
G1 X14.996
G3 X15.0085 Y0.821 I0 J0.0125
G3 X14.5 Y1.3295 I-0.5085 J0
G3 X13.9915 Y0.821 I0 J-0.5085
G3 X14.5 Y0.3125 I0.5085 J0
G3 X15.0085 Y0.821 I0 J0.5085
G3 X14.996 Y0.8335 I-0.0125 J0
G1 X14.9835
G1 X14.9807 Z-0.0647
G1 X14.9781 Z-0.0638
G1 X14.9757 Z-0.0623
G1 X14.9737 Z-0.0603
G1 X14.9722 Z-0.0579
G1 X14.9713 Z-0.0553
G1 X14.971 Z-0.0525
G0 Z0.2
G0 Y0.8085
G1 Z-0.0094 F30.
G1 Z-0.0688
G1 X14.9713 Z-0.0715 F6.1
G1 X14.9722 Z-0.0742
G1 X14.9737 Z-0.0765
G1 X14.9757 Z-0.0785
G1 X14.9781 Z-0.08
G1 X14.9807 Z-0.0809
G1 X14.9835 Z-0.0813
G1 X14.996
G3 X15.0085 Y0.821 I0 J0.0125
G3 X14.5 Y1.3295 I-0.5085 J0
G3 X13.9915 Y0.821 I0 J-0.5085
G3 X14.5 Y0.3125 I0.5085 J0
G3 X15.0085 Y0.821 I0 J0.5085
G3 X14.996 Y0.8335 I-0.0125 J0
G1 X14.9835
G1 X14.9807 Z-0.0809
G1 X14.9781 Z-0.08
G1 X14.9757 Z-0.0785
G1 X14.9737 Z-0.0765
G1 X14.9722 Z-0.0742
G1 X14.9713 Z-0.0715
G1 X14.971 Z-0.0688
G0 Z0.2
G0 Y0.8085
G1 Z-0.0256 F30.
G1 Z-0.085
G1 X14.9713 Z-0.0878 F6.1
G1 X14.9722 Z-0.0904
G1 X14.9737 Z-0.0928
G1 X14.9757 Z-0.0948
G1 X14.9781 Z-0.0963
G1 X14.9807 Z-0.0972
G1 X14.9835 Z-0.0975
G1 X14.996
G3 X15.0085 Y0.821 I0 J0.0125
G3 X14.5 Y1.3295 I-0.5085 J0
G3 X13.9915 Y0.821 I0 J-0.5085
G3 X14.5 Y0.3125 I0.5085 J0
G3 X15.0085 Y0.821 I0 J0.5085
G3 X14.996 Y0.8335 I-0.0125 J0
G1 X14.9835
G1 X14.9807 Z-0.0972
G1 X14.9781 Z-0.0963
G1 X14.9757 Z-0.0948
G1 X14.9737 Z-0.0928
G1 X14.9722 Z-0.0904
G1 X14.9713 Z-0.0878
G1 X14.971 Z-0.085
G0 Z0.2
G0 Y0.8085
G1 Z-0.0419 F30.
G1 Z-0.1013
G1 X14.9713 Z-0.104 F6.1
G1 X14.9722 Z-0.1067
G1 X14.9737 Z-0.109
G1 X14.9757 Z-0.111
G1 X14.9781 Z-0.1125
G1 X14.9807 Z-0.1134
G1 X14.9835 Z-0.1138
G1 X14.996
G3 X15.0085 Y0.821 I0 J0.0125
G3 X14.5 Y1.3295 I-0.5085 J0
G3 X13.9915 Y0.821 I0 J-0.5085
G3 X14.5 Y0.3125 I0.5085 J0
G3 X15.0085 Y0.821 I0 J0.5085
G3 X14.996 Y0.8335 I-0.0125 J0
G1 X14.9835
G1 X14.9807 Z-0.1134
G1 X14.9781 Z-0.1125
G1 X14.9757 Z-0.111
G1 X14.9737 Z-0.109
G1 X14.9722 Z-0.1067
G1 X14.9713 Z-0.104
G1 X14.971 Z-0.1013
G0 Z0.2
G0 Y0.8085
G1 Z-0.0581 F30.
G1 Z-0.1175
G1 X14.9713 Z-0.1203 F6.1
G1 X14.9722 Z-0.1229
G1 X14.9737 Z-0.1253
G1 X14.9757 Z-0.1273
G1 X14.9781 Z-0.1288
G1 X14.9807 Z-0.1297
G1 X14.9835 Z-0.13
G1 X14.996
G3 X15.0085 Y0.821 I0 J0.0125
G3 X14.5 Y1.3295 I-0.5085 J0
G3 X13.9915 Y0.821 I0 J-0.5085
G3 X14.5 Y0.3125 I0.5085 J0
G3 X15.0085 Y0.821 I0 J0.5085
G3 X14.996 Y0.8335 I-0.0125 J0
G1 X14.9835
G1 X14.9807 Z-0.1297
G1 X14.9781 Z-0.1288
G1 X14.9757 Z-0.1273
G1 X14.9737 Z-0.1253
G1 X14.9722 Z-0.1229
G1 X14.9713 Z-0.1203
G1 X14.971 Z-0.1175
G0 Z0.2
G0 Y0.8085
G1 Z-0.0744 F30.
G1 Z-0.1338
G1 X14.9713 Z-0.1365 F6.1
G1 X14.9722 Z-0.1392
G1 X14.9737 Z-0.1415
G1 X14.9757 Z-0.1435
G1 X14.9781 Z-0.145
G1 X14.9807 Z-0.1459
G1 X14.9835 Z-0.1463
G1 X14.996
G3 X15.0085 Y0.821 I0 J0.0125
G3 X14.5 Y1.3295 I-0.5085 J0
G3 X13.9915 Y0.821 I0 J-0.5085
G3 X14.5 Y0.3125 I0.5085 J0
G3 X15.0085 Y0.821 I0 J0.5085
G3 X14.996 Y0.8335 I-0.0125 J0
G1 X14.9835
G1 X14.9807 Z-0.1459
G1 X14.9781 Z-0.145
G1 X14.9757 Z-0.1435
G1 X14.9737 Z-0.1415
G1 X14.9722 Z-0.1392
G1 X14.9713 Z-0.1365
G1 X14.971 Z-0.1338
G0 Z0.2
G0 Y0.8085
G1 Z-0.0906 F30.
G1 Z-0.1438
G1 X14.9713 Z-0.1465 F6.1
G1 X14.9722 Z-0.1492
G1 X14.9737 Z-0.1515
G1 X14.9757 Z-0.1535
G1 X14.9781 Z-0.155
G1 X14.9807 Z-0.1559
G1 X14.9835 Z-0.1563
G1 X14.996
G3 X15.0085 Y0.821 I0 J0.0125
G3 X14.5 Y1.3295 I-0.5085 J0
G3 X13.9915 Y0.821 I0 J-0.5085
G3 X14.5 Y0.3125 I0.5085 J0
G3 X15.0085 Y0.821 I0 J0.5085
G3 X14.996 Y0.8335 I-0.0125 J0
G1 X14.9835
G1 X14.9807 Z-0.1559
G1 X14.9781 Z-0.155
G1 X14.9757 Z-0.1535
G1 X14.9737 Z-0.1515
G1 X14.9722 Z-0.1492
G1 X14.9713 Z-0.1465
G1 X14.971 Z-0.1438
G0 Z0.2
G0 X15.4 Y1.475
G1 Z0.0556 F30.
G1 Z-0.0038
G1 X15.4003 Z-0.0065 F6.1
G1 X15.4012 Z-0.0092
G1 X15.4027 Z-0.0115
G1 X15.4047 Z-0.0135
G1 X15.4071 Z-0.015
G1 X15.4097 Z-0.0159
G1 X15.4125 Z-0.0163
G1 X15.425
G3 X15.4375 Y1.4875 I0 J0.0125
G1 Y1.8016
G3 X15.375 Y1.8641 I-0.0625 J0
G3 X15.3213 Y1.8335 I0 J-0.0625
G1 X15.1279 Y1.5089
G3 X15.1366 Y1.4336 I0.0537 J-0.032
G2 X15.3643 Y0.6379 I-0.6366 J-0.6126
G3 X15.412 Y0.564 I0.0611 J-0.013
G3 X15.4375 Y0.6144 I-0.037 J0.0504
G1 Y0.8154
G1 Y1.4875
G3 X15.425 Y1.5 I-0.0125 J0
G1 X15.4125
G1 X15.4097 Z-0.0159
G1 X15.4071 Z-0.015
G1 X15.4047 Z-0.0135
G1 X15.4027 Z-0.0115
G1 X15.4012 Z-0.0092
G1 X15.4003 Z-0.0065
G1 X15.4 Z-0.0038
G0 Z0.2
G0 Y1.475
G1 Z0.0394 F30.
G1 Z-0.02
G1 X15.4003 Z-0.0228 F6.1
G1 X15.4012 Z-0.0254
G1 X15.4027 Z-0.0278
G1 X15.4047 Z-0.0298
G1 X15.4071 Z-0.0313
G1 X15.4097 Z-0.0322
G1 X15.4125 Z-0.0325
G1 X15.425
G3 X15.4375 Y1.4875 I0 J0.0125
G1 Y1.8016
G3 X15.375 Y1.8641 I-0.0625 J0
G3 X15.3213 Y1.8335 I0 J-0.0625
G1 X15.1279 Y1.5089
G3 X15.1366 Y1.4336 I0.0537 J-0.032
G2 X15.3643 Y0.6379 I-0.6366 J-0.6126
G3 X15.412 Y0.564 I0.0611 J-0.013
G3 X15.4375 Y0.6144 I-0.037 J0.0504
G1 Y0.8154
G1 Y1.4875
G3 X15.425 Y1.5 I-0.0125 J0
G1 X15.4125
G1 X15.4097 Z-0.0322
G1 X15.4071 Z-0.0313
G1 X15.4047 Z-0.0298
G1 X15.4027 Z-0.0278
G1 X15.4012 Z-0.0254
G1 X15.4003 Z-0.0228
G1 X15.4 Z-0.02
G0 Z0.2
G0 Y1.475
G1 Z0.0231 F30.
G1 Z-0.0363
G1 X15.4003 Z-0.039 F6.1
G1 X15.4012 Z-0.0417
G1 X15.4027 Z-0.044
G1 X15.4047 Z-0.046
G1 X15.4071 Z-0.0475
G1 X15.4097 Z-0.0484
G1 X15.4125 Z-0.0488
G1 X15.425
G3 X15.4375 Y1.4875 I0 J0.0125
G1 Y1.8016
G3 X15.375 Y1.8641 I-0.0625 J0
G3 X15.3213 Y1.8335 I0 J-0.0625
G1 X15.1279 Y1.5089
G3 X15.1366 Y1.4336 I0.0537 J-0.032
G2 X15.3643 Y0.6379 I-0.6366 J-0.6126
G3 X15.412 Y0.564 I0.0611 J-0.013
G3 X15.4375 Y0.6144 I-0.037 J0.0504
G1 Y0.8154
G1 Y1.4875
G3 X15.425 Y1.5 I-0.0125 J0
G1 X15.4125
G1 X15.4097 Z-0.0484
G1 X15.4071 Z-0.0475
G1 X15.4047 Z-0.046
G1 X15.4027 Z-0.044
G1 X15.4012 Z-0.0417
G1 X15.4003 Z-0.039
G1 X15.4 Z-0.0363
G0 Z0.2
G0 Y1.475
G1 Z0.0069 F30.
G1 Z-0.0525
G1 X15.4003 Z-0.0553 F6.1
G1 X15.4012 Z-0.0579
G1 X15.4027 Z-0.0603
G1 X15.4047 Z-0.0623
G1 X15.4071 Z-0.0638
G1 X15.4097 Z-0.0647
G1 X15.4125 Z-0.065
G1 X15.425
G3 X15.4375 Y1.4875 I0 J0.0125
G1 Y1.8016
G3 X15.375 Y1.8641 I-0.0625 J0
G3 X15.3213 Y1.8335 I0 J-0.0625
G1 X15.1279 Y1.5089
G3 X15.1366 Y1.4336 I0.0537 J-0.032
G2 X15.3643 Y0.6379 I-0.6366 J-0.6126
G3 X15.412 Y0.564 I0.0611 J-0.013
G3 X15.4375 Y0.6144 I-0.037 J0.0504
G1 Y0.8154
G1 Y1.4875
G3 X15.425 Y1.5 I-0.0125 J0
G1 X15.4125
G1 X15.4097 Z-0.0647
G1 X15.4071 Z-0.0638
G1 X15.4047 Z-0.0623
G1 X15.4027 Z-0.0603
G1 X15.4012 Z-0.0579
G1 X15.4003 Z-0.0553
G1 X15.4 Z-0.0525
G0 Z0.2
G0 Y1.475
G1 Z-0.0094 F30.
G1 Z-0.0688
G1 X15.4003 Z-0.0715 F6.1
G1 X15.4012 Z-0.0742
G1 X15.4027 Z-0.0765
G1 X15.4047 Z-0.0785
G1 X15.4071 Z-0.08
G1 X15.4097 Z-0.0809
G1 X15.4125 Z-0.0813
G1 X15.425
G3 X15.4375 Y1.4875 I0 J0.0125
G1 Y1.8016
G3 X15.375 Y1.8641 I-0.0625 J0
G3 X15.3213 Y1.8335 I0 J-0.0625
G1 X15.1279 Y1.5089
G3 X15.1366 Y1.4336 I0.0537 J-0.032
G2 X15.3643 Y0.6379 I-0.6366 J-0.6126
G3 X15.412 Y0.564 I0.0611 J-0.013
G3 X15.4375 Y0.6144 I-0.037 J0.0504
G1 Y0.8154
G1 Y1.4875
G3 X15.425 Y1.5 I-0.0125 J0
G1 X15.4125
G1 X15.4097 Z-0.0809
G1 X15.4071 Z-0.08
G1 X15.4047 Z-0.0785
G1 X15.4027 Z-0.0765
G1 X15.4012 Z-0.0742
G1 X15.4003 Z-0.0715
G1 X15.4 Z-0.0688
G0 Z0.2
G0 Y1.475
G1 Z-0.0256 F30.
G1 Z-0.085
G1 X15.4003 Z-0.0878 F6.1
G1 X15.4012 Z-0.0904
G1 X15.4027 Z-0.0928
G1 X15.4047 Z-0.0948
G1 X15.4071 Z-0.0963
G1 X15.4097 Z-0.0972
G1 X15.4125 Z-0.0975
G1 X15.425
G3 X15.4375 Y1.4875 I0 J0.0125
G1 Y1.8016
G3 X15.375 Y1.8641 I-0.0625 J0
G3 X15.3213 Y1.8335 I0 J-0.0625
G1 X15.1279 Y1.5089
G3 X15.1366 Y1.4336 I0.0537 J-0.032
G2 X15.3643 Y0.6379 I-0.6366 J-0.6126
G3 X15.412 Y0.564 I0.0611 J-0.013
G3 X15.4375 Y0.6144 I-0.037 J0.0504
G1 Y0.8154
G1 Y1.4875
G3 X15.425 Y1.5 I-0.0125 J0
G1 X15.4125
G1 X15.4097 Z-0.0972
G1 X15.4071 Z-0.0963
G1 X15.4047 Z-0.0948
G1 X15.4027 Z-0.0928
G1 X15.4012 Z-0.0904
G1 X15.4003 Z-0.0878
G1 X15.4 Z-0.085
G0 Z0.2
G0 Y1.475
G1 Z-0.0419 F30.
G1 Z-0.1013
G1 X15.4003 Z-0.104 F6.1
G1 X15.4012 Z-0.1067
G1 X15.4027 Z-0.109
G1 X15.4047 Z-0.111
G1 X15.4071 Z-0.1125
G1 X15.4097 Z-0.1134
G1 X15.4125 Z-0.1138
G1 X15.425
G3 X15.4375 Y1.4875 I0 J0.0125
G1 Y1.8016
G3 X15.375 Y1.8641 I-0.0625 J0
G3 X15.3213 Y1.8335 I0 J-0.0625
G1 X15.1279 Y1.5089
G3 X15.1366 Y1.4336 I0.0537 J-0.032
G2 X15.3643 Y0.6379 I-0.6366 J-0.6126
G3 X15.412 Y0.564 I0.0611 J-0.013
G3 X15.4375 Y0.6144 I-0.037 J0.0504
G1 Y0.8154
G1 Y1.4875
G3 X15.425 Y1.5 I-0.0125 J0
G1 X15.4125
G1 X15.4097 Z-0.1134
G1 X15.4071 Z-0.1125
G1 X15.4047 Z-0.111
G1 X15.4027 Z-0.109
G1 X15.4012 Z-0.1067
G1 X15.4003 Z-0.104
G1 X15.4 Z-0.1013
G0 Z0.2
G0 Y1.475
G1 Z-0.0581 F30.
G1 Z-0.1175
G1 X15.4003 Z-0.1203 F6.1
G1 X15.4012 Z-0.1229
G1 X15.4027 Z-0.1253
G1 X15.4047 Z-0.1273
G1 X15.4071 Z-0.1288
G1 X15.4097 Z-0.1297
G1 X15.4125 Z-0.13
G1 X15.425
G3 X15.4375 Y1.4875 I0 J0.0125
G1 Y1.8016
G3 X15.375 Y1.8641 I-0.0625 J0
G3 X15.3213 Y1.8335 I0 J-0.0625
G1 X15.1279 Y1.5089
G3 X15.1366 Y1.4336 I0.0537 J-0.032
G2 X15.3643 Y0.6379 I-0.6366 J-0.6126
G3 X15.412 Y0.564 I0.0611 J-0.013
G3 X15.4375 Y0.6144 I-0.037 J0.0504
G1 Y0.8154
G1 Y1.4875
G3 X15.425 Y1.5 I-0.0125 J0
G1 X15.4125
G1 X15.4097 Z-0.1297
G1 X15.4071 Z-0.1288
G1 X15.4047 Z-0.1273
G1 X15.4027 Z-0.1253
G1 X15.4012 Z-0.1229
G1 X15.4003 Z-0.1203
G1 X15.4 Z-0.1175
G0 Z0.2
G0 Y1.475
G1 Z-0.0744 F30.
G1 Z-0.1338
G1 X15.4003 Z-0.1365 F6.1
G1 X15.4012 Z-0.1392
G1 X15.4027 Z-0.1415
G1 X15.4047 Z-0.1435
G1 X15.4071 Z-0.145
G1 X15.4097 Z-0.1459
G1 X15.4125 Z-0.1463
G1 X15.425
G3 X15.4375 Y1.4875 I0 J0.0125
G1 Y1.8016
G3 X15.375 Y1.8641 I-0.0625 J0
G3 X15.3213 Y1.8335 I0 J-0.0625
G1 X15.1279 Y1.5089
G3 X15.1366 Y1.4336 I0.0537 J-0.032
G2 X15.3643 Y0.6379 I-0.6366 J-0.6126
G3 X15.412 Y0.564 I0.0611 J-0.013
G3 X15.4375 Y0.6144 I-0.037 J0.0504
G1 Y0.8154
G1 Y1.4875
G3 X15.425 Y1.5 I-0.0125 J0
G1 X15.4125
G1 X15.4097 Z-0.1459
G1 X15.4071 Z-0.145
G1 X15.4047 Z-0.1435
G1 X15.4027 Z-0.1415
G1 X15.4012 Z-0.1392
G1 X15.4003 Z-0.1365
G1 X15.4 Z-0.1338
G0 Z0.2
G0 Y1.475
G1 Z-0.0906 F30.
G1 Z-0.1438
G1 X15.4003 Z-0.1465 F6.1
G1 X15.4012 Z-0.1492
G1 X15.4027 Z-0.1515
G1 X15.4047 Z-0.1535
G1 X15.4071 Z-0.155
G1 X15.4097 Z-0.1559
G1 X15.4125 Z-0.1563
G1 X15.425
G3 X15.4375 Y1.4875 I0 J0.0125
G1 Y1.8016
G3 X15.375 Y1.8641 I-0.0625 J0
G3 X15.3213 Y1.8335 I0 J-0.0625
G1 X15.1279 Y1.5089
G3 X15.1366 Y1.4336 I0.0537 J-0.032
G2 X15.3643 Y0.6379 I-0.6366 J-0.6126
G3 X15.412 Y0.564 I0.0611 J-0.013
G3 X15.4375 Y0.6144 I-0.037 J0.0504
G1 Y0.8154
G1 Y1.4875
G3 X15.425 Y1.5 I-0.0125 J0
G1 X15.4125
G1 X15.4097 Z-0.1559
G1 X15.4071 Z-0.155
G1 X15.4047 Z-0.1535
G1 X15.4027 Z-0.1515
G1 X15.4012 Z-0.1492
G1 X15.4003 Z-0.1465
G1 X15.4 Z-0.1438
G0 Z0.6

M5
M30
