; generated by PrusaSlicer 2.3.0+win64 on 2021-03-24 at 14:50:11 UTC


;
;

;
;
; 

; external perimeters extrusion width = 0.45mm
; perimeters extrusion width = 0.45mm
; infill extrusion width = 0.45mm
; solid infill extrusion width = 0.45mm
; top infill extrusion width = 0.40mm
; first layer extrusion width = 0.42mm

M73 P0 R25
M201 X1250 Y1250 Z400 E5000 ; sets maximum accelerations, mm/sec^2
M203 X180 Y180 Z12 E80 ; sets maximum feedrates, mm/sec
M204 P1250 R1250 T1250 ; sets acceleration (P, T) and retract acceleration (R), mm/sec^2
M205 X8.00 Y8.00 Z2.00 E10.00 ; sets the jerk limits, mm/sec
M205 S0 T0 ; sets the minimum extruding and travel feed rate, mm/sec
M107
;TYPE:Custom
G90 ; use absolute coordinates
M83 ; extruder relative mode
M104 S170 ; set extruder temp for bed leveling
M140 S85 ; set bed temp
M109 R170 ; wait for bed leveling temp
M190 S85 ; wait for bed temp
G28 ; home all without mesh bed level
G29 ; mesh bed leveling 
M104 S240 ; set extruder temp
G92 E0.0
G1 Y-2.0 X179 F2400
M73 P0 R24
G1 Z3 F720
M109 S240 ; wait for extruder temp

; intro line
G1 X170 F1000
G1 Z0.2 F720
G1 X110.0 E8.0 F900
G1 X40.0 E10.0 F700
G92 E0.0

M221 S95 ; set flow
G21 ; set units to millimeters
G90 ; use absolute coordinates
M83 ; use relative distances for extrusion
M900 K0.2 ; Filament gcode
;LAYER_CHANGE
;Z:0.2
;HEIGHT:0.2
;BEFORE_LAYER_CHANGE
G92 E0.0
;0.2


M73 P1 R24
G1 Z0.200 F9000.000
;AFTER_LAYER_CHANGE
;0.2
G1 E-3.20000 F2400.000
G1 Z0.400 F9000.000
G1 X62.900 Y77.116
G1 Z0.200
G1 E3.20000 F1500.000
M204 S800
;TYPE:Skirt
;WIDTH:0.42
G1 F1200.000
G1 X64.168 Y76.286 E0.04750
G1 X65.529 Y75.795 E0.04537
G1 X66.970 Y75.623 E0.04549
G1 X113.004 Y75.623 E1.44336
G1 X114.114 Y75.721 E0.03495
G1 X115.226 Y76.025 E0.03615
G1 X116.237 Y76.506 E0.03510
G1 X117.318 Y77.308 E0.04219
G1 X118.095 Y78.165 E0.03628
G1 X118.685 Y79.111 E0.03495
G1 X119.102 Y80.149 E0.03508
G1 X119.334 Y81.268 E0.03585
G1 X119.377 Y98.031 E0.52558
G1 X119.284 Y99.083 E0.03313
G1 X118.849 Y100.540 E0.04767
G1 X118.110 Y101.815 E0.04619
G1 X117.088 Y102.894 E0.04661
G1 X115.832 Y103.714 E0.04703
G1 X114.471 Y104.205 E0.04537
G1 X113.030 Y104.377 E0.04549
G1 X66.648 Y104.367 E1.45428
G1 X65.116 Y104.092 E0.04882
G1 X64.205 Y103.731 E0.03072
G1 X63.504 Y103.333 E0.02527
G1 X62.868 Y102.856 E0.02494
G1 X62.168 Y102.161 E0.03091
G1 X61.296 Y100.852 E0.04933
G1 X60.803 Y99.506 E0.04495
G1 X60.624 Y98.099 E0.04447
G1 X60.669 Y81.237 E0.52868
G1 X61.035 Y79.748 E0.04809
G1 X61.343 Y79.057 E0.02370
G1 X61.854 Y78.235 E0.03037
G1 X62.859 Y77.159 E0.04615
M204 S1250
; printing object 1308 Series Lightweight Set Screw Hub (6mm D-Bore) class 1308-0016-1006 v2.stl id:1 copy 0
G1 E-2.24000 F2400.000
;WIPE_START
G1 F7200.000
G1 X64.168 Y76.286 E-0.49822
G1 X65.397 Y75.843 E-0.41378
;WIPE_END
G1 E-0.04800 F2400.000
G1 Z0.400 F9000.000
G1 X71.741 Y87.313
G1 Z0.200
G1 E3.20000 F1500.000
M204 S800
;TYPE:Perimeter
G1 F1200.000
G1 X71.982 Y86.971 E0.01313
G1 X72.265 Y86.706 E0.01214
G1 X72.475 Y86.561 E0.00801
G1 X72.841 Y86.388 E0.01271
G1 X73.244 Y86.291 E0.01298
G1 X73.441 Y86.282 E0.00618
G1 X73.755 Y86.158 E0.01058
G1 X74.253 Y86.032 E0.01611
G1 X74.531 Y85.990 E0.00882
G1 X75.023 Y85.963 E0.01546
G1 X75.316 Y85.975 E0.00919
G1 X75.827 Y86.047 E0.01617
G1 X76.311 Y86.181 E0.01577
G1 X76.585 Y86.286 E0.00918
G1 X77.026 Y86.508 E0.01550
G1 X77.274 Y86.663 E0.00918
G1 X77.665 Y86.967 E0.01550
G1 X77.878 Y87.167 E0.00917
G1 X78.202 Y87.541 E0.01551
G1 X78.372 Y87.779 E0.00917
G1 X78.618 Y88.208 E0.01551
G1 X78.738 Y88.474 E0.00916
G1 X78.897 Y88.943 E0.01552
G1 X78.963 Y89.227 E0.00916
G1 X79.028 Y89.718 E0.01552
G1 X79.038 Y90.010 E0.00916
G1 X79.006 Y90.504 E0.01552
G1 X78.959 Y90.792 E0.00915
G1 X78.832 Y91.271 E0.01553
G1 X78.731 Y91.544 E0.00915
G1 X78.513 Y91.989 E0.01553
G1 X78.361 Y92.238 E0.00914
G1 X78.061 Y92.633 E0.01554
G1 X77.862 Y92.848 E0.00920
G1 X77.493 Y93.176 E0.01548
G1 X77.256 Y93.349 E0.00920
G1 X76.830 Y93.599 E0.01548
G1 X76.564 Y93.723 E0.00920
G1 X76.098 Y93.885 E0.01548
G1 X75.813 Y93.955 E0.00920
G1 X75.324 Y94.025 E0.01548
G1 X75.031 Y94.038 E0.00921
G1 X74.516 Y94.009 E0.01616
G1 X74.022 Y93.917 E0.01576
G1 X73.741 Y93.836 E0.00916
G1 X73.440 Y93.718 E0.01014
G1 X73.237 Y93.708 E0.00637
G1 X72.835 Y93.610 E0.01297
G1 X72.472 Y93.437 E0.01262
G1 X72.275 Y93.303 E0.00747
G1 X71.992 Y93.039 E0.01215
G1 X71.740 Y92.685 E0.01362
G1 X71.579 Y92.313 E0.01269
G1 X71.520 Y92.082 E0.00747
G1 X71.483 Y91.723 E0.01132
G1 X71.493 Y88.089 E0.11394
G1 X71.571 Y87.711 E0.01209
G1 X71.717 Y87.368 E0.01169
M204 S1250
G1 X72.502 Y87.001 F9000.000
M204 S800
;TYPE:External perimeter
G1 F1200.000
G1 X72.664 Y86.889 E0.00617
G1 X72.967 Y86.745 E0.01053
G1 X73.297 Y86.666 E0.01063
G1 X73.520 Y86.656 E0.00701
G1 X73.871 Y86.518 E0.01181
G1 X74.328 Y86.402 E0.01479
G1 X74.570 Y86.365 E0.00767
G1 X75.026 Y86.340 E0.01432
G1 X75.282 Y86.351 E0.00804
G1 X75.749 Y86.417 E0.01481
G1 X76.193 Y86.540 E0.01444
G1 X76.432 Y86.631 E0.00803
G1 X76.841 Y86.837 E0.01434
G1 X77.058 Y86.973 E0.00802
G1 X77.419 Y87.254 E0.01435
G1 X77.605 Y87.429 E0.00802
G1 X77.906 Y87.774 E0.01435
G1 X78.054 Y87.982 E0.00801
G1 X78.282 Y88.380 E0.01436
G1 X78.387 Y88.612 E0.00801
G1 X78.534 Y89.046 E0.01436
G1 X78.592 Y89.295 E0.00801
G1 X78.652 Y89.749 E0.01437
G1 X78.660 Y90.004 E0.00800
G1 X78.631 Y90.462 E0.01437
G1 X78.590 Y90.714 E0.00800
G1 X78.473 Y91.157 E0.01437
G1 X78.384 Y91.396 E0.00799
G1 X78.183 Y91.808 E0.01438
G1 X78.049 Y92.025 E0.00799
G1 X77.772 Y92.390 E0.01438
G1 X77.598 Y92.579 E0.00804
G1 X77.256 Y92.882 E0.01433
G1 X77.049 Y93.033 E0.00804
G1 X76.655 Y93.265 E0.01433
G1 X76.422 Y93.373 E0.00804
G1 X75.991 Y93.523 E0.01433
G1 X75.742 Y93.584 E0.00804
G1 X75.289 Y93.649 E0.01433
G1 X75.033 Y93.660 E0.00805
G1 X74.561 Y93.634 E0.01481
G1 X74.109 Y93.550 E0.01443
G1 X73.863 Y93.479 E0.00803
G1 X73.520 Y93.344 E0.01155
G1 X73.291 Y93.333 E0.00718
G1 X72.963 Y93.253 E0.01061
G1 X72.661 Y93.109 E0.01049
G1 X72.511 Y93.007 E0.00566
G1 X72.277 Y92.789 E0.01005
G1 X72.070 Y92.499 E0.01116
G1 X71.937 Y92.191 E0.01053
G1 X71.892 Y92.016 E0.00567
G1 X71.860 Y91.704 E0.00983
G1 X71.860 Y88.301 E0.10668
G1 X71.868 Y88.137 E0.00516
G1 X71.933 Y87.824 E0.01001
G1 X72.072 Y87.498 E0.01112
G1 X72.268 Y87.220 E0.01067
G1 X72.458 Y87.042 E0.00817
M204 S1250
G1 X72.470 Y86.806 F9000.000
G1 E-2.24000 F2400.000
;WIPE_START
G1 F7200.000
G1 X72.664 Y86.889 E-0.08112
G1 X72.967 Y86.745 E-0.10634
G1 X73.297 Y86.666 E-0.10734
G1 X73.520 Y86.656 E-0.07079
G1 X73.871 Y86.518 E-0.11923
G1 X74.328 Y86.402 E-0.14936
G1 X74.570 Y86.365 E-0.07746
G1 X75.026 Y86.340 E-0.14466
G1 X75.202 Y86.347 E-0.05570
;WIPE_END
G1 E-0.04800 F2400.000
G1 Z0.400 F9000.000
G1 X73.925 Y84.574
G1 Z0.200
G1 E3.20000 F1500.000
M204 S800
;TYPE:Perimeter
G1 F1200.000
G1 X73.524 Y84.365 E0.01418
G1 X73.316 Y84.222 E0.00793
G1 X73.015 Y83.958 E0.01253
G1 X72.692 Y83.567 E0.01591
G1 X72.470 Y83.173 E0.01418
G1 X72.375 Y82.939 E0.00793
G1 X72.268 Y82.554 E0.01253
G1 X72.211 Y82.049 E0.01591
G1 X72.241 Y81.598 E0.01418
G1 X72.289 Y81.350 E0.00793
G1 X72.410 Y80.969 E0.01253
G1 X72.638 Y80.516 E0.01591
G1 X72.910 Y80.154 E0.01418
G1 X73.086 Y79.973 E0.00793
G1 X73.396 Y79.720 E0.01253
G1 X73.834 Y79.466 E0.01591
G1 X74.260 Y79.312 E0.01418
G1 X74.506 Y79.256 E0.00793
G1 X74.904 Y79.214 E0.01253
G1 X75.410 Y79.241 E0.01591
G1 X75.851 Y79.345 E0.01418
G1 X76.088 Y79.433 E0.00793
G1 X76.443 Y79.615 E0.01253
G1 X76.843 Y79.907 E0.01553
G1 X77.027 Y80.086 E0.00805
G1 X77.280 Y80.395 E0.01253
G1 X77.528 Y80.824 E0.01553
G1 X77.625 Y81.061 E0.00805
G1 X77.732 Y81.446 E0.01253
G1 X77.788 Y81.938 E0.01553
G1 X77.781 Y82.195 E0.00805
G1 X77.725 Y82.591 E0.01253
G1 X77.574 Y83.075 E0.01591
G1 X77.365 Y83.476 E0.01418
G1 X77.222 Y83.685 E0.00793
G1 X76.958 Y83.985 E0.01253
G1 X76.567 Y84.308 E0.01591
G1 X76.173 Y84.530 E0.01418
G1 X75.939 Y84.625 E0.00793
G1 X75.554 Y84.732 E0.01253
G1 X75.062 Y84.788 E0.01553
G1 X74.805 Y84.781 E0.00805
G1 X74.409 Y84.725 E0.01253
G1 X73.982 Y84.592 E0.01403
M204 S1250
G1 X74.094 Y84.232 F9000.000
M204 S800
;TYPE:External perimeter
G1 F1200.000
G1 X73.718 Y84.042 E0.01320
G1 X73.548 Y83.924 E0.00650
G1 X73.287 Y83.695 E0.01089
G1 X73.004 Y83.353 E0.01391
G1 X72.811 Y83.008 E0.01239
G1 X72.732 Y82.816 E0.00650
G1 X72.639 Y82.482 E0.01089
G1 X72.589 Y82.041 E0.01391
G1 X72.616 Y81.646 E0.01239
G1 X72.655 Y81.443 E0.00650
G1 X72.760 Y81.112 E0.01089
G1 X72.960 Y80.716 E0.01391
G1 X73.197 Y80.400 E0.01239
G1 X73.341 Y80.251 E0.00650
G1 X73.611 Y80.031 E0.01089
G1 X73.994 Y79.809 E0.01391
G1 X74.366 Y79.674 E0.01239
G1 X74.568 Y79.629 E0.00650
G1 X74.914 Y79.592 E0.01089
G1 X75.357 Y79.616 E0.01391
G1 X75.741 Y79.706 E0.01239
M73 P2 R24
G1 X75.936 Y79.778 E0.00650
G1 X76.245 Y79.937 E0.01089
G1 X76.599 Y80.196 E0.01377
G1 X76.749 Y80.341 E0.00654
G1 X76.969 Y80.611 E0.01089
G1 X77.189 Y80.991 E0.01377
G1 X77.268 Y81.184 E0.00654
G1 X77.361 Y81.518 E0.01089
G1 X77.410 Y81.955 E0.01377
G1 X77.405 Y82.163 E0.00654
G1 X77.356 Y82.507 E0.01089
G1 X77.224 Y82.931 E0.01391
G1 X77.042 Y83.282 E0.01239
G1 X76.924 Y83.452 E0.00650
G1 X76.695 Y83.713 E0.01089
G1 X76.353 Y83.996 E0.01391
G1 X76.008 Y84.190 E0.01239
G1 X75.816 Y84.268 E0.00650
G1 X75.482 Y84.361 E0.01089
G1 X75.045 Y84.410 E0.01377
G1 X74.837 Y84.405 E0.00654
G1 X74.493 Y84.356 E0.01089
G1 X74.151 Y84.250 E0.01120
M204 S1250
G1 X73.778 Y84.476 F9000.000
G1 E-2.24000 F2400.000
;WIPE_START
G1 F7200.000
G1 X73.718 Y84.042 E-0.15211
G1 X73.548 Y83.924 E-0.06562
G1 X73.287 Y83.695 E-0.11002
G1 X73.004 Y83.353 E-0.14049
G1 X72.811 Y83.008 E-0.12514
G1 X72.732 Y82.816 E-0.06562
G1 X72.639 Y82.482 E-0.11002
G1 X72.589 Y82.041 E-0.14048
G1 X72.590 Y82.033 E-0.00249
;WIPE_END
G1 E-0.04800 F2400.000
G1 Z0.400 F9000.000
G1 X69.566 Y83.093
G1 Z0.200
G1 E3.20000 F1500.000
M204 S800
;TYPE:Perimeter
G1 F1200.000
G1 X69.335 Y83.524 E0.01532
G1 X69.097 Y83.837 E0.01236
G1 X68.922 Y84.020 E0.00793
G1 X68.551 Y84.319 E0.01494
G1 X68.122 Y84.553 E0.01532
G1 X67.750 Y84.685 E0.01236
G1 X67.504 Y84.742 E0.00793
G1 X67.042 Y84.788 E0.01457
G1 X66.759 Y84.777 E0.00887
G1 X66.369 Y84.716 E0.01239
G1 X65.907 Y84.566 E0.01522
G1 X65.476 Y84.335 E0.01532
G1 X65.163 Y84.097 E0.01236
G1 X64.980 Y83.922 E0.00793
G1 X64.681 Y83.551 E0.01494
G1 X64.447 Y83.122 E0.01532
G1 X64.315 Y82.750 E0.01236
G1 X64.258 Y82.504 E0.00793
G1 X64.211 Y82.030 E0.01494
G1 X64.249 Y81.543 E0.01532
G1 X64.342 Y81.160 E0.01236
G1 X64.429 Y80.922 E0.00793
G1 X64.649 Y80.499 E0.01494
G1 X64.947 Y80.113 E0.01532
G1 X65.235 Y79.843 E0.01236
G1 X65.437 Y79.691 E0.00793
G1 X65.852 Y79.458 E0.01494
G1 X66.314 Y79.297 E0.01532
G1 X66.702 Y79.228 E0.01236
G1 X66.956 Y79.212 E0.00799
G1 X67.456 Y79.249 E0.01569
G1 X67.841 Y79.342 E0.01242
G1 X68.078 Y79.429 E0.00793
G1 X68.501 Y79.649 E0.01494
G1 X68.887 Y79.947 E0.01532
G1 X69.157 Y80.235 E0.01236
G1 X69.309 Y80.437 E0.00793
G1 X69.537 Y80.842 E0.01457
G1 X69.640 Y81.105 E0.00887
G1 X69.741 Y81.487 E0.01239
G1 X69.788 Y81.958 E0.01485
G1 X69.777 Y82.241 E0.00887
G1 X69.716 Y82.631 E0.01239
G1 X69.585 Y83.036 E0.01334
M204 S1250
G1 X69.226 Y82.920 F9000.000
M204 S800
;TYPE:External perimeter
G1 F1200.000
G1 X69.017 Y83.319 E0.01413
G1 X68.810 Y83.592 E0.01075
G1 X68.666 Y83.741 E0.00650
G1 X68.340 Y84.004 E0.01312
G1 X67.967 Y84.208 E0.01332
G1 X67.644 Y84.322 E0.01075
G1 X67.442 Y84.369 E0.00650
G1 X67.030 Y84.410 E0.01299
G1 X66.796 Y84.401 E0.00736
G1 X66.457 Y84.348 E0.01076
G1 X66.055 Y84.218 E0.01322
G1 X65.681 Y84.017 E0.01332
G1 X65.408 Y83.809 E0.01075
G1 X65.259 Y83.666 E0.00650
G1 X64.996 Y83.340 E0.01312
G1 X64.792 Y82.967 E0.01332
G1 X64.678 Y82.644 E0.01075
G1 X64.631 Y82.442 E0.00650
G1 X64.589 Y82.026 E0.01312
G1 X64.623 Y81.602 E0.01332
G1 X64.704 Y81.269 E0.01075
G1 X64.775 Y81.074 E0.00650
G1 X64.968 Y80.703 E0.01312
G1 X65.227 Y80.367 E0.01332
G1 X65.477 Y80.132 E0.01075
G1 X65.643 Y80.008 E0.00650
G1 X66.008 Y79.803 E0.01312
G1 X66.409 Y79.663 E0.01332
G1 X66.747 Y79.603 E0.01075
G1 X66.954 Y79.590 E0.00652
G1 X67.397 Y79.623 E0.01392
G1 X67.731 Y79.703 E0.01077
G1 X67.926 Y79.775 E0.00650
G1 X68.297 Y79.968 E0.01312
G1 X68.633 Y80.227 E0.01332
G1 X68.868 Y80.477 E0.01075
G1 X68.992 Y80.643 E0.00650
G1 X69.195 Y81.004 E0.01299
G1 X69.281 Y81.223 E0.00736
G1 X69.369 Y81.554 E0.01076
G1 X69.410 Y81.970 E0.01309
G1 X69.401 Y82.204 E0.00736
G1 X69.348 Y82.544 E0.01076
G1 X69.245 Y82.863 E0.01052
M204 S1250
G1 X69.467 Y83.239 F9000.000
G1 E-2.24000 F2400.000
;WIPE_START
G1 F7200.000
G1 X69.017 Y83.319 E-0.16152
G1 X68.810 Y83.592 E-0.10857
G1 X68.666 Y83.741 E-0.06562
G1 X68.340 Y84.004 E-0.13252
G1 X67.967 Y84.208 E-0.13456
G1 X67.644 Y84.322 E-0.10857
G1 X67.442 Y84.369 E-0.06562
G1 X67.030 Y84.410 E-0.13117
G1 X67.018 Y84.410 E-0.00385
;WIPE_END
G1 E-0.04800 F2400.000
G1 Z0.400 F9000.000
G1 X67.456 Y95.249
G1 Z0.200
G1 E3.20000 F1500.000
M204 S800
;TYPE:Perimeter
G1 F1200.000
G1 X67.841 Y95.342 E0.01243
G1 X68.079 Y95.429 E0.00793
G1 X68.503 Y95.650 E0.01500
G1 X68.888 Y95.947 E0.01524
G1 X69.158 Y96.235 E0.01237
G1 X69.309 Y96.438 E0.00793
G1 X69.538 Y96.844 E0.01463
G1 X69.640 Y97.105 E0.00879
G1 X69.741 Y97.488 E0.01241
G1 X69.788 Y97.961 E0.01491
G1 X69.777 Y98.241 E0.00879
G1 X69.716 Y98.632 E0.01241
G1 X69.565 Y99.096 E0.01529
G1 X69.335 Y99.524 E0.01524
G1 X69.096 Y99.838 E0.01237
G1 X68.921 Y100.020 E0.00793
G1 X68.548 Y100.320 E0.01500
G1 X68.122 Y100.553 E0.01524
G1 X67.750 Y100.685 E0.01237
G1 X67.503 Y100.742 E0.00793
G1 X67.039 Y100.788 E0.01463
G1 X66.759 Y100.777 E0.00879
G1 X66.368 Y100.716 E0.01241
G1 X65.904 Y100.565 E0.01529
G1 X65.476 Y100.335 E0.01524
G1 X65.162 Y100.096 E0.01237
G1 X64.980 Y99.921 E0.00793
G1 X64.680 Y99.548 E0.01500
G1 X64.447 Y99.121 E0.01524
G1 X64.315 Y98.750 E0.01237
G1 X64.258 Y98.503 E0.00793
G1 X64.211 Y98.027 E0.01500
G1 X64.249 Y97.542 E0.01524
G1 X64.342 Y97.159 E0.01237
G1 X64.429 Y96.921 E0.00793
G1 X64.650 Y96.497 E0.01500
G1 X64.947 Y96.112 E0.01524
G1 X65.235 Y95.842 E0.01237
G1 X65.438 Y95.691 E0.00793
G1 X65.855 Y95.457 E0.01500
G1 X66.314 Y95.297 E0.01524
G1 X66.702 Y95.228 E0.01237
G1 X66.957 Y95.212 E0.00799
G1 X67.396 Y95.244 E0.01380
M204 S1250
G1 X67.368 Y95.621 F9000.000
M204 S800
;TYPE:External perimeter
G1 F1200.000
G1 X67.731 Y95.704 E0.01168
G1 X67.926 Y95.775 E0.00650
G1 X68.299 Y95.969 E0.01318
G1 X68.633 Y96.227 E0.01325
G1 X68.868 Y96.478 E0.01076
G1 X68.992 Y96.644 E0.00650
G1 X69.196 Y97.006 E0.01305
G1 X69.281 Y97.223 E0.00729
G1 X69.369 Y97.555 E0.01077
G1 X69.410 Y97.972 E0.01315
G1 X69.401 Y98.205 E0.00729
G1 X69.348 Y98.544 E0.01077
G1 X69.217 Y98.947 E0.01328
G1 X69.017 Y99.319 E0.01325
G1 X68.809 Y99.592 E0.01076
G1 X68.666 Y99.742 E0.00650
G1 X68.338 Y100.005 E0.01318
G1 X67.967 Y100.208 E0.01325
G1 X67.644 Y100.322 E0.01076
G1 X67.442 Y100.369 E0.00650
G1 X67.028 Y100.410 E0.01305
G1 X66.796 Y100.401 E0.00729
G1 X66.456 Y100.348 E0.01077
G1 X66.053 Y100.217 E0.01328
G1 X65.681 Y100.017 E0.01325
G1 X65.408 Y99.809 E0.01076
G1 X65.258 Y99.666 E0.00650
G1 X64.995 Y99.338 E0.01318
G1 X64.792 Y98.967 E0.01325
G1 X64.678 Y98.644 E0.01076
G1 X64.631 Y98.442 E0.00650
G1 X64.589 Y98.023 E0.01318
G1 X64.623 Y97.602 E0.01325
G1 X64.704 Y97.269 E0.01076
G1 X64.775 Y97.074 E0.00650
G1 X64.969 Y96.701 E0.01318
G1 X65.228 Y96.367 E0.01325
G1 X65.478 Y96.132 E0.01076
G1 X65.644 Y96.008 E0.00650
G1 X66.010 Y95.802 E0.01318
G1 X66.409 Y95.663 E0.01325
G1 X66.747 Y95.603 E0.01076
G1 X66.955 Y95.590 E0.00652
G1 X67.309 Y95.616 E0.01112
M204 S1250
G1 X67.603 Y95.332 F9000.000
G1 E-2.24000 F2400.000
;WIPE_START
G1 F7200.000
G1 X67.731 Y95.704 E-0.13673
G1 X67.926 Y95.775 E-0.06564
G1 X68.299 Y95.969 E-0.13314
G1 X68.633 Y96.227 E-0.13381
G1 X68.868 Y96.478 E-0.10867
G1 X68.992 Y96.644 E-0.06564
G1 X69.196 Y97.006 E-0.13179
G1 X69.281 Y97.223 E-0.07359
G1 X69.332 Y97.415 E-0.06298
;WIPE_END
G1 E-0.04800 F2400.000
G1 Z0.400 F9000.000
G1 X72.378 Y97.049
G1 Z0.200
G1 E3.20000 F1500.000
M204 S800
;TYPE:Perimeter
G1 F1200.000
G1 X72.583 Y96.609 E0.01524
