; generated by PrusaSlicer 2.3.0+win64 on 2021-03-22 at 22:44:51 UTC


;
;

;
;
; 

; external perimeters extrusion width = 0.45mm
; perimeters extrusion width = 0.45mm
; infill extrusion width = 0.45mm
; solid infill extrusion width = 0.45mm
; top infill extrusion width = 0.40mm
; first layer extrusion width = 0.42mm

M73 P0 R53
M201 X1250 Y1250 Z400 E5000 ; sets maximum accelerations, mm/sec^2
M203 X180 Y180 Z12 E80 ; sets maximum feedrates, mm/sec
M204 P1250 R1250 T1250 ; sets acceleration (P, T) and retract acceleration (R), mm/sec^2
M205 X8.00 Y8.00 Z2.00 E10.00 ; sets the jerk limits, mm/sec
M205 S0 T0 ; sets the minimum extruding and travel feed rate, mm/sec
M107
;TYPE:Custom
G90 ; use absolute coordinates
M83 ; extruder relative mode
M104 S170 ; set extruder temp for bed leveling
M140 S85 ; set bed temp
M109 R170 ; wait for bed leveling temp
M190 S85 ; wait for bed temp
G28 ; home all without mesh bed level
G29 ; mesh bed leveling 
M104 S240 ; set extruder temp
G92 E0.0
G1 Y-2.0 X179 F2400
G1 Z3 F720
M109 S240 ; wait for extruder temp

; intro line
G1 X170 F1000
G1 Z0.2 F720
G1 X110.0 E8.0 F900
G1 X40.0 E10.0 F700
G92 E0.0

M221 S95 ; set flow
G21 ; set units to millimeters
G90 ; use absolute coordinates
M83 ; use relative distances for extrusion
M900 K0.2 ; Filament gcode
;LAYER_CHANGE
;Z:0.2
;HEIGHT:0.2
;BEFORE_LAYER_CHANGE
G92 E0.0
;0.2


G1 Z0.200 F9000.000
;AFTER_LAYER_CHANGE
;0.2
G1 E-3.20000 F2400.000
G1 Z0.400 F9000.000
G1 X55.235 Y54.636
G1 Z0.200
G1 E3.20000 F1500.000
M204 S800
;TYPE:Skirt
;WIDTH:0.42
G1 F1200.000
G1 X56.771 Y53.305 E0.06375
G1 X58.434 Y52.135 E0.06375
G1 X60.206 Y51.138 E0.06375
G1 X62.072 Y50.323 E0.06387
G1 X64.008 Y49.701 E0.06375
G1 X66.019 Y49.274 E0.06446
G1 X67.379 Y49.104 E0.04298
G1 X69.339 Y49.022 E0.06148
G1 X110.954 Y49.022 E1.30483
G1 X112.365 Y49.082 E0.04426
G1 X114.340 Y49.334 E0.06244
G1 X115.707 Y49.627 E0.04382
G1 X117.612 Y50.206 E0.06244
G1 X118.910 Y50.723 E0.04382
G1 X120.692 Y51.612 E0.06244
G1 X121.886 Y52.339 E0.04382
G1 X123.494 Y53.513 E0.06244
G1 X124.549 Y54.430 E0.04382
G1 X125.938 Y55.857 E0.06244
G1 X126.825 Y56.936 E0.04382
G1 X127.956 Y58.576 E0.06244
G1 X128.650 Y59.788 E0.04382
G1 X129.491 Y61.594 E0.06244
G1 X129.972 Y62.905 E0.04382
G1 X130.497 Y64.815 E0.06208
G1 X130.840 Y66.834 E0.06422
G1 X130.977 Y68.878 E0.06422
G1 X130.953 Y111.819 E1.34640
M73 P0 R52
G1 X130.635 Y114.510 E0.08497
G1 X129.959 Y117.134 E0.08497
G1 X128.938 Y119.644 E0.08497
G1 X127.581 Y122.008 E0.08544
G1 X125.965 Y124.112 E0.08318
G1 X124.521 Y125.596 E0.06494
G1 X122.932 Y126.925 E0.06494
G1 X120.728 Y128.367 E0.08258
G1 X118.875 Y129.293 E0.06494
G1 X116.937 Y130.023 E0.06494
G1 X114.381 Y130.658 E0.08258
G1 X112.331 Y130.921 E0.06482
G1 X110.953 Y130.978 E0.04322
G1 X68.006 Y130.943 E1.34658
G1 X65.325 Y130.603 E0.08473
G1 X62.710 Y129.906 E0.08485
G1 X60.209 Y128.864 E0.08497
G1 X57.873 Y127.498 E0.08485
G1 X56.218 Y126.246 E0.06506
G1 X54.317 Y124.424 E0.08258
G1 X52.999 Y122.826 E0.06494
G1 X51.851 Y121.102 E0.06494
G1 X50.656 Y118.751 E0.08270
G1 X49.938 Y116.808 E0.06494
G1 X49.424 Y114.802 E0.06493
G1 X49.070 Y112.176 E0.08306
G1 X49.069 Y67.850 E1.38981
G1 X49.432 Y65.157 E0.08521
G1 X50.151 Y62.548 E0.08485
G1 X51.214 Y60.056 E0.08497
G1 X52.589 Y57.747 E0.08425
G1 X53.840 Y56.116 E0.06446
G1 X55.194 Y54.680 E0.06186
M204 S1250
; printing object round pully v2.stl id:2 copy 0
G1 E-2.24000 F2400.000
;WIPE_START
G1 F7200.000
G1 X56.771 Y53.305 E-0.66272
G1 X57.415 Y52.852 E-0.24928
;WIPE_END
G1 E-0.04800 F2400.000
G1 Z0.400 F9000.000
G1 X106.520 Y105.292
M73 P1 R52
G1 Z0.200
G1 E3.20000 F1500.000
M204 S800
;TYPE:Perimeter
G1 F1200.000
G1 X107.299 Y104.770 E0.02941
G1 X108.140 Y104.338 E0.02964
G1 X113.429 Y104.338 E0.16584
G1 X114.267 Y104.746 E0.02921
G1 X115.060 Y105.254 E0.02954
G1 X117.780 Y109.965 E0.17058
G1 X117.825 Y110.793 E0.02601
G1 X117.787 Y111.625 E0.02611
G1 X115.069 Y116.333 E0.17043
G1 X114.411 Y116.769 E0.02475
G1 X113.854 Y117.067 E0.01980
G1 X113.419 Y117.263 E0.01494
G1 X108.127 Y117.263 E0.16594
G1 X107.291 Y116.829 E0.02954
G1 X106.519 Y116.307 E0.02921
G1 X103.890 Y111.754 E0.16486
G1 X103.836 Y110.956 E0.02509
G1 X103.854 Y110.311 E0.02021
G1 X103.900 Y109.829 E0.01520
G1 X106.490 Y105.344 E0.16237
M204 S1250
G1 X106.802 Y105.557 F9000.000
M204 S800
;TYPE:External perimeter
G1 F1200.000
G1 X107.490 Y105.095 E0.02597
G1 X108.231 Y104.716 E0.02609
G1 X113.342 Y104.716 E0.16026
G1 X114.082 Y105.075 E0.02580
G1 X114.780 Y105.522 E0.02597
G1 X117.409 Y110.075 E0.16487
G1 X117.448 Y110.795 E0.02259
G1 X117.414 Y111.516 E0.02264
G1 X114.786 Y116.068 E0.16478
G1 X114.217 Y116.445 E0.02142
G1 X113.687 Y116.729 E0.01884
G1 X113.338 Y116.886 E0.01199
G1 X108.219 Y116.886 E0.16052
G1 X107.484 Y116.504 E0.02597
G1 X106.802 Y116.044 E0.02580
G1 X104.260 Y111.641 E0.15939
G1 X104.214 Y110.948 E0.02178
G1 X104.230 Y110.335 E0.01924
G1 X104.268 Y109.947 E0.01222
G1 X106.772 Y105.609 E0.15705
M204 S1250
G1 X106.711 Y105.167 F9000.000
G1 E-2.24000 F2400.000
;WIPE_START
G1 F7200.000
G1 X107.490 Y105.095 E-0.27950
G1 X108.231 Y104.716 E-0.26351
G1 X109.396 Y104.716 E-0.36899
;WIPE_END
G1 E-0.04800 F2400.000
G1 Z0.400 F9000.000
G1 X100.071 Y97.607
G1 Z0.200
G1 E3.20000 F1500.000
M204 S800
;TYPE:Perimeter
G1 F1200.000
G1 X100.774 Y97.056 E0.02800
G1 X101.727 Y96.408 E0.03615
G1 X102.208 Y96.117 E0.01761
G1 X103.222 Y95.568 E0.03615
G1 X103.729 Y95.326 E0.01761
G1 X104.793 Y94.883 E0.03615
G1 X105.322 Y94.693 E0.01761
G1 X106.422 Y94.360 E0.03603
G1 X107.312 Y94.151 E0.02869
G1 X108.100 Y94.002 E0.02512
G1 X108.658 Y93.922 E0.01768
G1 X109.806 Y93.816 E0.03615
G1 X110.369 Y93.792 E0.01765
G1 X111.289 Y93.796 E0.02884
G1 X112.089 Y93.836 E0.02512
G1 X112.655 Y93.888 E0.01784
G1 X113.217 Y93.959 E0.01777
G1 X114.353 Y94.162 E0.03615
G1 X114.900 Y94.288 E0.01761
G1 X116.004 Y94.602 E0.03600
G1 X117.085 Y94.990 E0.03600
G1 X117.608 Y95.208 E0.01777
G1 X118.123 Y95.443 E0.01777
G1 X119.147 Y95.974 E0.03615
G1 X119.632 Y96.258 E0.01761
G1 X120.596 Y96.889 E0.03615
G1 X121.050 Y97.220 E0.01761
G1 X121.943 Y97.942 E0.03600
G1 X122.784 Y98.723 E0.03600
G1 X123.177 Y99.125 E0.01761
G1 X123.939 Y99.990 E0.03615
G1 X124.289 Y100.430 E0.01761
G1 X124.960 Y101.367 E0.03615
G1 X125.264 Y101.840 E0.01761
G1 X125.835 Y102.836 E0.03600
G1 X126.338 Y103.867 E0.03600
G1 X126.559 Y104.384 E0.01761
G1 X126.957 Y105.466 E0.03615
G1 X127.124 Y106.002 E0.01761
G1 X127.412 Y107.119 E0.03615
G1 X127.525 Y107.674 E0.01777
G1 X127.620 Y108.233 E0.01777
G1 X127.755 Y109.378 E0.03615
G1 X127.793 Y109.938 E0.01761
G1 X127.812 Y111.091 E0.03615
G1 X127.793 Y111.653 E0.01761
G1 X127.697 Y112.802 E0.03615
G1 X127.621 Y113.358 E0.01761
G1 X127.410 Y114.492 E0.03615
G1 X127.279 Y115.038 E0.01761
G1 X126.954 Y116.144 E0.03615
G1 X126.769 Y116.675 E0.01761
G1 X126.334 Y117.743 E0.03615
G1 X126.096 Y118.252 E0.01761
G1 X125.557 Y119.270 E0.03615
G1 X125.268 Y119.754 E0.01767
G1 X124.795 Y120.473 E0.02698
G1 X124.290 Y121.170 E0.02698
G1 X123.939 Y121.611 E0.01767
G1 X123.177 Y122.476 E0.03615
G1 X122.784 Y122.878 E0.01761
G1 X121.939 Y123.662 E0.03615
G1 X121.508 Y124.023 E0.01761
G1 X120.588 Y124.717 E0.03615
G1 X120.119 Y125.036 E0.01777
G1 X119.640 Y125.338 E0.01777
G1 X118.635 Y125.903 E0.03615
G1 X118.132 Y126.154 E0.01761
G1 X117.080 Y126.613 E0.03600
G1 X115.999 Y127.001 E0.03600
G1 X115.461 Y127.164 E0.01765
G1 X114.569 Y127.389 E0.02884
G1 X113.789 Y127.550 E0.02497
G1 X112.650 Y127.713 E0.03606
G1 X112.091 Y127.765 E0.01761
G1 X110.939 Y127.814 E0.03615
G1 X110.377 Y127.809 E0.01761
G1 X109.226 Y127.741 E0.03615
G1 X108.102 Y127.599 E0.03553
G1 X106.971 Y127.377 E0.03615
G1 X106.425 Y127.242 E0.01761
G1 X105.325 Y126.909 E0.03603
G1 X104.468 Y126.589 E0.02869
G1 X103.735 Y126.278 E0.02497
G1 X102.706 Y125.765 E0.03606
G1 X102.215 Y125.489 E0.01765
G1 X101.435 Y125.001 E0.02884
G1 X100.775 Y124.547 E0.02512
G1 X100.325 Y124.207 E0.01768
G1 X99.441 Y123.466 E0.03615
G1 X99.028 Y123.084 E0.01765
G1 X98.383 Y122.428 E0.02884
G1 X97.848 Y121.832 E0.02512
G1 X97.489 Y121.396 E0.01768
G1 X96.802 Y120.470 E0.03615
G1 X96.490 Y120.002 E0.01765
G1 X96.016 Y119.214 E0.02884
G1 X95.636 Y118.514 E0.02497
G1 X95.150 Y117.472 E0.03606
G1 X94.937 Y116.950 E0.01767
G1 X94.649 Y116.139 E0.02698
G1 X94.398 Y115.319 E0.02687
G1 X94.181 Y114.429 E0.02874
G1 X94.026 Y113.643 E0.02512
G1 X93.941 Y113.085 E0.01768
G1 X93.826 Y111.943 E0.03600
G1 X93.787 Y110.796 E0.03600
G1 X93.797 Y110.229 E0.01777
G1 X93.825 Y109.663 E0.01777
G1 X93.941 Y108.521 E0.03600
G1 X94.132 Y107.394 E0.03584
G1 X94.400 Y106.277 E0.03600
G1 X94.558 Y105.738 E0.01761
G1 X94.938 Y104.650 E0.03615
G1 X95.150 Y104.129 E0.01761
G1 X95.637 Y103.085 E0.03615
G1 X95.903 Y102.584 E0.01777
G1 X96.185 Y102.092 E0.01777
G1 X96.806 Y101.126 E0.03603
G1 X97.348 Y100.389 E0.02869
G1 X97.848 Y99.769 E0.02497
G1 X98.623 Y98.919 E0.03606
G1 X99.026 Y98.520 E0.01777
G1 X99.441 Y98.135 E0.01777
G1 X100.025 Y97.646 E0.02387
M204 S1250
G1 X99.783 Y97.357 F9000.000
M204 S800
;TYPE:External perimeter
G1 F1200.000
G1 X100.554 Y96.749 E0.03077
G1 X101.523 Y96.091 E0.03675
G1 X102.020 Y95.789 E0.01821
G1 X103.051 Y95.232 E0.03675
G1 X103.575 Y94.982 E0.01821
G1 X104.657 Y94.531 E0.03675
G1 X105.203 Y94.335 E0.01821
G1 X106.324 Y93.996 E0.03670
G1 X107.234 Y93.782 E0.02933
G1 X108.038 Y93.630 E0.02564
G1 X108.614 Y93.548 E0.01823
G1 X109.781 Y93.440 E0.03675
G1 X110.362 Y93.415 E0.01822
G1 X111.299 Y93.419 E0.02938
G1 X112.116 Y93.459 E0.02564
G1 X112.696 Y93.513 E0.01829
G1 X113.274 Y93.586 E0.01827
G1 X114.428 Y93.792 E0.03675
G1 X114.994 Y93.923 E0.01821
G1 X116.120 Y94.243 E0.03669
G1 X117.221 Y94.638 E0.03669
G1 X117.759 Y94.862 E0.01827
G1 X118.289 Y95.104 E0.01827
G1 X119.329 Y95.644 E0.03675
G1 X119.830 Y95.937 E0.01821
G1 X120.811 Y96.579 E0.03675
G1 X121.280 Y96.921 E0.01821
G1 X122.190 Y97.657 E0.03669
G1 X123.048 Y98.453 E0.03669
G1 X123.453 Y98.869 E0.01821
G1 X124.228 Y99.748 E0.03675
G1 X124.590 Y100.203 E0.01821
G1 X125.272 Y101.155 E0.03675
G1 X125.586 Y101.644 E0.01821
G1 X126.168 Y102.659 E0.03669
G1 X126.681 Y103.711 E0.03669
G1 X126.909 Y104.245 E0.01821
G1 X127.314 Y105.345 E0.03675
G1 X127.487 Y105.899 E0.01821
G1 X127.779 Y107.034 E0.03675
G1 X127.896 Y107.605 E0.01827
G1 X127.993 Y108.179 E0.01827
G1 X128.131 Y109.343 E0.03675
G1 X128.170 Y109.923 E0.01821
G1 X128.190 Y111.094 E0.03675
G1 X128.170 Y111.675 E0.01821
G1 X128.072 Y112.843 E0.03675
G1 X127.994 Y113.418 E0.01821
G1 X127.779 Y114.570 E0.03675
G1 X127.643 Y115.135 E0.01821
G1 X127.313 Y116.260 E0.03675
G1 X127.121 Y116.808 E0.01821
G1 X126.680 Y117.893 E0.03675
G1 X126.434 Y118.420 E0.01821
G1 X125.885 Y119.455 E0.03675
G1 X125.588 Y119.955 E0.01823
G1 X125.105 Y120.688 E0.02751
G1 X124.590 Y121.398 E0.02751
G1 X124.228 Y121.853 E0.01823
G1 X123.453 Y122.732 E0.03675
G1 X123.048 Y123.148 E0.01821
G1 X122.188 Y123.945 E0.03675
G1 X121.743 Y124.318 E0.01821
G1 X120.808 Y125.024 E0.03675
G1 X120.326 Y125.351 E0.01827
G1 X119.833 Y125.662 E0.01827
G1 X118.812 Y126.237 E0.03675
G1 X118.292 Y126.496 E0.01821
G1 X117.219 Y126.964 E0.03669
G1 X116.118 Y127.359 E0.03669
G1 X115.562 Y127.527 E0.01822
G1 X114.653 Y127.757 E0.02938
G1 X113.854 Y127.921 E0.02559
G1 X112.695 Y128.088 E0.03671
G1 X112.116 Y128.142 E0.01821
G1 X110.945 Y128.191 E0.03675
G1 X110.365 Y128.186 E0.01821
G1 X109.195 Y128.117 E0.03675
G1 X108.039 Y127.971 E0.03653
G1 X106.889 Y127.746 E0.03675
G1 X106.325 Y127.606 E0.01821
G1 X105.205 Y127.266 E0.03670
G1 X104.328 Y126.940 E0.02933
G1 X103.577 Y126.620 E0.02559
G1 X102.529 Y126.098 E0.03672
G1 X102.022 Y125.813 E0.01822
G1 X101.228 Y125.317 E0.02938
G1 X100.554 Y124.852 E0.02564
G1 X100.090 Y124.502 E0.01823
G1 X99.192 Y123.749 E0.03675
G1 X98.766 Y123.354 E0.01822
G1 X98.109 Y122.686 E0.02938
G1 X97.562 Y122.078 E0.02564
G1 X97.192 Y121.629 E0.01823
G1 X96.494 Y120.688 E0.03675
G1 X96.172 Y120.204 E0.01822
G1 X95.688 Y119.401 E0.02938
G1 X95.299 Y118.683 E0.02559
G1 X94.804 Y117.622 E0.03671
G1 X94.585 Y117.084 E0.01823
G1 X94.291 Y116.257 E0.02751
G1 X94.035 Y115.419 E0.02747
G1 X93.813 Y114.510 E0.02935
G1 X93.655 Y113.707 E0.02564
G1 X93.567 Y113.133 E0.01823
G1 X93.449 Y111.968 E0.03669
G1 X93.410 Y110.799 E0.03669
G1 X93.420 Y110.216 E0.01827
G1 X93.449 Y109.634 E0.01827
G1 X93.567 Y108.470 E0.03669
G1 X93.762 Y107.318 E0.03664
G1 X94.035 Y106.180 E0.03669
G1 X94.199 Y105.623 E0.01821
G1 X94.585 Y104.517 E0.03675
G1 X94.804 Y103.979 E0.01821
G1 X95.300 Y102.917 E0.03675
G1 X95.572 Y102.402 E0.01827
G1 X95.862 Y101.897 E0.01827
G1 X96.495 Y100.912 E0.03670
G1 X97.049 Y100.158 E0.02933
G1 X97.562 Y99.523 E0.02559
G1 X98.351 Y98.658 E0.03671
G1 X98.765 Y98.248 E0.01827
G1 X99.192 Y97.852 E0.01827
G1 X99.737 Y97.395 E0.02229
M204 S1250
G1 X100.157 Y97.499 F9000.000
G1 E-2.24000 F2400.000
;WIPE_START
G1 F7200.000
G1 X100.554 Y96.749 E-0.32980
G1 X101.523 Y96.091 E-0.37113
G1 X102.020 Y95.789 E-0.18391
G1 X102.095 Y95.749 E-0.02716
;WIPE_END
G1 E-0.04800 F2400.000
G1 Z0.400 F9000.000
G1 X120.937 Y97.278
G1 Z0.200
G1 E3.20000 F1500.000
M204 S800
;TYPE:Solid infill
;WIDTH:0.423089
G1 F1200.000
G1 X122.969 Y99.318 E0.09103
G1 X123.722 Y100.172 E0.03600
G1 X124.063 Y100.600 E0.01731
G1 X124.867 Y101.746 E0.04424
G1 X119.880 Y96.758 E0.22295
G1 X119.483 Y96.498 E0.01501
G1 X119.010 Y96.222 E0.01731
G1 X118.585 Y96.002 E0.01512
G1 X125.616 Y103.033 E0.31432
G1 X126.118 Y104.071 E0.03646
G1 X117.529 Y95.482 E0.38397
G1 X116.639 Y95.130 E0.03025
G1 X126.470 Y104.961 E0.43948
G1 X126.762 Y105.791 E0.02782
G1 X115.813 Y94.842 E0.48950
G1 X115.061 Y94.628 E0.02470
G1 X126.970 Y106.536 E0.53237
G1 X127.151 Y107.255 E0.02344
G1 X114.346 Y94.450 E0.57244
G1 X113.689 Y94.330 E0.02113
G1 X127.280 Y107.922 E0.60763
G1 X127.373 Y108.552 E0.02013
G1 X113.043 Y94.222 E0.64064
G1 X112.434 Y94.152 E0.01936
G1 X127.445 Y109.162 E0.67105
G1 X127.497 Y109.752 E0.01871
G1 X111.852 Y94.107 E0.69940
G1 X111.287 Y94.079 E0.01790
G1 X127.516 Y110.309 E0.72555
G1 X127.526 Y110.856 E0.01729
G1 X110.747 Y94.077 E0.75011
G1 X110.214 Y94.082 E0.01683
G1 X127.519 Y111.387 E0.77364
G1 X127.489 Y111.895 E0.01607
G1 X109.704 Y94.109 E0.79509
G1 X109.212 Y94.155 E0.01562
G1 X127.448 Y112.391 E0.81522
M73 P2 R52
G1 X127.401 Y112.881 E0.01558
G1 X108.720 Y94.201 E0.83512
G1 X108.249 Y94.267 E0.01505
G1 X127.335 Y113.353 E0.85325
G1 X127.250 Y113.806 E0.01457
G1 X107.792 Y94.348 E0.86986
G1 X107.341 Y94.434 E0.01453
G1 X127.165 Y114.259 E0.88625
G1 X127.069 Y114.700 E0.01427
G1 X106.906 Y94.537 E0.90140
G1 X106.472 Y94.641 E0.01410
G1 X126.958 Y115.127 E0.91584
G1 X126.836 Y115.542 E0.01369
G1 X106.059 Y94.765 E0.92883
G1 X105.646 Y94.890 E0.01363
G1 X126.714 Y115.958 E0.94182
G1 X126.579 Y116.361 E0.01342
G1 X105.241 Y95.023 E0.95391
G1 X104.847 Y95.167 E0.01325
G1 X113.965 Y104.285 E0.40763
G1 X113.494 Y104.056 E0.01657
G1 X113.199 Y104.056 E0.00934
G1 X104.468 Y95.325 E0.39031
G1 X104.088 Y95.483 E0.01300
G1 X112.661 Y104.056 E0.38324
G1 X112.123 Y104.056 E0.01700
G1 X103.714 Y95.647 E0.37593
G1 X103.350 Y95.820 E0.01275
G1 X111.586 Y104.056 E0.36816
G1 X111.048 Y104.056 E0.01700
G1 X103.001 Y96.009 E0.35973
M73 P2 R51
G1 X102.652 Y96.198 E0.01254
G1 X110.510 Y104.056 E0.35130
G1 X109.973 Y104.056 E0.01700
G1 X102.305 Y96.388 E0.34278
G1 X101.971 Y96.591 E0.01237
G1 X109.435 Y104.056 E0.33369
G1 X108.897 Y104.056 E0.01700
G1 X101.647 Y96.805 E0.32415
G1 X101.326 Y97.022 E0.01224
G1 X108.360 Y104.056 E0.31443
G1 X108.071 Y104.056 E0.00912
G1 X107.907 Y104.140 E0.00585
G1 X101.006 Y97.240 E0.30849
G1 X100.697 Y97.468 E0.01215
G1 X107.551 Y104.322 E0.30643
G1 X107.196 Y104.505 E0.01262
G1 X100.396 Y97.704 E0.30402
G1 X100.103 Y97.949 E0.01206
G1 X106.870 Y104.717 E0.30253
G1 X106.548 Y104.932 E0.01225
G1 X99.810 Y98.194 E0.30122
G1 X99.523 Y98.445 E0.01205
G1 X106.258 Y105.180 E0.30109
G1 X106.061 Y105.520 E0.01244
G1 X99.244 Y98.703 E0.30476
G1 X98.973 Y98.970 E0.01202
G1 X105.864 Y105.861 E0.30807
G1 X105.668 Y106.202 E0.01244
G1 X98.710 Y99.244 E0.31106
G1 X98.453 Y99.525 E0.01203
