; generated by PrusaSlicer 2.3.0+win64 on 2021-03-22 at 21:16:11 UTC


;
;

;
;
; 

; external perimeters extrusion width = 0.45mm
; perimeters extrusion width = 0.45mm
; infill extrusion width = 0.45mm
; solid infill extrusion width = 0.45mm
; top infill extrusion width = 0.40mm
; first layer extrusion width = 0.42mm

M73 P0 R14
M201 X1250 Y1250 Z400 E5000 ; sets maximum accelerations, mm/sec^2
M203 X180 Y180 Z12 E80 ; sets maximum feedrates, mm/sec
M204 P1250 R1250 T1250 ; sets acceleration (P, T) and retract acceleration (R), mm/sec^2
M205 X8.00 Y8.00 Z2.00 E10.00 ; sets the jerk limits, mm/sec
M205 S0 T0 ; sets the minimum extruding and travel feed rate, mm/sec
M107
;TYPE:Custom
G90 ; use absolute coordinates
M83 ; extruder relative mode
M104 S170 ; set extruder temp for bed leveling
M140 S85 ; set bed temp
M109 R170 ; wait for bed leveling temp
M190 S85 ; wait for bed temp
G28 ; home all without mesh bed level
G29 ; mesh bed leveling 
M104 S240 ; set extruder temp
G92 E0.0
G1 Y-2.0 X179 F2400
G1 Z3 F720
M109 S240 ; wait for extruder temp

; intro line
G1 X170 F1000
G1 Z0.2 F720
G1 X110.0 E8.0 F900
M73 P1 R14
G1 X40.0 E10.0 F700
G92 E0.0

M221 S95 ; set flow
G21 ; set units to millimeters
G90 ; use absolute coordinates
M83 ; use relative distances for extrusion
M900 K0.2 ; Filament gcode
;LAYER_CHANGE
;Z:0.2
;HEIGHT:0.2
;BEFORE_LAYER_CHANGE
G92 E0.0
;0.2


M73 P1 R13
G1 Z0.200 F9000.000
;AFTER_LAYER_CHANGE
;0.2
G1 E-3.20000 F2400.000
G1 Z0.400 F9000.000
G1 X75.007 Y75.957
G1 Z0.200
G1 E3.20000 F1500.000
M204 S800
;TYPE:Skirt
;WIDTH:0.42
M73 P2 R13
G1 F1200.000
G1 X76.484 Y74.525 E0.06449
G1 X78.205 Y73.174 E0.06860
G1 X80.053 Y72.019 E0.06835
G1 X82.025 Y71.060 E0.06873
G1 X84.079 Y70.320 E0.06847
G1 X86.201 Y69.801 E0.06847
G1 X88.369 Y69.511 E0.06860
G1 X90.491 Y69.451 E0.06655
G1 X92.734 Y69.626 E0.07053
G1 X94.876 Y70.028 E0.06835
G1 X96.979 Y70.661 E0.06886
G1 X98.872 Y71.455 E0.06436
G1 X101.038 Y72.656 E0.07764
G1 X102.720 Y73.843 E0.06455
G1 X104.445 Y75.368 E0.07219
G1 X105.843 Y76.888 E0.06475
G1 X107.147 Y78.645 E0.06860
G1 X108.253 Y80.523 E0.06835
G1 X109.155 Y82.512 E0.06847
G1 X109.843 Y84.589 E0.06860
G1 X110.304 Y86.719 E0.06835
G1 X110.538 Y88.899 E0.06873
G1 X110.543 Y90.947 E0.06423
G1 X110.279 Y93.414 E0.07777
G1 X109.839 Y95.425 E0.06455
G1 X109.104 Y97.611 E0.07232
G1 X108.248 Y99.486 E0.06462
G1 X107.136 Y101.371 E0.06860
G1 X105.836 Y103.120 E0.06835
G1 X104.355 Y104.725 E0.06847
G1 X102.705 Y106.168 E0.06873
G1 X100.922 Y107.421 E0.06835
G1 X99.008 Y108.482 E0.06860
G1 X97.119 Y109.284 E0.06436
G1 X94.754 Y109.998 E0.07744
G1 X92.728 Y110.375 E0.06462
G1 X90.485 Y110.549 E0.07053
G1 X88.368 Y110.489 E0.06642
G1 X86.199 Y110.198 E0.06860
G1 X84.078 Y109.680 E0.06847
G1 X82.023 Y108.939 E0.06847
G1 X80.052 Y107.980 E0.06873
G1 X78.204 Y106.825 E0.06835
G1 X76.482 Y105.474 E0.06860
G1 X75.009 Y104.045 E0.06436
G1 X73.428 Y102.138 E0.07764
G1 X72.294 Y100.420 E0.06455
G1 X71.241 Y98.368 E0.07232
G1 X70.495 Y96.447 E0.06462
G1 X69.920 Y94.336 E0.06860
G1 X69.574 Y92.184 E0.06835
G1 X69.457 Y89.999 E0.06860
G1 X69.574 Y87.814 E0.06860
G1 X69.920 Y85.662 E0.06835
G1 X70.495 Y83.551 E0.06860
G1 X71.240 Y81.634 E0.06449
G1 X72.293 Y79.582 E0.07232
G1 X73.428 Y77.862 E0.06462
G1 X74.969 Y76.003 E0.07569
M204 S1250
G1 X75.257 Y76.242 F9000.000
M204 S800
G1 F1200.000
G1 X76.730 Y74.810 E0.06440
G1 X78.420 Y73.484 E0.06734
G1 X80.235 Y72.349 E0.06711
G1 X82.170 Y71.409 E0.06746
G1 X84.187 Y70.681 E0.06723
G1 X86.269 Y70.172 E0.06722
G1 X88.398 Y69.887 E0.06734
G1 X90.492 Y69.828 E0.06567
G1 X92.686 Y70.000 E0.06901
G1 X94.793 Y70.396 E0.06722
G1 X96.853 Y71.017 E0.06746
G1 X98.725 Y71.803 E0.06364
G1 X100.821 Y72.964 E0.07514
G1 X102.484 Y74.138 E0.06383
G1 X104.171 Y75.627 E0.07056
M73 P3 R13
G1 X105.551 Y77.127 E0.06388
G1 X106.831 Y78.851 E0.06734
G1 X107.917 Y80.695 E0.06711
G1 X108.805 Y82.651 E0.06734
G1 X109.480 Y84.690 E0.06734
G1 X109.932 Y86.782 E0.06711
G1 X110.162 Y88.921 E0.06746
G1 X110.166 Y90.947 E0.06352
G1 X109.910 Y93.334 E0.07526
G1 X109.476 Y95.323 E0.06383
G1 X108.760 Y97.456 E0.07056
G1 X107.915 Y99.310 E0.06388
G1 X106.824 Y101.160 E0.06734
G1 X105.547 Y102.878 E0.06711
G1 X104.093 Y104.453 E0.06723
G1 X102.474 Y105.871 E0.06746
G1 X100.723 Y107.101 E0.06711
G1 X98.841 Y108.144 E0.06746
G1 X96.972 Y108.937 E0.06364
G1 X94.683 Y109.627 E0.07496
G1 X92.680 Y110.001 E0.06388
G1 X90.486 Y110.172 E0.06901
G1 X88.400 Y110.114 E0.06544
G1 X86.271 Y109.828 E0.06734
G1 X84.188 Y109.319 E0.06723
G1 X82.171 Y108.592 E0.06722
G1 X80.236 Y107.651 E0.06746
G1 X78.418 Y106.515 E0.06722
G1 X76.729 Y105.189 E0.06734
G1 X75.272 Y103.775 E0.06364
G1 X73.743 Y101.930 E0.07514
G1 X72.621 Y100.231 E0.06383
G1 X71.592 Y98.230 E0.07056
G1 X70.853 Y96.331 E0.06388
G1 X70.289 Y94.259 E0.06734
G1 X69.949 Y92.146 E0.06711
G1 X69.834 Y90.001 E0.06734
G1 X69.949 Y87.856 E0.06734
G1 X70.289 Y85.739 E0.06722
G1 X70.854 Y83.667 E0.06734
G1 X71.591 Y81.772 E0.06376
G1 X72.620 Y79.770 E0.07056
G1 X73.743 Y78.070 E0.06388
G1 X75.219 Y76.288 E0.07256
M204 S1250
; printing object round pully.stl id:0 copy 0
G1 E-2.24000 F2400.000
;WIPE_START
G1 F7200.000
G1 X76.730 Y74.810 E-0.66935
G1 X77.333 Y74.337 E-0.24265
;WIPE_END
G1 E-0.04800 F2400.000
G1 Z0.400 F9000.000
G1 X85.665 Y84.457
G1 Z0.200
G1 E3.20000 F1500.000
M204 S800
;TYPE:Perimeter
G1 F1200.000
G1 X86.251 Y84.052 E0.02234
G1 X86.742 Y83.768 E0.01778
G1 X87.386 Y83.463 E0.02234
G1 X92.639 Y83.463 E0.16472
G1 X93.283 Y83.768 E0.02234
G1 X93.774 Y84.052 E0.01778
G1 X94.361 Y84.457 E0.02234
G1 X96.987 Y89.006 E0.16472
G1 X97.045 Y89.716 E0.02234
G1 X97.045 Y90.284 E0.01778
G1 X96.987 Y90.994 E0.02234
G1 X94.361 Y95.543 E0.16472
G1 X93.774 Y95.948 E0.02234
G1 X93.283 Y96.232 E0.01778
G1 X92.639 Y96.537 E0.02234
G1 X87.385 Y96.537 E0.16474
G1 X86.727 Y96.223 E0.02286
G1 X86.251 Y95.948 E0.01724
G1 X85.665 Y95.543 E0.02234
G1 X83.038 Y90.994 E0.16472
G1 X82.981 Y90.284 E0.02234
G1 X82.981 Y89.716 E0.01778
G1 X83.038 Y89.006 E0.02234
G1 X85.635 Y84.509 E0.16284
M204 S1250
G1 X85.949 Y84.719 F9000.000
M204 S800
;TYPE:External perimeter
G1 F1200.000
G1 X86.453 Y84.371 E0.01920
G1 X86.918 Y84.103 E0.01682
G1 X87.471 Y83.840 E0.01920
G1 X92.554 Y83.840 E0.15939
G1 X93.108 Y84.103 E0.01920
G1 X93.572 Y84.371 E0.01682
G1 X94.076 Y84.719 E0.01920
G1 X96.618 Y89.121 E0.15939
G1 X96.668 Y89.732 E0.01920
G1 X96.668 Y90.268 E0.01682
M73 P4 R13
G1 X96.618 Y90.879 E0.01920
G1 X94.076 Y95.281 E0.15939
G1 X93.572 Y95.629 E0.01920
G1 X93.108 Y95.897 E0.01682
G1 X92.554 Y96.160 E0.01920
G1 X87.471 Y96.160 E0.15940
G1 X86.903 Y95.889 E0.01972
G1 X86.453 Y95.629 E0.01630
G1 X85.949 Y95.281 E0.01920
G1 X83.407 Y90.879 E0.15939
G1 X83.358 Y90.268 E0.01920
G1 X83.358 Y89.732 E0.01682
G1 X83.407 Y89.121 E0.01920
G1 X85.919 Y84.771 E0.15751
M204 S1250
G1 X85.852 Y84.331 F9000.000
G1 E-2.24000 F2400.000
;WIPE_START
G1 F7200.000
G1 X86.453 Y84.371 E-0.21125
G1 X86.918 Y84.103 E-0.16992
G1 X87.471 Y83.840 E-0.19393
G1 X88.535 Y83.840 E-0.33690
;WIPE_END
G1 E-0.04800 F2400.000
G1 Z0.400 F9000.000
G1 X80.234 Y76.078
G1 Z0.200
G1 E3.20000 F1500.000
M204 S800
;TYPE:Perimeter
G1 F1200.000
G1 X81.769 Y75.118 E0.05678
G1 X83.398 Y74.326 E0.05678
G1 X85.101 Y73.712 E0.05678
G1 X86.860 Y73.282 E0.05678
G1 X88.655 Y73.041 E0.05678
G1 X90.466 Y72.993 E0.05678
G1 X92.271 Y73.138 E0.05678
G1 X94.050 Y73.473 E0.05678
G1 X95.784 Y73.996 E0.05678
G1 X97.452 Y74.700 E0.05678
G1 X99.037 Y75.578 E0.05678
G1 X100.518 Y76.619 E0.05678
G1 X101.881 Y77.811 E0.05678
G1 X103.110 Y79.142 E0.05678
G1 X104.190 Y80.595 E0.05678
G1 X105.109 Y82.156 E0.05678
G1 X105.857 Y83.805 E0.05678
G1 X106.426 Y85.524 E0.05678
G1 X106.809 Y87.294 E0.05678
G1 X107.001 Y89.095 E0.05678
G1 X107.001 Y90.905 E0.05678
G1 X106.809 Y92.706 E0.05678
G1 X106.426 Y94.476 E0.05678
G1 X105.857 Y96.195 E0.05678
G1 X105.109 Y97.844 E0.05678
G1 X104.190 Y99.405 E0.05678
G1 X103.110 Y100.858 E0.05678
G1 X101.881 Y102.189 E0.05678
G1 X100.518 Y103.381 E0.05678
G1 X99.037 Y104.422 E0.05678
G1 X97.452 Y105.300 E0.05678
G1 X95.784 Y106.004 E0.05678
G1 X94.050 Y106.527 E0.05678
G1 X92.271 Y106.862 E0.05678
G1 X90.466 Y107.007 E0.05678
G1 X88.655 Y106.959 E0.05678
G1 X86.860 Y106.718 E0.05678
G1 X85.101 Y106.288 E0.05678
G1 X83.398 Y105.674 E0.05678
G1 X81.769 Y104.882 E0.05678
G1 X80.234 Y103.922 E0.05678
G1 X78.809 Y102.803 E0.05678
G1 X77.512 Y101.540 E0.05678
G1 X76.356 Y100.146 E0.05678
G1 X75.355 Y98.637 E0.05678
G1 X74.520 Y97.030 E0.05678
G1 X73.861 Y95.343 E0.05678
G1 X73.384 Y93.596 E0.05678
G1 X73.096 Y91.808 E0.05678
G1 X73.000 Y90.000 E0.05678
G1 X73.096 Y88.192 E0.05678
G1 X73.384 Y86.404 E0.05678
G1 X73.861 Y84.657 E0.05678
G1 X74.520 Y82.970 E0.05678
G1 X75.355 Y81.363 E0.05678
G1 X76.356 Y79.854 E0.05678
G1 X77.512 Y78.460 E0.05678
G1 X78.809 Y77.197 E0.05678
G1 X80.187 Y76.115 E0.05490
M204 S1250
G1 X79.954 Y75.819 F9000.000
M204 S800
;TYPE:External perimeter
G1 F1200.000
G1 X81.586 Y74.787 E0.06054
G1 X83.251 Y73.978 E0.05804
G1 X84.992 Y73.350 E0.05804
G1 X86.790 Y72.911 E0.05804
G1 X88.625 Y72.665 E0.05804
G1 X90.476 Y72.616 E0.05804
G1 X92.321 Y72.763 E0.05804
G1 X94.140 Y73.106 E0.05804
G1 X95.912 Y73.641 E0.05804
G1 X97.618 Y74.361 E0.05804
M73 P5 R13
G1 X99.237 Y75.258 E0.05804
G1 X100.752 Y76.322 E0.05804
G1 X102.145 Y77.540 E0.05804
G1 X103.400 Y78.901 E0.05804
G1 X104.504 Y80.387 E0.05804
G1 X105.444 Y81.981 E0.05804
G1 X106.209 Y83.667 E0.05804
G1 X106.790 Y85.425 E0.05804
G1 X107.182 Y87.234 E0.05804
G1 X107.378 Y89.074 E0.05804
G1 X107.378 Y90.926 E0.05804
G1 X107.182 Y92.766 E0.05804
G1 X106.790 Y94.575 E0.05804
G1 X106.209 Y96.333 E0.05804
G1 X105.444 Y98.019 E0.05804
G1 X104.504 Y99.613 E0.05804
G1 X103.400 Y101.099 E0.05804
G1 X102.145 Y102.460 E0.05804
G1 X100.752 Y103.678 E0.05804
G1 X99.237 Y104.742 E0.05804
G1 X97.618 Y105.639 E0.05804
G1 X95.912 Y106.359 E0.05804
G1 X94.140 Y106.894 E0.05804
G1 X92.321 Y107.237 E0.05804
G1 X90.476 Y107.384 E0.05804
G1 X88.625 Y107.335 E0.05804
G1 X86.790 Y107.089 E0.05804
G1 X84.992 Y106.650 E0.05804
G1 X83.251 Y106.022 E0.05804
G1 X81.586 Y105.213 E0.05804
G1 X80.017 Y104.231 E0.05804
G1 X78.561 Y103.088 E0.05804
G1 X77.235 Y101.796 E0.05804
G1 X76.053 Y100.371 E0.05804
G1 X75.030 Y98.829 E0.05804
G1 X74.176 Y97.186 E0.05804
G1 X73.502 Y95.462 E0.05804
G1 X73.015 Y93.676 E0.05804
G1 X72.721 Y91.848 E0.05804
G1 X72.622 Y90.000 E0.05804
G1 X72.721 Y88.152 E0.05804
G1 X73.015 Y86.324 E0.05804
G1 X73.502 Y84.538 E0.05804
G1 X74.176 Y82.814 E0.05804
G1 X75.030 Y81.171 E0.05804
G1 X76.053 Y79.629 E0.05804
G1 X77.235 Y78.204 E0.05804
G1 X78.561 Y76.912 E0.05804
G1 X79.907 Y75.856 E0.05365
M204 S1250
G1 X80.317 Y75.986 F9000.000
G1 E-2.24000 F2400.000
;WIPE_START
G1 F7200.000
G1 X81.586 Y74.787 E-0.63032
G1 X82.386 Y74.398 E-0.28168
;WIPE_END
G1 E-0.04800 F2400.000
G1 Z0.400 F9000.000
G1 X100.204 Y76.536
G1 Z0.200
G1 E3.20000 F1500.000
M204 S800
;TYPE:Solid infill
;WIDTH:0.422941
G1 F1200.000
G1 X101.705 Y78.037 E0.06711
G1 X102.892 Y79.322 E0.05527
G1 X103.954 Y80.752 E0.05627
G1 X104.056 Y80.925 E0.00636
G1 X99.094 Y75.964 E0.22171
G1 X98.886 Y75.818 E0.00803
G1 X97.820 Y75.227 E0.03851
G1 X104.827 Y82.234 E0.31310
G1 X105.286 Y83.231 E0.03469
G1 X96.778 Y74.723 E0.38020
G1 X95.848 Y74.330 E0.03189
G1 X105.676 Y84.158 E0.43919
G1 X105.942 Y84.961 E0.02673
G1 X95.051 Y74.070 E0.48668
M73 P6 R13
G1 X94.282 Y73.838 E0.02539
G1 X106.183 Y85.740 E0.53185
G1 X106.332 Y86.426 E0.02217
G1 X93.578 Y73.672 E0.56994
G1 X92.916 Y73.547 E0.02130
G1 X106.480 Y87.112 E0.60616
G1 X106.529 Y87.339 E0.00735
G1 X106.572 Y87.741 E0.01278
G1 X92.253 Y73.422 E0.63988
G1 X91.667 Y73.373 E0.01860
G1 X106.637 Y88.343 E0.66897
G1 X106.701 Y88.945 E0.01912
G1 X91.083 Y73.326 E0.69795
G1 X90.498 Y73.280 E0.01852
G1 X106.719 Y89.500 E0.72484
G1 X106.719 Y90.037 E0.01698
G1 X89.971 Y73.289 E0.74842
M73 P7 R13
G1 X89.447 Y73.303 E0.01655
G1 X106.719 Y90.575 E0.77182
G1 X106.719 Y90.890 E0.00998
G1 X106.697 Y91.091 E0.00636
G1 X88.924 Y73.317 E0.79425
G1 X88.678 Y73.324 E0.00777
G1 X88.426 Y73.357 E0.00801
G1 X106.645 Y91.576 E0.81415
G1 X106.593 Y92.062 E0.01543
G1 X87.953 Y73.421 E0.83301
G1 X87.479 Y73.484 E0.01511
G1 X106.541 Y92.547 E0.85187
G1 X106.456 Y92.999 E0.01454
G1 X87.005 Y73.548 E0.86924
M73 P8 R13
G1 X86.565 Y73.645 E0.01424
G1 X106.361 Y93.441 E0.88464
G1 X106.265 Y93.883 E0.01429
G1 X86.133 Y73.751 E0.89967
G1 X85.701 Y73.856 E0.01405
G1 X106.169 Y94.325 E0.91470
M73 P8 R12
G1 X106.042 Y94.735 E0.01358
G1 X85.269 Y73.962 E0.92832
G1 X84.866 Y74.097 E0.01341
G1 X105.909 Y95.139 E0.94033
G1 X105.775 Y95.543 E0.01344
G1 X84.471 Y74.239 E0.95201
M73 P9 R12
G1 X84.076 Y74.382 E0.01327
G1 X93.030 Y83.335 E0.40012
G1 X92.703 Y83.180 E0.01144
G1 X92.338 Y83.180 E0.01155
G1 X83.681 Y74.524 E0.38682
G1 X83.305 Y74.685 E0.01293
G1 X91.800 Y83.180 E0.37961
G1 X91.263 Y83.180 E0.01698
G1 X82.944 Y74.861 E0.37176
G1 X82.582 Y75.037 E0.01271
G1 X90.725 Y83.180 E0.36390
G1 X90.188 Y83.180 E0.01698
G1 X82.220 Y75.213 E0.35604
G1 X81.863 Y75.393 E0.01265
G1 X89.650 Y83.180 E0.34800
G1 X89.113 Y83.180 E0.01698
G1 X81.532 Y75.600 E0.33876
G1 X81.202 Y75.806 E0.01232
G1 X88.575 Y83.180 E0.32952
G1 X88.038 Y83.180 E0.01698
G1 X80.871 Y76.013 E0.32027
G1 X80.541 Y76.220 E0.01232
G1 X87.501 Y83.180 E0.31103
G1 X87.322 Y83.180 E0.00564
G1 X87.079 Y83.296 E0.00852
G1 X80.227 Y76.444 E0.30620
M73 P10 R12
G1 X79.926 Y76.680 E0.01209
G1 X86.714 Y83.469 E0.30337
G1 X86.367 Y83.659 E0.01251
G1 X79.624 Y76.916 E0.30129
G1 X79.323 Y77.153 E0.01209
G1 X86.031 Y83.860 E0.29974
G1 X85.713 Y84.080 E0.01221
G1 X79.022 Y77.389 E0.29899
G1 X78.748 Y77.652 E0.01201
G1 X85.417 Y84.321 E0.29803
G1 X85.220 Y84.661 E0.01243
G1 X78.475 Y77.917 E0.30140
G1 X78.203 Y78.182 E0.01201
G1 X85.023 Y85.002 E0.30478
G1 X84.826 Y85.343 E0.01243
G1 X77.931 Y78.447 E0.30816
G1 X77.665 Y78.719 E0.01201
G1 X84.630 Y85.684 E0.31124
G1 X84.433 Y86.024 E0.01243
G1 X77.421 Y79.013 E0.31334
G1 X77.178 Y79.306 E0.01206
G1 X84.236 Y86.365 E0.31544
G1 X84.040 Y86.706 E0.01243
G1 X76.934 Y79.600 E0.31753
G1 X76.690 Y79.894 E0.01206
G1 X83.843 Y87.046 E0.31963
G1 X83.646 Y87.387 E0.01243
G1 X76.463 Y80.204 E0.32099
G1 X76.249 Y80.527 E0.01225
G1 X83.450 Y87.728 E0.32177
G1 X83.253 Y88.069 E0.01243
G1 X76.035 Y80.850 E0.32256
M73 P11 R12
G1 X75.820 Y81.174 E0.01225
G1 X83.056 Y88.409 E0.32335
G1 X82.859 Y88.750 E0.01243
G1 X75.606 Y81.497 E0.32414
G1 X75.421 Y81.849 E0.01258
G1 X82.741 Y89.169 E0.32711
G1 X82.701 Y89.666 E0.01576
G1 X75.237 Y82.203 E0.33353
G1 X75.054 Y82.557 E0.01259
G1 X82.698 Y90.201 E0.34160
G1 X82.737 Y90.777 E0.01825
G1 X74.870 Y82.910 E0.35155
G1 X74.702 Y83.280 E0.01283
G1 X83.115 Y91.693 E0.37594
G1 X83.849 Y92.965 E0.04640
G1 X74.551 Y83.667 E0.41550
G1 X74.400 Y84.053 E0.01311
G1 X85.047 Y94.700 E0.47577
M204 S1250
G1 E-2.24000 F2400.000
;WIPE_START
G1 F7200.000
G1 X83.011 Y92.663 E-0.91200
;WIPE_END
G1 E-0.04800 F2400.000
G1 Z0.400 F9000.000
G1 X94.955 Y85.260
G1 Z0.200
G1 E3.20000 F1500.000
M204 S800
G1 F1200.000
G1 X105.642 Y95.947 E0.47755
G1 X105.486 Y96.329 E0.01303
G1 X96.153 Y86.996 E0.41708
G1 X96.887 Y88.267 E0.04640
G1 X105.318 Y96.699 E0.37678
M73 P12 R12
G1 X105.151 Y97.068 E0.01283
G1 X97.287 Y89.204 E0.35141
G1 X97.327 Y89.782 E0.01830
G1 X104.983 Y97.438 E0.34211
G1 X104.807 Y97.800 E0.01271
G1 X97.326 Y90.318 E0.33434
G1 X97.285 Y90.815 E0.01576
G1 X104.608 Y98.138 E0.32723
G1 X104.409 Y98.476 E0.01240
G1 X97.172 Y91.239 E0.32339
G1 X96.975 Y91.580 E0.01243
G1 X104.209 Y98.814 E0.32327
G1 X104.010 Y99.152 E0.01240
G1 X96.779 Y91.921 E0.32316
G1 X96.582 Y92.261 E0.01243
G1 X103.790 Y99.469 E0.32209
G1 X103.560 Y99.777 E0.01214
G1 X96.385 Y92.602 E0.32065
G1 X96.188 Y92.943 E0.01243
G1 X103.331 Y100.086 E0.31920
G1 X103.102 Y100.394 E0.01214
G1 X95.992 Y93.284 E0.31775
G1 X95.795 Y93.624 E0.01243
G1 X102.871 Y100.700 E0.31620
G1 X102.613 Y100.980 E0.01202
G1 X95.598 Y93.965 E0.31346
G1 X95.402 Y94.306 E0.01243
G1 X102.355 Y101.259 E0.31073
G1 X102.097 Y101.538 E0.01202
G1 X95.205 Y94.646 E0.30799
